<?xml version="1.0" encoding="UTF-8"?>
<map version="1.10" tiledversion="1.10.2" orientation="orthogonal" renderorder="right-down" width="16" height="24" tilewidth="16" tileheight="16" infinite="1" nextlayerid="28" nextobjectid="1">
 <tileset firstgid="1" name="Main_elements" tilewidth="16" tileheight="16" tilecount="741" columns="57">
  <image source="Pages_elements_full.png" width="912" height="208"/>
 </tileset>
 <tileset firstgid="742" name="Page" tilewidth="16" tileheight="16" tilecount="204" columns="17">
  <image source="Page.png" width="272" height="192"/>
 </tileset>
 <tileset firstgid="946" name="Icons" tilewidth="16" tileheight="16" tilecount="96" columns="12">
  <image source="Icons.png" width="192" height="128"/>
 </tileset>
 <tileset firstgid="1042" name="Titles" tilewidth="16" tileheight="16" tilecount="1032" columns="43">
  <image source="Titles.png" width="688" height="384"/>
 </tileset>
 <tileset firstgid="2074" name="Monsters" tilewidth="16" tileheight="16" tilecount="646" columns="19">
  <image source="Monsters.png" width="304" height="544"/>
 </tileset>
 <layer id="25" name="Pages" width="16" height="24">
  <data encoding="csv">
   <chunk x="16" y="-16" width="16" height="16">
0,0,0,0,0,0,0,0,0,0,0,0,0,0,0,0,
0,0,0,0,0,0,0,0,0,0,0,0,0,0,0,0,
0,0,0,0,0,0,0,0,0,0,0,0,0,0,0,0,
0,0,0,0,0,0,0,0,0,0,0,0,0,0,0,0,
0,0,0,0,0,0,0,0,0,0,0,0,0,0,0,0,
0,0,0,0,0,0,0,742,743,744,745,746,747,748,749,750,
0,0,0,0,0,0,0,759,760,761,762,763,764,765,766,767,
0,0,0,0,0,0,0,776,777,778,779,780,781,782,783,784,
0,0,0,0,0,0,0,793,794,795,796,797,798,799,800,801,
0,0,0,0,0,0,0,810,811,812,813,814,815,816,817,818,
0,0,0,0,0,0,0,827,828,829,830,831,832,833,834,835,
0,0,0,0,0,0,0,844,845,846,847,848,849,850,851,852,
0,0,0,0,0,0,0,861,862,863,864,865,866,867,868,869,
0,0,0,0,0,0,0,878,879,880,881,882,883,884,885,886,
0,0,0,0,0,0,0,895,896,897,898,899,900,901,902,903,
0,0,0,0,0,0,0,912,913,914,915,916,917,918,919,920
</chunk>
   <chunk x="32" y="-16" width="16" height="16">
0,0,0,0,0,0,0,0,0,0,0,0,0,0,0,0,
0,0,0,0,0,0,0,0,0,0,0,0,0,0,0,0,
0,0,0,0,0,0,0,0,0,0,0,0,0,0,0,0,
0,0,0,0,0,0,0,0,0,0,0,0,0,0,0,0,
0,0,0,0,0,0,0,0,0,0,0,0,0,0,0,0,
751,752,753,754,755,756,757,758,0,0,0,0,0,0,0,0,
768,769,770,771,772,773,774,775,0,0,0,0,0,0,0,0,
785,786,787,788,789,790,791,792,0,0,0,0,0,0,0,0,
802,803,804,805,806,807,808,809,0,0,0,0,0,0,0,0,
819,820,821,822,823,824,825,826,0,0,0,0,0,0,0,0,
836,837,838,839,840,841,842,843,0,0,0,0,0,0,0,0,
853,854,855,856,857,858,859,860,0,0,0,0,0,0,0,0,
870,871,872,873,874,875,876,877,0,0,0,0,0,0,0,0,
887,888,889,890,891,892,893,894,0,0,0,0,0,0,0,0,
904,905,906,907,908,909,910,911,0,0,0,0,0,0,0,0,
921,922,923,924,925,926,927,928,0,0,0,0,0,0,0,0
</chunk>
   <chunk x="-16" y="0" width="16" height="16">
0,0,0,0,0,0,0,0,0,0,0,0,0,0,0,0,
0,0,0,0,0,0,0,0,0,0,0,0,0,0,0,0,
0,0,0,0,0,0,0,0,0,0,0,0,0,0,0,0,
742,743,744,745,746,747,748,749,750,751,752,753,754,755,756,757,
759,760,761,762,763,764,765,766,767,768,769,770,771,772,773,774,
776,777,778,779,780,781,782,783,784,785,786,787,788,789,790,791,
793,794,795,796,797,798,799,800,801,802,803,804,805,806,807,808,
810,811,812,813,814,815,816,817,818,819,820,821,822,823,824,825,
827,828,829,830,831,832,833,834,835,836,837,838,839,840,841,842,
844,845,846,847,848,849,850,851,852,853,854,855,856,857,858,859,
861,862,863,864,865,866,867,868,869,870,871,872,873,874,875,876,
878,879,880,881,882,883,884,885,886,887,888,889,890,891,892,893,
895,896,897,898,899,900,901,902,903,904,905,906,907,908,909,910,
912,913,914,915,916,917,918,919,920,921,922,923,924,925,926,927,
929,930,931,932,933,934,935,936,937,938,939,940,941,942,943,944,
0,0,0,0,0,0,0,0,0,0,0,0,0,0,0,0
</chunk>
   <chunk x="0" y="0" width="16" height="16">
0,0,0,0,0,0,0,0,0,0,0,0,0,0,0,0,
0,0,0,0,0,0,0,0,0,0,0,0,0,0,0,0,
0,0,0,0,0,0,0,0,0,0,0,0,0,0,0,0,
758,0,0,0,742,743,744,745,746,747,748,749,750,751,752,753,
775,0,0,0,759,760,761,762,763,764,765,766,767,768,769,770,
792,0,0,0,776,777,778,779,780,781,782,783,784,785,786,787,
809,0,0,0,793,794,795,796,797,798,799,800,801,802,803,804,
826,0,0,0,810,811,812,813,814,815,816,817,818,819,820,821,
843,0,0,0,827,828,829,830,831,832,833,834,835,836,837,838,
860,0,0,0,844,845,846,847,848,849,850,851,852,853,854,855,
877,0,0,0,861,862,863,864,865,866,867,868,869,870,871,872,
894,0,0,0,878,879,880,881,882,883,884,885,886,887,888,889,
911,0,0,0,895,896,897,898,899,900,901,902,903,904,905,906,
928,0,0,0,912,913,914,915,916,917,918,919,920,921,922,923,
945,0,0,0,929,930,931,932,933,934,935,936,937,938,939,940,
0,0,0,0,0,0,0,0,0,0,0,0,0,0,0,0
</chunk>
   <chunk x="16" y="0" width="16" height="16">
0,0,0,0,0,0,0,929,930,931,932,933,934,935,936,937,
0,0,0,0,0,0,0,0,0,0,0,0,0,0,0,0,
0,0,0,0,0,0,0,0,0,0,0,0,0,0,0,0,
754,755,756,757,758,0,0,742,743,744,745,746,747,748,749,750,
771,772,773,774,775,0,0,759,760,761,762,763,764,765,766,767,
788,789,790,791,792,0,0,776,777,778,779,780,781,782,783,784,
805,806,807,808,809,0,0,793,794,795,796,797,798,799,800,801,
822,823,824,825,826,0,0,810,811,812,813,814,815,816,817,818,
839,840,841,842,843,0,0,827,828,829,830,831,832,833,834,835,
856,857,858,859,860,0,0,844,845,846,847,848,849,850,851,852,
873,874,875,876,877,0,0,861,862,863,864,865,866,867,868,869,
890,891,892,893,894,0,0,878,879,880,881,882,883,884,885,886,
907,908,909,910,911,0,0,895,896,897,898,899,900,901,902,903,
924,925,926,927,928,0,0,912,913,914,915,916,917,918,919,920,
941,942,943,944,945,0,0,929,930,931,932,933,934,935,936,937,
0,0,0,0,0,0,0,0,0,0,0,0,0,0,0,0
</chunk>
   <chunk x="32" y="0" width="16" height="16">
938,939,940,941,942,943,944,945,0,0,0,0,0,0,0,0,
0,0,0,0,0,0,0,0,0,0,0,0,0,0,0,0,
0,0,0,0,0,0,0,0,0,0,0,0,0,0,0,0,
751,752,753,754,755,756,757,758,0,0,742,743,744,745,746,747,
768,769,770,771,772,773,774,775,0,0,759,760,761,762,763,764,
785,786,787,788,789,790,791,792,0,0,776,777,778,779,780,781,
802,803,804,805,806,807,808,809,0,0,793,794,795,796,797,798,
819,820,821,822,823,824,825,826,0,0,810,811,812,813,814,815,
836,837,838,839,840,841,842,843,0,0,827,828,829,830,831,832,
853,854,855,856,857,858,859,860,0,0,844,845,846,847,848,849,
870,871,872,873,874,875,876,877,0,0,861,862,863,864,865,866,
887,888,889,890,891,892,893,894,0,0,878,879,880,881,882,883,
904,905,906,907,908,909,910,911,0,0,895,896,897,898,899,900,
921,922,923,924,925,926,927,928,0,0,912,913,914,915,916,917,
938,939,940,941,942,943,944,945,0,0,929,930,931,932,933,934,
0,0,0,0,0,0,0,0,0,0,0,0,0,0,0,0
</chunk>
   <chunk x="48" y="0" width="16" height="16">
0,0,0,0,0,0,0,0,0,0,0,0,0,0,0,0,
0,0,0,0,0,0,0,0,0,0,0,0,0,0,0,0,
0,0,0,0,0,0,0,0,0,0,0,0,0,0,0,0,
748,749,750,751,752,753,754,755,756,757,758,0,0,0,0,0,
765,766,767,768,769,770,771,772,773,774,775,0,0,0,0,0,
782,783,784,785,786,787,788,789,790,791,792,0,0,0,0,0,
799,800,801,802,803,804,805,806,807,808,809,0,0,0,0,0,
816,817,818,819,820,821,822,823,824,825,826,0,0,0,0,0,
833,834,835,836,837,838,839,840,841,842,843,0,0,0,0,0,
850,851,852,853,854,855,856,857,858,859,860,0,0,0,0,0,
867,868,869,870,871,872,873,874,875,876,877,0,0,0,0,0,
884,885,886,887,888,889,890,891,892,893,894,0,0,0,0,0,
901,902,903,904,905,906,907,908,909,910,911,0,0,0,0,0,
918,919,920,921,922,923,924,925,926,927,928,0,0,0,0,0,
935,936,937,938,939,940,941,942,943,944,945,0,0,0,0,0,
0,0,0,0,0,0,0,0,0,0,0,0,0,0,0,0
</chunk>
   <chunk x="-16" y="16" width="16" height="16">
0,0,0,0,0,0,0,0,0,0,0,0,0,0,0,0,
742,743,744,745,746,747,748,749,750,751,752,753,754,755,756,757,
759,760,761,762,763,764,765,766,767,768,769,770,771,772,773,774,
776,777,778,779,780,781,782,783,784,785,786,787,788,789,790,791,
793,794,795,796,797,798,799,800,801,802,803,804,805,806,807,808,
810,811,812,813,814,815,816,817,818,819,820,821,822,823,824,825,
827,828,829,830,831,832,833,834,835,836,837,838,839,840,841,842,
844,845,846,847,848,849,850,851,852,853,854,855,856,857,858,859,
861,862,863,864,865,866,867,868,869,870,871,872,873,874,875,876,
878,879,880,881,882,883,884,885,886,887,888,889,890,891,892,893,
895,896,897,898,899,900,901,902,903,904,905,906,907,908,909,910,
912,913,914,915,916,917,918,919,920,921,922,923,924,925,926,927,
929,930,931,932,933,934,935,936,937,938,939,940,941,942,943,944,
0,0,0,0,0,0,0,0,0,0,0,0,0,0,0,0,
0,0,0,0,0,0,0,0,0,0,0,0,0,0,0,0,
0,0,0,0,0,0,0,0,0,0,0,0,0,0,0,0
</chunk>
   <chunk x="0" y="16" width="16" height="16">
0,0,0,0,0,0,0,0,0,0,0,0,0,0,0,0,
758,0,0,0,742,743,744,745,746,747,748,749,750,751,752,753,
775,0,0,0,759,760,761,762,763,764,765,766,767,768,769,770,
792,0,0,0,776,777,778,779,780,781,782,783,784,785,786,787,
809,0,0,0,793,794,795,796,797,798,799,800,801,802,803,804,
826,0,0,0,810,811,812,813,814,815,816,817,818,819,820,821,
843,0,0,0,827,828,829,830,831,832,833,834,835,836,837,838,
860,0,0,0,844,845,846,847,848,849,850,851,852,853,854,855,
877,0,0,0,861,862,863,864,865,866,867,868,869,870,871,872,
894,0,0,0,878,879,880,881,882,883,884,885,886,887,888,889,
911,0,0,0,895,896,897,898,899,900,901,902,903,904,905,906,
928,0,0,0,912,913,914,915,916,917,918,919,920,921,922,923,
945,0,0,0,929,930,931,932,933,934,935,936,937,938,939,940,
0,0,0,0,0,0,0,0,0,0,0,0,0,0,0,0,
0,0,0,0,0,0,0,0,0,0,0,0,0,0,0,0,
0,0,0,0,0,0,0,0,0,0,0,0,0,0,0,0
</chunk>
   <chunk x="16" y="16" width="16" height="16">
0,0,0,0,0,0,0,0,0,0,0,0,0,0,0,0,
754,755,756,757,758,0,0,742,743,744,745,746,747,748,749,750,
771,772,773,774,775,0,0,759,760,761,762,763,764,765,766,767,
788,789,790,791,792,0,0,776,777,778,779,780,781,782,783,784,
805,806,807,808,809,0,0,793,794,795,796,797,798,799,800,801,
822,823,824,825,826,0,0,810,811,812,813,814,815,816,817,818,
839,840,841,842,843,0,0,827,828,829,830,831,832,833,834,835,
856,857,858,859,860,0,0,844,845,846,847,848,849,850,851,852,
873,874,875,876,877,0,0,861,862,863,864,865,866,867,868,869,
890,891,892,893,894,0,0,878,879,880,881,882,883,884,885,886,
907,908,909,910,911,0,0,895,896,897,898,899,900,901,902,903,
924,925,926,927,928,0,0,912,913,914,915,916,917,918,919,920,
941,942,943,944,945,0,0,929,930,931,932,933,934,935,936,937,
0,0,0,0,0,0,0,0,0,0,0,0,0,0,0,0,
0,0,0,0,0,0,0,0,0,0,0,0,0,0,0,0,
0,0,0,0,0,0,0,0,0,0,0,0,0,0,0,0
</chunk>
   <chunk x="32" y="16" width="16" height="16">
0,0,0,0,0,0,0,0,0,0,0,0,0,0,0,0,
751,752,753,754,755,756,757,758,0,0,742,743,744,745,746,747,
768,769,770,771,772,773,774,775,0,0,759,760,761,762,763,764,
785,786,787,788,789,790,791,792,0,0,776,777,778,779,780,781,
802,803,804,805,806,807,808,809,0,0,793,794,795,796,797,798,
819,820,821,822,823,824,825,826,0,0,810,811,812,813,814,815,
836,837,838,839,840,841,842,843,0,0,827,828,829,830,831,832,
853,854,855,856,857,858,859,860,0,0,844,845,846,847,848,849,
870,871,872,873,874,875,876,877,0,0,861,862,863,864,865,866,
887,888,889,890,891,892,893,894,0,0,878,879,880,881,882,883,
904,905,906,907,908,909,910,911,0,0,895,896,897,898,899,900,
921,922,923,924,925,926,927,928,0,0,912,913,914,915,916,917,
938,939,940,941,942,943,944,945,0,0,929,930,931,932,933,934,
0,0,0,0,0,0,0,0,0,0,0,0,0,0,0,0,
0,0,0,0,0,0,0,0,0,0,0,0,0,0,0,0,
0,0,0,0,0,0,0,0,0,0,0,0,0,0,0,0
</chunk>
   <chunk x="48" y="16" width="16" height="16">
0,0,0,0,0,0,0,0,0,0,0,0,0,0,0,0,
748,749,750,751,752,753,754,755,756,757,758,0,0,0,0,0,
765,766,767,768,769,770,771,772,773,774,775,0,0,0,0,0,
782,783,784,785,786,787,788,789,790,791,792,0,0,0,0,0,
799,800,801,802,803,804,805,806,807,808,809,0,0,0,0,0,
816,817,818,819,820,821,822,823,824,825,826,0,0,0,0,0,
833,834,835,836,837,838,839,840,841,842,843,0,0,0,0,0,
850,851,852,853,854,855,856,857,858,859,860,0,0,0,0,0,
867,868,869,870,871,872,873,874,875,876,877,0,0,0,0,0,
884,885,886,887,888,889,890,891,892,893,894,0,0,0,0,0,
901,902,903,904,905,906,907,908,909,910,911,0,0,0,0,0,
918,919,920,921,922,923,924,925,926,927,928,0,0,0,0,0,
935,936,937,938,939,940,941,942,943,944,945,0,0,0,0,0,
0,0,0,0,0,0,0,0,0,0,0,0,0,0,0,0,
0,0,0,0,0,0,0,0,0,0,0,0,0,0,0,0,
0,0,0,0,0,0,0,0,0,0,0,0,0,0,0,0
</chunk>
   <chunk x="-16" y="32" width="16" height="16">
742,743,744,745,746,747,748,749,750,751,752,753,754,755,756,757,
759,760,761,762,763,764,765,766,767,768,769,770,771,772,773,774,
776,777,778,779,780,781,782,783,784,785,786,787,788,789,790,791,
793,794,795,796,797,798,799,800,801,802,803,804,805,806,807,808,
810,811,812,813,814,815,816,817,818,819,820,821,822,823,824,825,
827,828,829,830,831,832,833,834,835,836,837,838,839,840,841,842,
844,845,846,847,848,849,850,851,852,853,854,855,856,857,858,859,
861,862,863,864,865,866,867,868,869,870,871,872,873,874,875,876,
878,879,880,881,882,883,884,885,886,887,888,889,890,891,892,893,
895,896,897,898,899,900,901,902,903,904,905,906,907,908,909,910,
912,913,914,915,916,917,918,919,920,921,922,923,924,925,926,927,
929,930,931,932,933,934,935,936,937,938,939,940,941,942,943,944,
0,0,0,0,0,0,0,0,0,0,0,0,0,0,0,0,
0,0,0,0,0,0,0,0,0,0,0,0,0,0,0,0,
742,743,744,745,746,747,748,749,750,751,752,753,754,755,756,757,
759,760,761,762,763,764,765,766,767,768,769,770,771,772,773,774
</chunk>
   <chunk x="0" y="32" width="16" height="16">
758,0,0,0,742,743,744,745,746,747,748,749,750,751,752,753,
775,0,0,0,759,760,761,762,763,764,765,766,767,768,769,770,
792,0,0,0,776,777,778,779,780,781,782,783,784,785,786,787,
809,0,0,0,793,794,795,796,797,798,799,800,801,802,803,804,
826,0,0,0,810,811,812,813,814,815,816,817,818,819,820,821,
843,0,0,0,827,828,829,830,831,832,833,834,835,836,837,838,
860,0,0,0,844,845,846,847,848,849,850,851,852,853,854,855,
877,0,0,0,861,862,863,864,865,866,867,868,869,870,871,872,
894,0,0,0,878,879,880,881,882,883,884,885,886,887,888,889,
911,0,0,0,895,896,897,898,899,900,901,902,903,904,905,906,
928,0,0,0,912,913,914,915,916,917,918,919,920,921,922,923,
945,0,0,0,929,930,931,932,933,934,935,936,937,938,939,940,
0,0,0,0,0,0,0,0,0,0,0,0,0,0,0,0,
0,0,0,0,0,0,0,0,0,0,0,0,0,0,0,0,
758,0,0,0,742,743,744,745,746,747,748,749,750,751,752,753,
775,0,0,0,759,760,761,762,763,764,765,766,767,768,769,770
</chunk>
   <chunk x="16" y="32" width="16" height="16">
754,755,756,757,758,0,0,742,743,744,745,746,747,748,749,750,
771,772,773,774,775,0,0,759,760,761,762,763,764,765,766,767,
788,789,790,791,792,0,0,776,777,778,779,780,781,782,783,784,
805,806,807,808,809,0,0,793,794,795,796,797,798,799,800,801,
822,823,824,825,826,0,0,810,811,812,813,814,815,816,817,818,
839,840,841,842,843,0,0,827,828,829,830,831,832,833,834,835,
856,857,858,859,860,0,0,844,845,846,847,848,849,850,851,852,
873,874,875,876,877,0,0,861,862,863,864,865,866,867,868,869,
890,891,892,893,894,0,0,878,879,880,881,882,883,884,885,886,
907,908,909,910,911,0,0,895,896,897,898,899,900,901,902,903,
924,925,926,927,928,0,0,912,913,914,915,916,917,918,919,920,
941,942,943,944,945,0,0,929,930,931,932,933,934,935,936,937,
0,0,0,0,0,0,0,0,0,0,0,0,0,0,0,0,
0,0,0,0,0,0,0,0,0,0,0,0,0,0,0,0,
754,755,756,757,758,0,0,742,743,744,745,746,747,748,749,750,
771,772,773,774,775,0,0,759,760,761,762,763,764,765,766,767
</chunk>
   <chunk x="32" y="32" width="16" height="16">
751,752,753,754,755,756,757,758,0,0,742,743,744,745,746,747,
768,769,770,771,772,773,774,775,0,0,759,760,761,762,763,764,
785,786,787,788,789,790,791,792,0,0,776,777,778,779,780,781,
802,803,804,805,806,807,808,809,0,0,793,794,795,796,797,798,
819,820,821,822,823,824,825,826,0,0,810,811,812,813,814,815,
836,837,838,839,840,841,842,843,0,0,827,828,829,830,831,832,
853,854,855,856,857,858,859,860,0,0,844,845,846,847,848,849,
870,871,872,873,874,875,876,877,0,0,861,862,863,864,865,866,
887,888,889,890,891,892,893,894,0,0,878,879,880,881,882,883,
904,905,906,907,908,909,910,911,0,0,895,896,897,898,899,900,
921,922,923,924,925,926,927,928,0,0,912,913,914,915,916,917,
938,939,940,941,942,943,944,945,0,0,929,930,931,932,933,934,
0,0,0,0,0,0,0,0,0,0,0,0,0,0,0,0,
0,0,0,0,0,0,0,0,0,0,0,0,0,0,0,0,
751,752,753,754,755,756,757,758,0,0,742,743,744,745,746,747,
768,769,770,771,772,773,774,775,0,0,759,760,761,762,763,764
</chunk>
   <chunk x="48" y="32" width="16" height="16">
748,749,750,751,752,753,754,755,756,757,758,0,0,0,0,0,
765,766,767,768,769,770,771,772,773,774,775,0,0,0,0,0,
782,783,784,785,786,787,788,789,790,791,792,0,0,0,0,0,
799,800,801,802,803,804,805,806,807,808,809,0,0,0,0,0,
816,817,818,819,820,821,822,823,824,825,826,0,0,0,0,0,
833,834,835,836,837,838,839,840,841,842,843,0,0,0,0,0,
850,851,852,853,854,855,856,857,858,859,860,0,0,0,0,0,
867,868,869,870,871,872,873,874,875,876,877,0,0,0,0,0,
884,885,886,887,888,889,890,891,892,893,894,0,0,0,0,0,
901,902,903,904,905,906,907,908,909,910,911,0,0,0,0,0,
918,919,920,921,922,923,924,925,926,927,928,0,0,0,0,0,
935,936,937,938,939,940,941,942,943,944,945,0,0,0,0,0,
0,0,0,0,0,0,0,0,0,0,0,0,0,0,0,0,
0,0,0,0,0,0,0,0,0,0,0,0,0,0,0,0,
748,749,750,751,752,753,754,755,756,757,758,0,0,0,0,0,
765,766,767,768,769,770,771,772,773,774,775,0,0,0,0,0
</chunk>
   <chunk x="-16" y="48" width="16" height="16">
776,777,778,779,780,781,782,783,784,785,786,787,788,789,790,791,
793,794,795,796,797,798,799,800,801,802,803,804,805,806,807,808,
810,811,812,813,814,815,816,817,818,819,820,821,822,823,824,825,
827,828,829,830,831,832,833,834,835,836,837,838,839,840,841,842,
844,845,846,847,848,849,850,851,852,853,854,855,856,857,858,859,
861,862,863,864,865,866,867,868,869,870,871,872,873,874,875,876,
878,879,880,881,882,883,884,885,886,887,888,889,890,891,892,893,
895,896,897,898,899,900,901,902,903,904,905,906,907,908,909,910,
912,913,914,915,916,917,918,919,920,921,922,923,924,925,926,927,
929,930,931,932,933,934,935,936,937,938,939,940,941,942,943,944,
0,0,0,0,0,0,0,0,0,0,0,0,0,0,0,0,
0,0,0,0,0,0,0,0,0,0,0,0,0,0,0,0,
742,743,744,745,746,747,748,749,750,751,752,753,754,755,756,757,
759,760,761,762,763,764,765,766,767,768,769,770,771,772,773,774,
776,777,778,779,780,781,782,783,784,785,786,787,788,789,790,791,
793,794,795,796,797,798,799,800,801,802,803,804,805,806,807,808
</chunk>
   <chunk x="0" y="48" width="16" height="16">
792,0,0,0,776,777,778,779,780,781,782,783,784,785,786,787,
809,0,0,0,793,794,795,796,797,798,799,800,801,802,803,804,
826,0,0,0,810,811,812,813,814,815,816,817,818,819,820,821,
843,0,0,0,827,828,829,830,831,832,833,834,835,836,837,838,
860,0,0,0,844,845,846,847,848,849,850,851,852,853,854,855,
877,0,0,0,861,862,863,864,865,866,867,868,869,870,871,872,
894,0,0,0,878,879,880,881,882,883,884,885,886,887,888,889,
911,0,0,0,895,896,897,898,899,900,901,902,903,904,905,906,
928,0,0,0,912,913,914,915,916,917,918,919,920,921,922,923,
945,0,0,0,929,930,931,932,933,934,935,936,937,938,939,940,
0,0,0,0,0,0,0,0,0,0,0,0,0,0,0,0,
0,0,0,0,0,0,0,0,0,0,0,0,0,0,0,0,
758,0,0,0,742,743,744,745,746,747,748,749,750,751,752,753,
775,0,0,0,759,760,761,762,763,764,765,766,767,768,769,770,
792,0,0,0,776,777,778,779,780,781,782,783,784,785,786,787,
809,0,0,0,793,794,795,796,797,798,799,800,801,802,803,804
</chunk>
   <chunk x="16" y="48" width="16" height="16">
788,789,790,791,792,0,0,776,777,778,779,780,781,782,783,784,
805,806,807,808,809,0,0,793,794,795,796,797,798,799,800,801,
822,823,824,825,826,0,0,810,811,812,813,814,815,816,817,818,
839,840,841,842,843,0,0,827,828,829,830,831,832,833,834,835,
856,857,858,859,860,0,0,844,845,846,847,848,849,850,851,852,
873,874,875,876,877,0,0,861,862,863,864,865,866,867,868,869,
890,891,892,893,894,0,0,878,879,880,881,882,883,884,885,886,
907,908,909,910,911,0,0,895,896,897,898,899,900,901,902,903,
924,925,926,927,928,0,0,912,913,914,915,916,917,918,919,920,
941,942,943,944,945,0,0,929,930,931,932,933,934,935,936,937,
0,0,0,0,0,0,0,0,0,0,0,0,0,0,0,0,
0,0,0,0,0,0,0,0,0,0,0,0,0,0,0,0,
754,755,756,757,758,0,0,742,743,744,745,746,747,748,749,750,
771,772,773,774,775,0,0,759,760,761,762,763,764,765,766,767,
788,789,790,791,792,0,0,776,777,778,779,780,781,782,783,784,
805,806,807,808,809,0,0,793,794,795,796,797,798,799,800,801
</chunk>
   <chunk x="32" y="48" width="16" height="16">
785,786,787,788,789,790,791,792,0,0,776,777,778,779,780,781,
802,803,804,805,806,807,808,809,0,0,793,794,795,796,797,798,
819,820,821,822,823,824,825,826,0,0,810,811,812,813,814,815,
836,837,838,839,840,841,842,843,0,0,827,828,829,830,831,832,
853,854,855,856,857,858,859,860,0,0,844,845,846,847,848,849,
870,871,872,873,874,875,876,877,0,0,861,862,863,864,865,866,
887,888,889,890,891,892,893,894,0,0,878,879,880,881,882,883,
904,905,906,907,908,909,910,911,0,0,895,896,897,898,899,900,
921,922,923,924,925,926,927,928,0,0,912,913,914,915,916,917,
938,939,940,941,942,943,944,945,0,0,929,930,931,932,933,934,
0,0,0,0,0,0,0,0,0,0,0,0,0,0,0,0,
0,0,0,0,0,0,0,0,0,0,0,0,0,0,0,0,
751,752,753,754,755,756,757,758,0,0,742,743,744,745,746,747,
768,769,770,771,772,773,774,775,0,0,759,760,761,762,763,764,
785,786,787,788,789,790,791,792,0,0,776,777,778,779,780,781,
802,803,804,805,806,807,808,809,0,0,793,794,795,796,797,798
</chunk>
   <chunk x="48" y="48" width="16" height="16">
782,783,784,785,786,787,788,789,790,791,792,0,0,0,0,0,
799,800,801,802,803,804,805,806,807,808,809,0,0,0,0,0,
816,817,818,819,820,821,822,823,824,825,826,0,0,0,0,0,
833,834,835,836,837,838,839,840,841,842,843,0,0,0,0,0,
850,851,852,853,854,855,856,857,858,859,860,0,0,0,0,0,
867,868,869,870,871,872,873,874,875,876,877,0,0,0,0,0,
884,885,886,887,888,889,890,891,892,893,894,0,0,0,0,0,
901,902,903,904,905,906,907,908,909,910,911,0,0,0,0,0,
918,919,920,921,922,923,924,925,926,927,928,0,0,0,0,0,
935,936,937,938,939,940,941,942,943,944,945,0,0,0,0,0,
0,0,0,0,0,0,0,0,0,0,0,0,0,0,0,0,
0,0,0,0,0,0,0,0,0,0,0,0,0,0,0,0,
748,749,750,751,752,753,754,755,756,757,758,0,0,0,0,0,
765,766,767,768,769,770,771,772,773,774,775,0,0,0,0,0,
782,783,784,785,786,787,788,789,790,791,792,0,0,0,0,0,
799,800,801,802,803,804,805,806,807,808,809,0,0,0,0,0
</chunk>
   <chunk x="-16" y="64" width="16" height="16">
810,811,812,813,814,815,816,817,818,819,820,821,822,823,824,825,
827,828,829,830,831,832,833,834,835,836,837,838,839,840,841,842,
844,845,846,847,848,849,850,851,852,853,854,855,856,857,858,859,
861,862,863,864,865,866,867,868,869,870,871,872,873,874,875,876,
878,879,880,881,882,883,884,885,886,887,888,889,890,891,892,893,
895,896,897,898,899,900,901,902,903,904,905,906,907,908,909,910,
912,913,914,915,916,917,918,919,920,921,922,923,924,925,926,927,
929,930,931,932,933,934,935,936,937,938,939,940,941,942,943,944,
0,0,0,0,0,0,0,0,0,0,0,0,0,0,0,0,
0,0,0,0,0,0,0,0,0,0,0,0,0,0,0,0,
0,0,0,0,0,0,0,0,0,0,0,0,0,0,0,0,
742,743,744,745,746,747,748,749,750,751,752,753,754,755,756,757,
759,760,761,762,763,764,765,766,767,768,769,770,771,772,773,774,
776,777,778,779,780,781,782,783,784,785,786,787,788,789,790,791,
793,794,795,796,797,798,799,800,801,802,803,804,805,806,807,808,
810,811,812,813,814,815,816,817,818,819,820,821,822,823,824,825
</chunk>
   <chunk x="0" y="64" width="16" height="16">
826,0,0,0,810,811,812,813,814,815,816,817,818,819,820,821,
843,0,0,0,827,828,829,830,831,832,833,834,835,836,837,838,
860,0,0,0,844,845,846,847,848,849,850,851,852,853,854,855,
877,0,0,0,861,862,863,864,865,866,867,868,869,870,871,872,
894,0,0,0,878,879,880,881,882,883,884,885,886,887,888,889,
911,0,0,0,895,896,897,898,899,900,901,902,903,904,905,906,
928,0,0,0,912,913,914,915,916,917,918,919,920,921,922,923,
945,0,0,0,929,930,931,932,933,934,935,936,937,938,939,940,
0,0,0,0,0,0,0,0,0,0,0,0,0,0,0,0,
0,0,0,0,0,0,0,0,0,0,0,0,0,0,0,0,
0,0,0,0,0,0,0,0,0,0,0,0,0,0,0,0,
758,0,0,0,742,743,744,745,746,747,748,749,750,751,752,753,
775,0,0,0,759,760,761,762,763,764,765,766,767,768,769,770,
792,0,0,0,776,777,778,779,780,781,782,783,784,785,786,787,
809,0,0,0,793,794,795,796,797,798,799,800,801,802,803,804,
826,0,0,0,810,811,812,813,814,815,816,817,818,819,820,821
</chunk>
   <chunk x="16" y="64" width="16" height="16">
822,823,824,825,826,0,0,810,811,812,813,814,815,816,817,818,
839,840,841,842,843,0,0,827,828,829,830,831,832,833,834,835,
856,857,858,859,860,0,0,844,845,846,847,848,849,850,851,852,
873,874,875,876,877,0,0,861,862,863,864,865,866,867,868,869,
890,891,892,893,894,0,0,878,879,880,881,882,883,884,885,886,
907,908,909,910,911,0,0,895,896,897,898,899,900,901,902,903,
924,925,926,927,928,0,0,912,913,914,915,916,917,918,919,920,
941,942,943,944,945,0,0,929,930,931,932,933,934,935,936,937,
0,0,0,0,0,0,0,0,0,0,0,0,0,0,0,0,
0,0,0,0,0,0,0,0,0,0,0,0,0,0,0,0,
0,0,0,0,0,0,0,0,0,0,0,0,0,0,0,0,
754,755,756,757,758,0,0,742,743,744,745,746,747,748,749,750,
771,772,773,774,775,0,0,759,760,761,762,763,764,765,766,767,
788,789,790,791,792,0,0,776,777,778,779,780,781,782,783,784,
805,806,807,808,809,0,0,793,794,795,796,797,798,799,800,801,
822,823,824,825,826,0,0,810,811,812,813,814,815,816,817,818
</chunk>
   <chunk x="32" y="64" width="16" height="16">
819,820,821,822,823,824,825,826,0,0,810,811,812,813,814,815,
836,837,838,839,840,841,842,843,0,0,827,828,829,830,831,832,
853,854,855,856,857,858,859,860,0,0,844,845,846,847,848,849,
870,871,872,873,874,875,876,877,0,0,861,862,863,864,865,866,
887,888,889,890,891,892,893,894,0,0,878,879,880,881,882,883,
904,905,906,907,908,909,910,911,0,0,895,896,897,898,899,900,
921,922,923,924,925,926,927,928,0,0,912,913,914,915,916,917,
938,939,940,941,942,943,944,945,0,0,929,930,931,932,933,934,
0,0,0,0,0,0,0,0,0,0,0,0,0,0,0,0,
0,0,0,0,0,0,0,0,0,0,0,0,0,0,0,0,
0,0,0,0,0,0,0,0,0,0,0,0,0,0,0,0,
751,752,753,754,755,756,757,758,0,0,742,743,744,745,746,747,
768,769,770,771,772,773,774,775,0,0,759,760,761,762,763,764,
785,786,787,788,789,790,791,792,0,0,776,777,778,779,780,781,
802,803,804,805,806,807,808,809,0,0,793,794,795,796,797,798,
819,820,821,822,823,824,825,826,0,0,810,811,812,813,814,815
</chunk>
   <chunk x="48" y="64" width="16" height="16">
816,817,818,819,820,821,822,823,824,825,826,0,0,0,0,0,
833,834,835,836,837,838,839,840,841,842,843,0,0,0,0,0,
850,851,852,853,854,855,856,857,858,859,860,0,0,0,0,0,
867,868,869,870,871,872,873,874,875,876,877,0,0,0,0,0,
884,885,886,887,888,889,890,891,892,893,894,0,0,0,0,0,
901,902,903,904,905,906,907,908,909,910,911,0,0,0,0,0,
918,919,920,921,922,923,924,925,926,927,928,0,0,0,0,0,
935,936,937,938,939,940,941,942,943,944,945,0,0,0,0,0,
0,0,0,0,0,0,0,0,0,0,0,0,0,0,0,0,
0,0,0,0,0,0,0,0,0,0,0,0,0,0,0,0,
0,0,0,0,0,0,0,0,0,0,0,0,0,0,0,0,
748,749,750,751,752,753,754,755,756,757,758,0,0,0,0,0,
765,766,767,768,769,770,771,772,773,774,775,0,0,0,0,0,
782,783,784,785,786,787,788,789,790,791,792,0,0,0,0,0,
799,800,801,802,803,804,805,806,807,808,809,0,0,0,0,0,
816,817,818,819,820,821,822,823,824,825,826,0,0,0,0,0
</chunk>
   <chunk x="-16" y="80" width="16" height="16">
827,828,829,830,831,832,833,834,835,836,837,838,839,840,841,842,
844,845,846,847,848,849,850,851,852,853,854,855,856,857,858,859,
861,862,863,864,865,866,867,868,869,870,871,872,873,874,875,876,
878,879,880,881,882,883,884,885,886,887,888,889,890,891,892,893,
895,896,897,898,899,900,901,902,903,904,905,906,907,908,909,910,
912,913,914,915,916,917,918,919,920,921,922,923,924,925,926,927,
929,930,931,932,933,934,935,936,937,938,939,940,941,942,943,944,
0,0,0,0,0,0,0,0,0,0,0,0,0,0,0,0,
0,0,0,0,0,0,0,0,0,0,0,0,0,0,0,0,
0,0,0,0,0,0,0,0,0,0,0,0,0,0,0,0,
0,0,0,0,0,0,0,0,0,0,0,0,0,0,0,0,
0,0,0,0,0,0,0,0,0,0,0,0,0,0,0,0,
0,0,0,0,0,0,0,0,0,0,0,0,0,0,0,0,
0,0,0,0,0,0,0,0,0,0,0,0,0,0,0,0,
0,0,0,0,0,0,0,0,0,0,0,0,0,0,0,0,
0,0,0,0,0,0,0,0,0,0,0,0,0,0,0,0
</chunk>
   <chunk x="0" y="80" width="16" height="16">
843,0,0,0,827,828,829,830,831,832,833,834,835,836,837,838,
860,0,0,0,844,845,846,847,848,849,850,851,852,853,854,855,
877,0,0,0,861,862,863,864,865,866,867,868,869,870,871,872,
894,0,0,0,878,879,880,881,882,883,884,885,886,887,888,889,
911,0,0,0,895,896,897,898,899,900,901,902,903,904,905,906,
928,0,0,0,912,913,914,915,916,917,918,919,920,921,922,923,
945,0,0,0,929,930,931,932,933,934,935,936,937,938,939,940,
0,0,0,0,0,0,0,0,0,0,0,0,0,0,0,0,
0,0,0,0,0,0,0,0,0,0,0,0,0,0,0,0,
0,0,0,0,0,0,0,0,0,0,0,0,0,0,0,0,
0,0,0,0,0,0,0,0,0,0,0,0,0,0,0,0,
0,0,0,0,0,0,0,0,0,0,0,0,0,0,0,0,
0,0,0,0,0,0,0,0,0,0,0,0,0,0,0,0,
0,0,0,0,0,0,0,0,0,0,0,0,0,0,0,0,
0,0,0,0,0,0,0,0,0,0,0,0,0,0,0,0,
0,0,0,0,0,0,0,0,0,0,0,0,0,0,0,0
</chunk>
   <chunk x="16" y="80" width="16" height="16">
839,840,841,842,843,0,0,827,828,829,830,831,832,833,834,835,
856,857,858,859,860,0,0,844,845,846,847,848,849,850,851,852,
873,874,875,876,877,0,0,861,862,863,864,865,866,867,868,869,
890,891,892,893,894,0,0,878,879,880,881,882,883,884,885,886,
907,908,909,910,911,0,0,895,896,897,898,899,900,901,902,903,
924,925,926,927,928,0,0,912,913,914,915,916,917,918,919,920,
941,942,943,944,945,0,0,929,930,931,932,933,934,935,936,937,
0,0,0,0,0,0,0,0,0,0,0,0,0,0,0,0,
0,0,0,0,0,0,0,0,0,0,0,0,0,0,0,0,
0,0,0,0,0,0,0,0,0,0,0,0,0,0,0,0,
0,0,0,0,0,0,0,0,0,0,0,0,0,0,0,0,
0,0,0,0,0,0,0,0,0,0,0,0,0,0,0,0,
0,0,0,0,0,0,0,0,0,0,0,0,0,0,0,0,
0,0,0,0,0,0,0,0,0,0,0,0,0,0,0,0,
0,0,0,0,0,0,0,0,0,0,0,0,0,0,0,0,
0,0,0,0,0,0,0,0,0,0,0,0,0,0,0,0
</chunk>
   <chunk x="32" y="80" width="16" height="16">
836,837,838,839,840,841,842,843,0,0,827,828,829,830,831,832,
853,854,855,856,857,858,859,860,0,0,844,845,846,847,848,849,
870,871,872,873,874,875,876,877,0,0,861,862,863,864,865,866,
887,888,889,890,891,892,893,894,0,0,878,879,880,881,882,883,
904,905,906,907,908,909,910,911,0,0,895,896,897,898,899,900,
921,922,923,924,925,926,927,928,0,0,912,913,914,915,916,917,
938,939,940,941,942,943,944,945,0,0,929,930,931,932,933,934,
0,0,0,0,0,0,0,0,0,0,0,0,0,0,0,0,
0,0,0,0,0,0,0,0,0,0,0,0,0,0,0,0,
0,0,0,0,0,0,0,0,0,0,0,0,0,0,0,0,
0,0,0,0,0,0,0,0,0,0,0,0,0,0,0,0,
0,0,0,0,0,0,0,0,0,0,0,0,0,0,0,0,
0,0,0,0,0,0,0,0,0,0,0,0,0,0,0,0,
0,0,0,0,0,0,0,0,0,0,0,0,0,0,0,0,
0,0,0,0,0,0,0,0,0,0,0,0,0,0,0,0,
0,0,0,0,0,0,0,0,0,0,0,0,0,0,0,0
</chunk>
   <chunk x="48" y="80" width="16" height="16">
833,834,835,836,837,838,839,840,841,842,843,0,0,0,0,0,
850,851,852,853,854,855,856,857,858,859,860,0,0,0,0,0,
867,868,869,870,871,872,873,874,875,876,877,0,0,0,0,0,
884,885,886,887,888,889,890,891,892,893,894,0,0,0,0,0,
901,902,903,904,905,906,907,908,909,910,911,0,0,0,0,0,
918,919,920,921,922,923,924,925,926,927,928,0,0,0,0,0,
935,936,937,938,939,940,941,942,943,944,945,0,0,0,0,0,
0,0,0,0,0,0,0,0,0,0,0,0,0,0,0,0,
0,0,0,0,0,0,0,0,0,0,0,0,0,0,0,0,
0,0,0,0,0,0,0,0,0,0,0,0,0,0,0,0,
0,0,0,0,0,0,0,0,0,0,0,0,0,0,0,0,
0,0,0,0,0,0,0,0,0,0,0,0,0,0,0,0,
0,0,0,0,0,0,0,0,0,0,0,0,0,0,0,0,
0,0,0,0,0,0,0,0,0,0,0,0,0,0,0,0,
0,0,0,0,0,0,0,0,0,0,0,0,0,0,0,0,
0,0,0,0,0,0,0,0,0,0,0,0,0,0,0,0
</chunk>
  </data>
 </layer>
 <layer id="14" name="Pages_elements" width="16" height="24">
  <data encoding="csv">
   <chunk x="16" y="-16" width="16" height="16">
0,0,0,0,0,0,0,0,0,0,0,0,0,0,0,0,
0,0,0,0,0,0,0,0,0,0,0,0,0,0,0,0,
0,0,0,0,0,0,0,0,0,0,0,0,0,0,0,0,
0,0,0,0,0,0,0,0,0,0,0,0,0,0,0,0,
0,0,0,0,0,0,0,0,0,0,0,0,0,0,0,0,
0,0,0,0,0,0,0,0,1,2,3,4,5,6,7,8,
0,0,0,0,0,0,0,0,58,59,60,61,62,63,64,65,
0,0,0,0,0,0,0,0,115,116,117,118,119,120,121,122,
0,0,0,0,0,0,0,0,172,173,174,175,176,177,178,179,
0,0,0,0,0,0,0,0,229,230,231,232,233,234,235,236,
0,0,0,0,0,0,0,0,286,287,288,289,290,291,292,293,
0,0,0,0,0,0,0,0,343,344,345,346,347,348,349,350,
0,0,0,0,0,0,0,0,400,401,402,403,404,405,406,407,
0,0,0,0,0,0,0,0,457,458,459,460,461,462,463,464,
0,0,0,0,0,0,0,0,514,515,516,517,518,519,520,521,
0,0,0,0,0,0,0,0,571,572,573,574,575,576,577,578
</chunk>
   <chunk x="32" y="-16" width="16" height="16">
0,0,0,0,0,0,0,0,0,0,0,0,0,0,0,0,
0,0,0,0,0,0,0,0,0,0,0,0,0,0,0,0,
0,0,0,0,0,0,0,0,0,0,0,0,0,0,0,0,
0,0,0,0,0,0,0,0,0,0,0,0,0,0,0,0,
0,0,0,0,0,0,0,0,0,0,0,0,0,0,0,0,
9,10,11,12,13,14,15,0,0,0,0,0,0,0,0,0,
66,67,68,69,70,71,72,0,0,0,0,0,0,0,0,0,
123,124,125,126,127,128,129,0,0,0,0,0,0,0,0,0,
180,181,182,183,184,185,186,0,0,0,0,0,0,0,0,0,
237,238,239,240,241,242,243,0,0,0,0,0,0,0,0,0,
294,295,296,297,298,299,300,0,0,0,0,0,0,0,0,0,
351,352,353,354,355,356,357,0,0,0,0,0,0,0,0,0,
408,409,410,411,412,413,414,0,0,0,0,0,0,0,0,0,
465,466,467,468,469,470,471,0,0,0,0,0,0,0,0,0,
522,523,524,525,526,527,528,0,0,0,0,0,0,0,0,0,
579,580,581,582,583,584,585,0,0,0,0,0,0,0,0,0
</chunk>
   <chunk x="-16" y="0" width="16" height="16">
0,0,0,0,0,0,0,0,0,0,0,0,0,0,0,0,
0,0,0,0,0,0,0,0,0,0,0,0,0,0,0,0,
0,0,0,0,0,0,0,0,0,0,0,0,0,0,0,0,
0,28,29,30,31,32,33,34,35,36,37,38,39,40,41,42,
0,85,86,87,88,89,90,91,92,93,94,95,96,97,98,99,
0,142,143,144,145,146,147,148,149,150,151,152,153,154,155,156,
0,199,200,201,202,203,204,205,206,207,208,209,210,211,212,213,
0,256,257,258,259,260,261,262,263,264,265,266,267,268,269,270,
0,313,314,315,316,317,318,319,320,321,322,323,324,325,326,327,
0,370,371,372,373,374,375,376,377,378,379,380,381,382,383,384,
0,427,428,429,430,431,432,433,434,435,436,437,438,439,440,441,
0,484,485,486,487,488,489,490,491,492,493,494,495,496,497,498,
0,541,542,543,544,545,546,547,548,549,550,551,552,553,554,555,
0,598,599,600,601,602,603,604,605,606,607,608,609,610,611,612,
0,0,0,0,0,0,0,0,0,0,0,0,0,0,0,0,
0,0,0,0,0,0,0,0,0,0,0,0,0,0,0,0
</chunk>
   <chunk x="0" y="0" width="16" height="16">
0,0,0,0,0,0,0,0,0,0,0,0,0,0,0,0,
0,0,0,0,0,0,0,0,0,0,0,0,0,0,0,0,
0,0,0,0,0,0,0,0,0,0,0,0,0,0,0,0,
0,0,0,0,0,28,29,30,31,32,33,34,35,36,37,38,
0,0,0,0,0,85,86,87,88,89,90,91,92,93,94,95,
0,0,0,0,0,142,143,144,145,146,147,148,149,150,151,152,
0,0,0,0,0,199,200,201,202,203,204,205,206,207,208,209,
0,0,0,0,0,256,257,258,259,260,261,262,263,264,265,266,
0,0,0,0,0,313,314,315,316,317,318,319,320,321,322,323,
0,0,0,0,0,370,371,372,373,374,375,376,377,378,379,380,
0,0,0,0,0,427,428,429,430,431,432,433,434,435,436,437,
0,0,0,0,0,484,485,486,487,488,489,490,491,492,493,494,
0,0,0,0,0,541,542,543,544,545,546,547,548,549,550,551,
0,0,0,0,0,598,599,600,601,602,603,604,605,606,607,608,
0,0,0,0,0,0,0,0,0,0,0,0,0,0,0,0,
0,0,0,0,0,0,0,0,0,0,0,0,0,0,0,0
</chunk>
   <chunk x="16" y="0" width="16" height="16">
0,0,0,0,0,0,0,0,0,0,0,0,0,0,0,0,
0,0,0,0,0,0,0,0,0,0,0,0,0,0,0,0,
0,0,0,0,0,0,0,0,0,0,0,0,0,0,0,0,
39,40,41,42,0,0,0,0,28,29,30,31,32,33,34,35,
96,97,98,99,0,0,0,0,85,86,87,88,89,90,91,92,
153,154,155,156,0,0,0,0,142,143,144,145,146,147,148,149,
210,211,212,213,0,0,0,0,199,200,201,202,203,204,205,206,
267,268,269,270,0,0,0,0,256,257,258,259,260,261,262,263,
324,325,326,327,0,0,0,0,313,314,315,316,317,318,319,320,
381,382,383,384,0,0,0,0,370,371,372,373,374,375,376,377,
438,439,440,441,0,0,0,0,427,428,429,430,431,432,433,434,
495,496,497,498,0,0,0,0,484,485,486,487,488,489,490,491,
552,553,554,555,0,0,0,0,541,542,543,544,545,546,547,548,
609,610,611,612,0,0,0,0,598,599,600,601,602,603,604,605,
0,0,0,0,0,0,0,0,0,0,0,0,0,0,0,0,
0,0,0,0,0,0,0,0,0,0,0,0,0,0,0,0
</chunk>
   <chunk x="32" y="0" width="16" height="16">
0,0,0,0,0,0,0,0,0,0,0,0,0,0,0,0,
0,0,0,0,0,0,0,0,0,0,0,0,0,0,0,0,
0,0,0,0,0,0,0,0,0,0,0,0,0,0,0,0,
36,37,38,39,40,41,42,0,0,0,0,28,29,30,31,32,
93,94,95,96,97,98,99,0,0,0,0,85,86,87,88,89,
150,151,152,153,154,155,156,0,0,0,0,142,143,144,145,146,
207,208,209,210,211,212,213,0,0,0,0,199,200,201,202,203,
264,265,266,267,268,269,270,0,0,0,0,256,257,258,259,260,
321,322,323,324,325,326,327,0,0,0,0,313,314,315,316,317,
378,379,380,381,382,383,384,0,0,0,0,370,371,372,373,374,
435,436,437,438,439,440,441,0,0,0,0,427,428,429,430,431,
492,493,494,495,496,497,498,0,0,0,0,484,485,486,487,488,
549,550,551,552,553,554,555,0,0,0,0,541,542,543,544,545,
606,607,608,609,610,611,612,0,0,0,0,598,599,600,601,602,
0,0,0,0,0,0,0,0,0,0,0,0,0,0,0,0,
0,0,0,0,0,0,0,0,0,0,0,0,0,0,0,0
</chunk>
   <chunk x="48" y="0" width="16" height="16">
0,0,0,0,0,0,0,0,0,0,0,0,0,0,0,0,
0,0,0,0,0,0,0,0,0,0,0,0,0,0,0,0,
0,0,0,0,0,0,0,0,0,0,0,0,0,0,0,0,
33,34,35,36,37,38,39,40,41,42,0,0,0,0,0,0,
90,91,92,93,94,95,96,97,98,99,0,0,0,0,0,0,
147,148,149,150,151,152,153,154,155,156,0,0,0,0,0,0,
204,205,206,207,208,209,210,211,212,213,0,0,0,0,0,0,
261,262,263,264,265,266,267,268,269,270,0,0,0,0,0,0,
318,319,320,321,322,323,324,325,326,327,0,0,0,0,0,0,
375,376,377,378,379,380,381,382,383,384,0,0,0,0,0,0,
432,433,434,435,436,437,438,439,440,441,0,0,0,0,0,0,
489,490,491,492,493,494,495,496,497,498,0,0,0,0,0,0,
546,547,548,549,550,551,552,553,554,555,0,0,0,0,0,0,
603,604,605,606,607,608,609,610,611,612,0,0,0,0,0,0,
0,0,0,0,0,0,0,0,0,0,0,0,0,0,0,0,
0,0,0,0,0,0,0,0,0,0,0,0,0,0,0,0
</chunk>
   <chunk x="-16" y="16" width="16" height="16">
0,0,0,0,0,0,0,0,0,0,0,0,0,0,0,0,
0,28,29,30,31,32,33,34,35,36,37,38,39,40,41,42,
0,85,86,87,88,89,90,91,92,93,94,95,96,97,98,99,
0,142,143,144,145,146,147,148,149,150,151,152,153,154,155,156,
0,199,200,201,202,203,204,205,206,207,208,209,210,211,212,213,
0,256,257,258,259,260,261,262,263,264,265,266,267,268,269,270,
0,313,314,315,316,317,318,319,320,321,322,323,324,325,326,327,
0,370,371,372,373,374,375,376,377,378,379,380,381,382,383,384,
0,427,428,429,430,431,432,433,434,435,436,437,438,439,440,441,
0,484,485,486,487,488,489,490,491,492,493,494,495,496,497,498,
0,541,542,543,544,545,546,547,548,549,550,551,552,553,554,555,
0,598,599,600,601,602,603,604,605,606,607,608,609,610,611,612,
0,0,0,0,0,0,0,0,0,0,0,0,0,0,0,0,
0,0,0,0,0,0,0,0,0,0,0,0,0,0,0,0,
0,0,0,0,0,0,0,0,0,0,0,0,0,0,0,0,
0,0,0,0,0,0,0,0,0,0,0,0,0,0,0,0
</chunk>
   <chunk x="0" y="16" width="16" height="16">
0,0,0,0,0,0,0,0,0,0,0,0,0,0,0,0,
0,0,0,0,0,28,29,30,31,32,33,34,35,36,37,38,
0,0,0,0,0,85,86,87,88,89,90,91,92,93,94,95,
0,0,0,0,0,142,143,144,145,146,147,148,149,150,151,152,
0,0,0,0,0,199,200,201,202,203,204,205,206,207,208,209,
0,0,0,0,0,256,257,258,259,260,261,262,263,264,265,266,
0,0,0,0,0,313,314,315,316,317,318,319,320,321,322,323,
0,0,0,0,0,370,371,372,373,374,375,376,377,378,379,380,
0,0,0,0,0,427,428,429,430,431,432,433,434,435,436,437,
0,0,0,0,0,484,485,486,487,488,489,490,491,492,493,494,
0,0,0,0,0,541,542,543,544,545,546,547,548,549,550,551,
0,0,0,0,0,598,599,600,601,602,603,604,605,606,607,608,
0,0,0,0,0,0,0,0,0,0,0,0,0,0,0,0,
0,0,0,0,0,0,0,0,0,0,0,0,0,0,0,0,
0,0,0,0,0,0,0,0,0,0,0,0,0,0,0,0,
0,0,0,0,0,0,0,0,0,0,0,0,0,0,0,0
</chunk>
   <chunk x="16" y="16" width="16" height="16">
0,0,0,0,0,0,0,0,0,0,0,0,0,0,0,0,
39,40,41,42,0,0,0,0,28,29,30,31,32,33,34,35,
96,97,98,99,0,0,0,0,85,86,87,88,89,90,91,92,
153,154,155,156,0,0,0,0,142,143,144,145,146,147,148,149,
210,211,212,213,0,0,0,0,199,200,201,202,203,204,205,206,
267,268,269,270,0,0,0,0,256,257,258,259,260,261,262,263,
324,325,326,327,0,0,0,0,313,314,315,316,317,318,319,320,
381,382,383,384,0,0,0,0,370,371,372,373,374,375,376,377,
438,439,440,441,0,0,0,0,427,428,429,430,431,432,433,434,
495,496,497,498,0,0,0,0,484,485,486,487,488,489,490,491,
552,553,554,555,0,0,0,0,541,542,543,544,545,546,547,548,
609,610,611,612,0,0,0,0,598,599,600,601,602,603,604,605,
0,0,0,0,0,0,0,0,0,0,0,0,0,0,0,0,
0,0,0,0,0,0,0,0,0,0,0,0,0,0,0,0,
0,0,0,0,0,0,0,0,0,0,0,0,0,0,0,0,
0,0,0,0,0,0,0,0,0,0,0,0,0,0,0,0
</chunk>
   <chunk x="32" y="16" width="16" height="16">
0,0,0,0,0,0,0,0,0,0,0,0,0,0,0,0,
36,37,38,39,40,41,42,0,0,0,0,28,29,30,31,32,
93,94,95,96,97,98,99,0,0,0,0,85,86,87,88,89,
150,151,152,153,154,155,156,0,0,0,0,142,143,144,145,146,
207,208,209,210,211,212,213,0,0,0,0,199,200,201,202,203,
264,265,266,267,268,269,270,0,0,0,0,256,257,258,259,260,
321,322,323,324,325,326,327,0,0,0,0,313,314,315,316,317,
378,379,380,381,382,383,384,0,0,0,0,370,371,372,373,374,
435,436,437,438,439,440,441,0,0,0,0,427,428,429,430,431,
492,493,494,495,496,497,498,0,0,0,0,484,485,486,487,488,
549,550,551,552,553,554,555,0,0,0,0,541,542,543,544,545,
606,607,608,609,610,611,612,0,0,0,0,598,599,600,601,602,
0,0,0,0,0,0,0,0,0,0,0,0,0,0,0,0,
0,0,0,0,0,0,0,0,0,0,0,0,0,0,0,0,
0,0,0,0,0,0,0,0,0,0,0,0,0,0,0,0,
0,0,0,0,0,0,0,0,0,0,0,0,0,0,0,0
</chunk>
   <chunk x="48" y="16" width="16" height="16">
0,0,0,0,0,0,0,0,0,0,0,0,0,0,0,0,
33,34,35,36,37,38,39,40,41,42,0,0,0,0,0,0,
90,91,92,93,94,95,96,97,98,99,0,0,0,0,0,0,
147,148,149,150,151,152,153,154,155,156,0,0,0,0,0,0,
204,205,206,207,208,209,210,211,212,213,0,0,0,0,0,0,
261,262,263,264,265,266,267,268,269,270,0,0,0,0,0,0,
318,319,320,321,322,323,324,325,326,327,0,0,0,0,0,0,
375,376,377,378,379,380,381,382,383,384,0,0,0,0,0,0,
432,433,434,435,436,437,438,439,440,441,0,0,0,0,0,0,
489,490,491,492,493,494,495,496,497,498,0,0,0,0,0,0,
546,547,548,549,550,551,552,553,554,555,0,0,0,0,0,0,
603,604,605,606,607,608,609,610,611,612,0,0,0,0,0,0,
0,0,0,0,0,0,0,0,0,0,0,0,0,0,0,0,
0,0,0,0,0,0,0,0,0,0,0,0,0,0,0,0,
0,0,0,0,0,0,0,0,0,0,0,0,0,0,0,0,
0,0,0,0,0,0,0,0,0,0,0,0,0,0,0,0
</chunk>
   <chunk x="-16" y="32" width="16" height="16">
0,28,29,30,31,32,33,34,35,36,37,38,39,40,41,42,
0,85,86,87,88,89,90,91,92,93,94,95,96,97,98,99,
0,142,143,144,145,146,147,148,149,150,151,152,153,154,155,156,
0,199,200,201,202,203,204,205,206,207,208,209,210,211,212,213,
0,256,257,258,259,260,261,262,263,264,265,266,267,268,269,270,
0,313,314,315,316,317,318,319,320,321,322,323,324,325,326,327,
0,370,371,372,373,374,375,376,377,378,379,380,381,382,383,384,
0,427,428,429,430,431,432,433,434,435,436,437,438,439,440,441,
0,484,485,486,487,488,489,490,491,492,493,494,495,496,497,498,
0,541,542,543,544,545,546,547,548,549,550,551,552,553,554,555,
0,598,599,600,601,602,603,604,605,606,607,608,609,610,611,612,
0,0,0,0,0,0,0,0,0,0,0,0,0,0,0,0,
0,0,0,0,0,0,0,0,0,0,0,0,0,0,0,0,
0,0,0,0,0,0,0,0,0,0,0,0,0,0,0,0,
28,28,29,30,31,32,33,34,35,36,37,38,39,40,41,42,
0,85,86,87,88,89,90,91,92,93,94,95,96,97,98,99
</chunk>
   <chunk x="0" y="32" width="16" height="16">
0,0,0,0,0,28,29,30,31,32,33,34,35,36,37,38,
0,0,0,0,0,85,86,87,88,89,90,91,92,93,94,95,
0,0,0,0,0,142,143,144,145,146,147,148,149,150,151,152,
0,0,0,0,0,199,200,201,202,203,204,205,206,207,208,209,
0,0,0,0,0,256,257,258,259,260,261,262,263,264,265,266,
0,0,0,0,0,313,314,315,316,317,318,319,320,321,322,323,
0,0,0,0,0,370,371,372,373,374,375,376,377,378,379,380,
0,0,0,0,0,427,428,429,430,431,432,433,434,435,436,437,
0,0,0,0,0,484,485,486,487,488,489,490,491,492,493,494,
0,0,0,0,0,541,542,543,544,545,546,547,548,549,550,551,
0,0,0,0,0,598,599,600,601,602,603,604,605,606,607,608,
0,0,0,0,0,0,0,0,0,0,0,0,0,0,0,0,
0,0,0,0,0,0,0,0,0,0,0,0,0,0,0,0,
0,0,0,0,0,0,0,0,0,0,0,0,0,0,0,0,
0,0,0,0,0,28,29,30,31,32,33,34,35,36,37,38,
0,0,0,0,0,85,86,87,88,89,90,91,92,93,94,95
</chunk>
   <chunk x="16" y="32" width="16" height="16">
39,40,41,42,0,0,0,0,28,29,30,31,32,33,34,35,
96,97,98,99,0,0,0,0,85,86,87,88,89,90,91,92,
153,154,155,156,0,0,0,0,142,143,144,145,146,147,148,149,
210,211,212,213,0,0,0,0,199,200,201,202,203,204,205,206,
267,268,269,270,0,0,0,0,256,257,258,259,260,261,262,263,
324,325,326,327,0,0,0,0,313,314,315,316,317,318,319,320,
381,382,383,384,0,0,0,0,370,371,372,373,374,375,376,377,
438,439,440,441,0,0,0,0,427,428,429,430,431,432,433,434,
495,496,497,498,0,0,0,0,484,485,486,487,488,489,490,491,
552,553,554,555,0,0,0,0,541,542,543,544,545,546,547,548,
609,610,611,612,0,0,0,0,598,599,600,601,602,603,604,605,
0,0,0,0,0,0,0,0,0,0,0,0,0,0,0,0,
0,0,0,0,0,0,0,0,0,0,0,0,0,0,0,0,
0,0,0,0,0,0,0,0,0,0,0,0,0,0,0,0,
39,40,41,42,0,0,0,0,28,29,30,31,32,33,34,35,
96,97,98,99,0,0,0,0,85,86,87,88,89,90,91,92
</chunk>
   <chunk x="32" y="32" width="16" height="16">
36,37,38,39,40,41,42,0,0,0,0,28,29,30,31,32,
93,94,95,96,97,98,99,0,0,0,0,85,86,87,88,89,
150,151,152,153,154,155,156,0,0,0,0,142,143,144,145,146,
207,208,209,210,211,212,213,0,0,0,0,199,200,201,202,203,
264,265,266,267,268,269,270,0,0,0,0,256,257,258,259,260,
321,322,323,324,325,326,327,0,0,0,0,313,314,315,316,317,
378,379,380,381,382,383,384,0,0,0,0,370,371,372,373,374,
435,436,437,438,439,440,441,0,0,0,0,427,428,429,430,431,
492,493,494,495,496,497,498,0,0,0,0,484,485,486,487,488,
549,550,551,552,553,554,555,0,0,0,0,541,542,543,544,545,
606,607,608,609,610,611,612,0,0,0,0,598,599,600,601,602,
0,0,0,0,0,0,0,0,0,0,0,0,0,0,0,0,
0,0,0,0,0,0,0,0,0,0,0,0,0,0,0,0,
0,0,0,0,0,0,0,0,0,0,0,0,0,0,0,0,
36,37,38,39,40,41,42,0,0,0,28,28,29,30,31,32,
93,94,95,96,97,98,99,0,0,0,0,85,86,87,88,89
</chunk>
   <chunk x="48" y="32" width="16" height="16">
33,34,35,36,37,38,39,40,41,42,0,0,0,0,0,0,
90,91,92,93,94,95,96,97,98,99,0,0,0,0,0,0,
147,148,149,150,151,152,153,154,155,156,0,0,0,0,0,0,
204,205,206,207,208,209,210,211,212,213,0,0,0,0,0,0,
261,262,263,264,265,266,267,268,269,270,0,0,0,0,0,0,
318,319,320,321,322,323,324,325,326,327,0,0,0,0,0,0,
375,376,377,378,379,380,381,382,383,384,0,0,0,0,0,0,
432,433,434,435,436,437,438,439,440,441,0,0,0,0,0,0,
489,490,491,492,493,494,495,496,497,498,0,0,0,0,0,0,
546,547,548,549,550,551,552,553,554,555,0,0,0,0,0,0,
603,604,605,606,607,608,609,610,611,612,0,0,0,0,0,0,
0,0,0,0,0,0,0,0,0,0,0,0,0,0,0,0,
0,0,0,0,0,0,0,0,0,0,0,0,0,0,0,0,
0,0,0,0,0,0,0,0,0,0,0,0,0,0,0,0,
33,34,35,36,37,38,39,40,41,42,0,0,0,0,0,0,
90,91,92,93,94,95,96,97,98,99,0,0,0,0,0,0
</chunk>
   <chunk x="-16" y="48" width="16" height="16">
0,142,143,144,145,146,147,148,149,150,151,152,153,154,155,156,
0,199,200,201,202,203,204,205,206,207,208,209,210,211,212,213,
0,256,257,258,259,260,261,262,263,264,265,266,267,268,269,270,
0,313,314,315,316,317,318,319,320,321,322,323,324,325,326,327,
0,370,371,372,373,374,375,376,377,378,379,380,381,382,383,384,
0,427,428,429,430,431,432,433,434,435,436,437,438,439,440,441,
0,484,485,486,487,488,489,490,491,492,493,494,495,496,497,498,
0,541,542,543,544,545,546,547,548,549,550,551,552,553,554,555,
0,598,599,600,601,602,603,604,605,606,607,608,609,610,611,612,
0,0,0,0,0,0,0,0,0,0,0,0,0,0,0,0,
0,0,0,0,0,0,0,0,0,0,0,0,0,0,0,0,
0,0,0,0,0,0,0,0,0,0,0,0,0,0,0,0,
0,28,29,30,31,32,33,34,35,36,37,38,39,40,41,42,
0,85,86,87,88,89,90,91,92,93,94,95,96,97,98,99,
0,142,143,144,145,146,147,148,149,150,151,152,153,154,155,156,
0,199,200,201,202,203,204,205,206,207,208,209,210,211,212,213
</chunk>
   <chunk x="0" y="48" width="16" height="16">
0,0,0,0,0,142,143,144,145,146,147,148,149,150,151,152,
0,0,0,0,0,199,200,201,202,203,204,205,206,207,208,209,
0,0,0,0,0,256,257,258,259,260,261,262,263,264,265,266,
0,0,0,0,0,313,314,315,316,317,318,319,320,321,322,323,
0,0,0,0,0,370,371,372,373,374,375,376,377,378,379,380,
0,0,0,0,0,427,428,429,430,431,432,433,434,435,436,437,
0,0,0,0,0,484,485,486,487,488,489,490,491,492,493,494,
0,0,0,0,0,541,542,543,544,545,546,547,548,549,550,551,
0,0,0,0,0,598,599,600,601,602,603,604,605,606,607,608,
0,0,0,0,0,0,0,0,0,0,0,0,0,0,0,0,
0,0,0,0,0,0,0,0,0,0,0,0,0,0,0,0,
0,0,0,0,0,0,0,0,0,0,0,0,0,0,0,0,
0,0,0,0,0,28,29,30,31,32,33,34,35,36,37,38,
0,0,0,0,0,85,86,87,88,89,90,91,92,93,94,95,
0,0,0,0,0,142,143,144,145,146,147,148,149,150,151,152,
0,0,0,0,0,199,200,201,202,203,204,205,206,207,208,209
</chunk>
   <chunk x="16" y="48" width="16" height="16">
153,154,155,156,0,0,0,0,142,143,144,145,146,147,148,149,
210,211,212,213,0,0,0,0,199,200,201,202,203,204,205,206,
267,268,269,270,0,0,0,0,256,257,258,259,260,261,262,263,
324,325,326,327,0,0,0,0,313,314,315,316,317,318,319,320,
381,382,383,384,0,0,0,0,370,371,372,373,374,375,376,377,
438,439,440,441,0,0,0,0,427,428,429,430,431,432,433,434,
495,496,497,498,0,0,0,0,484,485,486,487,488,489,490,491,
552,553,554,555,0,0,0,0,541,542,543,544,545,546,547,548,
609,610,611,612,0,0,0,0,598,599,600,601,602,603,604,605,
0,0,0,0,0,0,0,0,0,0,0,0,0,0,0,0,
0,0,0,0,0,0,0,0,0,0,0,0,0,0,0,0,
0,0,0,0,0,0,0,0,0,0,0,0,0,0,0,0,
39,40,41,42,0,0,0,0,28,29,30,31,32,33,34,35,
96,97,98,99,0,0,0,0,85,86,87,88,89,90,91,92,
153,154,155,156,0,0,0,0,142,143,144,145,146,147,148,149,
210,211,212,213,0,0,0,0,199,200,201,202,203,204,205,206
</chunk>
   <chunk x="32" y="48" width="16" height="16">
150,151,152,153,154,155,156,0,0,0,0,142,143,144,145,146,
207,208,209,210,211,212,213,0,0,0,0,199,200,201,202,203,
264,265,266,267,268,269,270,0,0,0,0,256,257,258,259,260,
321,322,323,324,325,326,327,0,0,0,0,313,314,315,316,317,
378,379,380,381,382,383,384,0,0,0,0,370,371,372,373,374,
435,436,437,438,439,440,441,0,0,0,0,427,428,429,430,431,
492,493,494,495,496,497,498,0,0,0,0,484,485,486,487,488,
549,550,551,552,553,554,555,0,0,0,0,541,542,543,544,545,
606,607,608,609,610,611,612,0,0,0,0,598,599,600,601,602,
0,0,0,0,0,0,0,0,0,0,0,0,0,0,0,0,
0,0,0,0,0,0,0,0,0,0,0,0,0,0,0,0,
0,0,0,0,0,0,0,0,0,0,0,0,0,0,0,0,
36,37,38,39,40,41,42,0,0,0,0,28,29,30,31,32,
93,94,95,96,97,98,99,0,0,0,0,85,86,87,88,89,
150,151,152,153,154,155,156,0,0,0,0,142,143,144,145,146,
207,208,209,210,211,212,213,0,0,0,0,199,200,201,202,203
</chunk>
   <chunk x="48" y="48" width="16" height="16">
147,148,149,150,151,152,153,154,155,156,0,0,0,0,0,0,
204,205,206,207,208,209,210,211,212,213,0,0,0,0,0,0,
261,262,263,264,265,266,267,268,269,270,0,0,0,0,0,0,
318,319,320,321,322,323,324,325,326,327,0,0,0,0,0,0,
375,376,377,378,379,380,381,382,383,384,0,0,0,0,0,0,
432,433,434,435,436,437,438,439,440,441,0,0,0,0,0,0,
489,490,491,492,493,494,495,496,497,498,0,0,0,0,0,0,
546,547,548,549,550,551,552,553,554,555,0,0,0,0,0,0,
603,604,605,606,607,608,609,610,611,612,0,0,0,0,0,0,
0,0,0,0,0,0,0,0,0,0,0,0,0,0,0,0,
0,0,0,0,0,0,0,0,0,0,0,0,0,0,0,0,
0,0,0,0,0,0,0,0,0,0,0,0,0,0,0,0,
33,34,35,36,37,38,39,40,41,42,0,0,0,0,0,0,
90,91,92,93,94,95,96,97,98,99,0,0,0,0,0,0,
147,148,149,150,151,152,153,154,155,156,0,0,0,0,0,0,
204,205,206,207,208,209,210,211,212,213,0,0,0,0,0,0
</chunk>
   <chunk x="-16" y="64" width="16" height="16">
0,256,257,258,259,260,261,262,263,264,265,266,267,268,269,270,
0,313,314,315,316,317,318,319,320,321,322,323,324,325,326,327,
0,370,371,372,373,374,375,376,377,378,379,380,381,382,383,384,
0,427,428,429,430,431,432,433,434,435,436,437,438,439,440,441,
0,484,485,486,487,488,489,490,491,492,493,494,495,496,497,498,
0,541,542,543,544,545,546,547,548,549,550,551,552,553,554,555,
0,598,599,600,601,602,603,604,605,606,607,608,609,610,611,612,
0,0,0,0,0,0,0,0,0,0,0,0,0,0,0,0,
0,0,0,0,0,0,0,0,0,0,0,0,0,0,0,0,
0,0,0,0,0,0,0,0,0,0,0,0,0,0,0,0,
0,0,0,0,0,0,0,0,0,0,0,0,0,0,0,0,
0,28,29,30,31,32,33,34,35,36,37,38,39,40,41,42,
0,85,86,87,88,89,90,91,92,93,94,95,96,97,98,99,
0,142,143,144,145,146,147,148,149,150,151,152,153,154,155,156,
0,199,200,201,202,203,204,205,206,207,208,209,210,211,212,213,
0,256,257,258,259,260,261,262,263,264,265,266,267,268,269,270
</chunk>
   <chunk x="0" y="64" width="16" height="16">
0,0,0,0,0,256,257,258,259,260,261,262,263,264,265,266,
0,0,0,0,0,313,314,315,316,317,318,319,320,321,322,323,
0,0,0,0,0,370,371,372,373,374,375,376,377,378,379,380,
0,0,0,0,0,427,428,429,430,431,432,433,434,435,436,437,
0,0,0,0,0,484,485,486,487,488,489,490,491,492,493,494,
0,0,0,0,0,541,542,543,544,545,546,547,548,549,550,551,
0,0,0,0,0,598,599,600,601,602,603,604,605,606,607,608,
0,0,0,0,0,0,0,0,0,0,0,0,0,0,0,0,
0,0,0,0,0,0,0,0,0,0,0,0,0,0,0,0,
0,0,0,0,0,0,0,0,0,0,0,0,0,0,0,0,
0,0,0,0,0,0,0,0,0,0,0,0,0,0,0,0,
0,0,0,0,0,28,29,30,31,32,33,34,35,36,37,38,
0,0,0,0,0,85,86,87,88,89,90,91,92,93,94,95,
0,0,0,0,0,142,143,144,145,146,147,148,149,150,151,152,
0,0,0,0,0,199,200,201,202,203,204,205,206,207,208,209,
0,0,0,0,0,256,257,258,259,260,261,262,263,264,265,266
</chunk>
   <chunk x="16" y="64" width="16" height="16">
267,268,269,270,0,0,0,0,256,257,258,259,260,261,262,263,
324,325,326,327,0,0,0,0,313,314,315,316,317,318,319,320,
381,382,383,384,0,0,0,0,370,371,372,373,374,375,376,377,
438,439,440,441,0,0,0,0,427,428,429,430,431,432,433,434,
495,496,497,498,0,0,0,0,484,485,486,487,488,489,490,491,
552,553,554,555,0,0,0,0,541,542,543,544,545,546,547,548,
609,610,611,612,0,0,0,0,598,599,600,601,602,603,604,605,
0,0,0,0,0,0,0,0,0,0,0,0,0,0,0,0,
0,0,0,0,0,0,0,0,0,0,0,0,0,0,0,0,
0,0,0,0,0,0,0,0,0,0,0,0,0,0,0,0,
0,0,0,0,0,0,0,0,0,0,0,0,0,0,0,0,
39,40,41,42,0,0,0,0,28,29,30,31,32,33,34,35,
96,97,98,99,0,0,0,0,85,86,87,88,89,90,91,92,
153,154,155,156,0,0,0,0,142,143,144,145,146,147,148,149,
210,211,212,213,0,0,0,0,199,200,201,202,203,204,205,206,
267,268,269,270,0,0,0,0,256,257,258,259,260,261,262,263
</chunk>
   <chunk x="32" y="64" width="16" height="16">
264,265,266,267,268,269,270,0,0,0,0,256,257,258,259,260,
321,322,323,324,325,326,327,0,0,0,0,313,314,315,316,317,
378,379,380,381,382,383,384,0,0,0,0,370,371,372,373,374,
435,436,437,438,439,440,441,0,0,0,0,427,428,429,430,431,
492,493,494,495,496,497,498,0,0,0,0,484,485,486,487,488,
549,550,551,552,553,554,555,0,0,0,0,541,542,543,544,545,
606,607,608,609,610,611,612,0,0,0,0,598,599,600,601,602,
0,0,0,0,0,0,0,0,0,0,0,0,0,0,0,0,
0,0,0,0,0,0,0,0,0,0,0,0,0,0,0,0,
0,0,0,0,0,0,0,0,0,0,0,0,0,0,0,0,
0,0,0,0,0,0,0,0,0,0,0,0,0,0,0,0,
36,37,38,39,40,41,42,0,0,0,0,28,29,30,31,32,
93,94,95,96,97,98,99,0,0,0,0,85,86,87,88,89,
150,151,152,153,154,155,156,0,0,0,0,142,143,144,145,146,
207,208,209,210,211,212,213,0,0,0,0,199,200,201,202,203,
264,265,266,267,268,269,270,0,0,0,0,256,257,258,259,260
</chunk>
   <chunk x="48" y="64" width="16" height="16">
261,262,263,264,265,266,267,268,269,270,0,0,0,0,0,0,
318,319,320,321,322,323,324,325,326,327,0,0,0,0,0,0,
375,376,377,378,379,380,381,382,383,384,0,0,0,0,0,0,
432,433,434,435,436,437,438,439,440,441,0,0,0,0,0,0,
489,490,491,492,493,494,495,496,497,498,0,0,0,0,0,0,
546,547,548,549,550,551,552,553,554,555,0,0,0,0,0,0,
603,604,605,606,607,608,609,610,611,612,0,0,0,0,0,0,
0,0,0,0,0,0,0,0,0,0,0,0,0,0,0,0,
0,0,0,0,0,0,0,0,0,0,0,0,0,0,0,0,
0,0,0,0,0,0,0,0,0,0,0,0,0,0,0,0,
0,0,0,0,0,0,0,0,0,0,0,0,0,0,0,0,
33,34,35,36,37,38,39,40,41,42,0,0,0,0,0,0,
90,91,92,93,94,95,96,97,98,99,0,0,0,0,0,0,
147,148,149,150,151,152,153,154,155,156,0,0,0,0,0,0,
204,205,206,207,208,209,210,211,212,213,0,0,0,0,0,0,
261,262,263,264,265,266,267,268,269,270,0,0,0,0,0,0
</chunk>
   <chunk x="-16" y="80" width="16" height="16">
0,313,314,315,316,317,318,319,320,321,322,323,324,325,326,327,
0,370,371,372,373,374,375,376,377,378,379,380,381,382,383,384,
0,427,428,429,430,431,432,433,434,435,436,437,438,439,440,441,
0,484,485,486,487,488,489,490,491,492,493,494,495,496,497,498,
0,541,542,543,544,545,546,547,548,549,550,551,552,553,554,555,
0,598,599,600,601,602,603,604,605,606,607,608,609,610,611,612,
0,0,0,0,0,0,0,0,0,0,0,0,0,0,0,0,
0,0,0,0,0,0,0,0,0,0,0,0,0,0,0,0,
0,0,0,0,0,0,0,0,0,0,0,0,0,0,0,0,
0,0,0,0,0,0,0,0,0,0,0,0,0,0,0,0,
0,0,0,0,0,0,0,0,0,0,0,0,0,0,0,0,
0,0,0,0,0,0,0,0,0,0,0,0,0,0,0,0,
0,0,0,0,0,0,0,0,0,0,0,0,0,0,0,0,
0,0,0,0,0,0,0,0,0,0,0,0,0,0,0,0,
0,0,0,0,0,0,0,0,0,0,0,0,0,0,0,0,
0,0,0,0,0,0,0,0,0,0,0,0,0,0,0,0
</chunk>
   <chunk x="0" y="80" width="16" height="16">
0,0,0,0,0,313,314,315,316,317,318,319,320,321,322,323,
0,0,0,0,0,370,371,372,373,374,375,376,377,378,379,380,
0,0,0,0,0,427,428,429,430,431,432,433,434,435,436,437,
0,0,0,0,0,484,485,486,487,488,489,490,491,492,493,494,
0,0,0,0,0,541,542,543,544,545,546,547,548,549,550,551,
0,0,0,0,0,598,599,600,601,602,603,604,605,606,607,608,
0,0,0,0,0,0,0,0,0,0,0,0,0,0,0,0,
0,0,0,0,0,0,0,0,0,0,0,0,0,0,0,0,
0,0,0,0,0,0,0,0,0,0,0,0,0,0,0,0,
0,0,0,0,0,0,0,0,0,0,0,0,0,0,0,0,
0,0,0,0,0,0,0,0,0,0,0,0,0,0,0,0,
0,0,0,0,0,0,0,0,0,0,0,0,0,0,0,0,
0,0,0,0,0,0,0,0,0,0,0,0,0,0,0,0,
0,0,0,0,0,0,0,0,0,0,0,0,0,0,0,0,
0,0,0,0,0,0,0,0,0,0,0,0,0,0,0,0,
0,0,0,0,0,0,0,0,0,0,0,0,0,0,0,0
</chunk>
   <chunk x="16" y="80" width="16" height="16">
324,325,326,327,0,0,0,0,313,314,315,316,317,318,319,320,
381,382,383,384,0,0,0,0,370,371,372,373,374,375,376,377,
438,439,440,441,0,0,0,0,427,428,429,430,431,432,433,434,
495,496,497,498,0,0,0,0,484,485,486,487,488,489,490,491,
552,553,554,555,0,0,0,0,541,542,543,544,545,546,547,548,
609,610,611,612,0,0,0,0,598,599,600,601,602,603,604,605,
0,0,0,0,0,0,0,0,0,0,0,0,0,0,0,0,
0,0,0,0,0,0,0,0,0,0,0,0,0,0,0,0,
0,0,0,0,0,0,0,0,0,0,0,0,0,0,0,0,
0,0,0,0,0,0,0,0,0,0,0,0,0,0,0,0,
0,0,0,0,0,0,0,0,0,0,0,0,0,0,0,0,
0,0,0,0,0,0,0,0,0,0,0,0,0,0,0,0,
0,0,0,0,0,0,0,0,0,0,0,0,0,0,0,0,
0,0,0,0,0,0,0,0,0,0,0,0,0,0,0,0,
0,0,0,0,0,0,0,0,0,0,0,0,0,0,0,0,
0,0,0,0,0,0,0,0,0,0,0,0,0,0,0,0
</chunk>
   <chunk x="32" y="80" width="16" height="16">
321,322,323,324,325,326,327,0,0,0,0,313,314,315,316,317,
378,379,380,381,382,383,384,0,0,0,0,370,371,372,373,374,
435,436,437,438,439,440,441,0,0,0,0,427,428,429,430,431,
492,493,494,495,496,497,498,0,0,0,0,484,485,486,487,488,
549,550,551,552,553,554,555,0,0,0,0,541,542,543,544,545,
606,607,608,609,610,611,612,0,0,0,598,598,599,600,601,602,
0,0,0,0,0,0,0,0,0,0,0,0,0,0,0,0,
0,0,0,0,0,0,0,0,0,0,0,0,0,0,0,0,
0,0,0,0,0,0,0,0,0,0,0,0,0,0,0,0,
0,0,0,0,0,0,0,0,0,0,0,0,0,0,0,0,
0,0,0,0,0,0,0,0,0,0,0,0,0,0,0,0,
0,0,0,0,0,0,0,0,0,0,0,0,0,0,0,0,
0,0,0,0,0,0,0,0,0,0,0,0,0,0,0,0,
0,0,0,0,0,0,0,0,0,0,0,0,0,0,0,0,
0,0,0,0,0,0,0,0,0,0,0,0,0,0,0,0,
0,0,0,0,0,0,0,0,0,0,0,0,0,0,0,0
</chunk>
   <chunk x="48" y="80" width="16" height="16">
318,319,320,321,322,323,324,325,326,327,0,0,0,0,0,0,
375,376,377,378,379,380,381,382,383,384,0,0,0,0,0,0,
432,433,434,435,436,437,438,439,440,441,0,0,0,0,0,0,
489,490,491,492,493,494,495,496,497,498,0,0,0,0,0,0,
546,547,548,549,550,551,552,553,554,555,0,0,0,0,0,0,
603,604,605,606,607,608,609,610,611,612,0,0,0,0,0,0,
0,0,0,0,0,0,0,0,0,0,0,0,0,0,0,0,
0,0,0,0,0,0,0,0,0,0,0,0,0,0,0,0,
0,0,0,0,0,0,0,0,0,0,0,0,0,0,0,0,
0,0,0,0,0,0,0,0,0,0,0,0,0,0,0,0,
0,0,0,0,0,0,0,0,0,0,0,0,0,0,0,0,
0,0,0,0,0,0,0,0,0,0,0,0,0,0,0,0,
0,0,0,0,0,0,0,0,0,0,0,0,0,0,0,0,
0,0,0,0,0,0,0,0,0,0,0,0,0,0,0,0,
0,0,0,0,0,0,0,0,0,0,0,0,0,0,0,0,
0,0,0,0,0,0,0,0,0,0,0,0,0,0,0,0
</chunk>
  </data>
 </layer>
 <layer id="21" name="Icons" width="16" height="24">
  <data encoding="csv">
   <chunk x="16" y="-16" width="16" height="16">
0,0,0,0,0,0,0,0,0,0,0,0,0,0,0,0,
0,0,0,0,0,0,0,0,0,0,0,0,0,0,0,0,
0,0,0,0,0,0,0,0,0,0,0,0,0,0,0,0,
0,0,0,0,0,0,0,0,0,0,0,0,0,0,0,0,
0,0,0,0,0,0,0,0,0,0,0,0,0,0,0,0,
0,0,0,0,0,0,0,0,0,0,0,0,0,0,0,0,
0,0,0,0,0,0,0,0,0,0,0,0,0,0,0,0,
0,0,0,0,0,0,0,0,0,946,947,948,949,950,951,0,
0,0,0,0,0,0,0,0,0,958,959,960,961,962,963,0,
0,0,0,0,0,0,0,0,0,970,971,972,973,974,975,0,
0,0,0,0,0,0,0,0,0,982,983,984,985,986,987,0,
0,0,0,0,0,0,0,0,0,994,995,996,997,998,999,0,
0,0,0,0,0,0,0,0,0,1006,1007,1008,1009,1010,1011,0,
0,0,0,0,0,0,0,0,0,1018,1019,1020,1021,1022,1023,0,
0,0,0,0,0,0,0,0,0,1030,1031,1032,1033,1034,1035,0,
0,0,0,0,0,0,0,0,0,0,0,0,0,0,0,0
</chunk>
   <chunk x="32" y="-16" width="16" height="16">
0,0,0,0,0,0,0,0,0,0,0,0,0,0,0,0,
0,0,0,0,0,0,0,0,0,0,0,0,0,0,0,0,
0,0,0,0,0,0,0,0,0,0,0,0,0,0,0,0,
0,0,0,0,0,0,0,0,0,0,0,0,0,0,0,0,
0,0,0,0,0,0,0,0,0,0,0,0,0,0,0,0,
0,0,0,0,0,0,0,0,0,0,0,0,0,0,0,0,
0,0,0,0,0,0,0,0,0,0,0,0,0,0,0,0,
952,953,954,955,956,957,0,0,0,0,0,0,0,0,0,0,
964,965,966,967,968,969,0,0,0,0,0,0,0,0,0,0,
976,977,978,979,980,981,0,0,0,0,0,0,0,0,0,0,
988,989,990,991,992,993,0,0,0,0,0,0,0,0,0,0,
1000,1001,1002,1003,1004,1005,0,0,0,0,0,0,0,0,0,0,
1012,1013,1014,1015,1016,1017,0,0,0,0,0,0,0,0,0,0,
1024,1025,1026,1027,1028,1029,0,0,0,0,0,0,0,0,0,0,
1036,1037,1038,1039,1040,1041,0,0,0,0,0,0,0,0,0,0,
0,0,0,0,0,0,0,0,0,0,0,0,0,0,0,0
</chunk>
  </data>
 </layer>
 <layer id="18" name="buttons" width="16" height="24">
  <data encoding="csv">
   <chunk x="-16" y="0" width="16" height="16">
0,0,0,0,0,0,0,0,0,0,0,0,0,0,0,0,
0,0,0,0,0,0,0,0,0,0,0,0,0,0,0,0,
0,0,0,0,0,0,0,0,0,0,0,0,0,0,0,0,
0,0,0,0,0,0,0,0,0,0,0,0,0,0,0,0,
0,0,0,0,0,0,0,0,0,0,0,0,0,0,0,0,
0,0,628,629,630,631,632,633,0,0,0,0,0,0,0,0,
0,0,685,686,687,688,689,690,0,0,0,0,0,0,0,0,
0,0,0,0,0,0,0,0,0,0,0,0,0,0,0,0,
0,0,0,0,0,0,0,0,0,0,0,0,0,0,0,0,
0,0,0,0,0,0,0,0,0,0,0,0,0,0,0,0,
0,0,0,0,0,0,0,0,0,0,0,0,0,0,0,0,
0,0,0,0,0,0,0,0,0,0,0,0,0,0,0,0,
0,0,0,0,0,0,0,0,0,0,0,0,0,0,0,0,
0,0,0,0,0,0,0,0,0,0,0,0,0,0,0,0,
0,0,0,0,0,0,0,0,0,0,0,0,0,0,0,0,
0,0,0,0,0,0,0,0,0,0,0,0,0,0,0,0
</chunk>
   <chunk x="0" y="0" width="16" height="16">
0,0,0,0,0,0,0,0,0,0,0,0,0,0,0,0,
0,0,0,0,0,0,0,0,0,0,0,0,0,0,0,0,
0,0,0,0,0,0,0,0,0,0,0,0,0,0,0,0,
0,0,0,0,0,0,0,0,0,0,0,0,0,0,0,0,
0,0,0,0,0,0,0,0,0,0,0,0,0,0,0,0,
0,0,0,0,0,0,0,0,0,0,0,0,0,0,0,0,
0,0,0,0,0,0,634,635,636,637,638,639,0,0,0,0,
0,0,0,0,0,0,691,692,693,694,695,696,0,0,0,0,
0,0,0,0,0,0,0,0,0,0,0,0,0,0,0,0,
0,0,0,0,0,0,0,0,0,0,0,0,0,0,0,0,
0,0,0,0,0,0,0,0,0,0,0,0,0,0,0,0,
0,0,0,0,0,0,0,0,0,0,0,0,0,0,0,0,
0,0,0,0,0,0,0,0,0,0,0,0,0,0,0,0,
0,0,0,0,0,0,0,0,0,0,0,0,0,0,0,0,
0,0,0,0,0,0,0,0,0,0,0,0,0,0,0,0,
0,0,0,0,0,0,0,0,0,0,0,0,0,0,0,0
</chunk>
   <chunk x="16" y="0" width="16" height="16">
0,0,0,0,0,0,0,0,0,0,0,0,0,0,0,0,
0,0,0,0,0,0,0,0,0,0,0,0,0,0,0,0,
0,0,0,0,0,0,0,0,0,0,0,0,0,0,0,0,
0,0,0,0,0,0,0,0,0,0,0,0,0,0,0,0,
0,0,0,0,0,0,0,0,0,0,0,0,0,0,0,0,
0,0,0,0,0,0,0,0,0,0,0,0,0,0,0,0,
0,0,0,0,0,0,0,0,0,0,0,0,0,0,0,0,
0,0,0,0,0,0,0,0,0,640,641,642,643,644,645,0,
0,0,0,0,0,0,0,0,0,697,698,699,700,701,702,0,
0,0,0,0,0,0,0,0,0,0,0,0,0,0,0,0,
0,0,0,0,0,0,0,0,0,0,0,0,0,0,0,0,
0,0,0,0,0,0,0,0,0,0,0,0,0,0,0,0,
0,0,0,0,0,0,0,0,0,0,0,0,0,0,0,0,
0,0,0,0,0,0,0,0,0,0,0,0,0,0,0,0,
0,0,0,0,0,0,0,0,0,0,0,0,0,0,0,0,
0,0,0,0,0,0,0,0,0,0,0,0,0,0,0,0
</chunk>
   <chunk x="32" y="0" width="16" height="16">
0,0,0,0,0,0,0,0,0,0,0,0,0,0,0,0,
0,0,0,0,0,0,0,0,0,0,0,0,0,0,0,0,
0,0,0,0,0,0,0,0,0,0,0,0,0,0,0,0,
0,0,0,0,0,0,0,0,0,0,0,0,0,0,0,0,
0,0,0,0,0,0,0,0,0,0,0,0,0,0,0,0,
0,0,0,0,0,0,0,0,0,0,0,0,0,0,0,0,
0,0,0,0,0,0,0,0,0,0,0,0,0,0,0,0,
0,0,0,0,0,0,0,0,0,0,0,0,0,0,0,0,
0,0,0,0,0,0,0,0,0,0,0,0,646,647,648,649,
0,0,0,0,0,0,0,0,0,0,0,0,703,704,705,706,
0,0,0,0,0,0,0,0,0,0,0,0,0,0,0,0,
0,0,0,0,0,0,0,0,0,0,0,0,0,0,0,0,
0,0,0,0,0,0,0,0,0,0,0,0,0,0,0,0,
0,0,0,0,0,0,0,0,0,0,0,0,0,0,0,0,
0,0,0,0,0,0,0,0,0,0,0,0,0,0,0,0,
0,0,0,0,0,0,0,0,0,0,0,0,0,0,0,0
</chunk>
   <chunk x="48" y="0" width="16" height="16">
0,0,0,0,0,0,0,0,0,0,0,0,0,0,0,0,
0,0,0,0,0,0,0,0,0,0,0,0,0,0,0,0,
0,0,0,0,0,0,0,0,0,0,0,0,0,0,0,0,
0,0,0,0,0,0,0,0,0,0,0,0,0,0,0,0,
0,0,0,0,0,0,0,0,0,0,0,0,0,0,0,0,
0,0,0,0,0,0,0,0,0,0,0,0,0,0,0,0,
0,0,0,0,0,0,0,0,0,0,0,0,0,0,0,0,
0,0,0,0,0,0,0,0,0,0,0,0,0,0,0,0,
650,651,0,0,0,0,0,0,0,0,0,0,0,0,0,0,
707,708,0,0,0,0,0,0,0,0,0,0,0,0,0,0,
0,0,0,0,0,0,0,0,0,0,0,0,0,0,0,0,
0,0,0,0,0,0,0,0,0,0,0,0,0,0,0,0,
0,0,0,0,0,0,0,0,0,0,0,0,0,0,0,0,
0,0,0,0,0,0,0,0,0,0,0,0,0,0,0,0,
0,0,0,0,0,0,0,0,0,0,0,0,0,0,0,0,
0,0,0,0,0,0,0,0,0,0,0,0,0,0,0,0
</chunk>
   <chunk x="-16" y="16" width="16" height="16">
0,0,0,0,0,0,0,0,0,0,0,0,0,0,0,0,
0,0,0,0,0,0,0,0,0,0,0,0,0,0,0,0,
0,0,0,0,0,0,0,0,0,0,0,0,0,0,0,0,
0,0,0,0,0,0,0,0,0,0,0,0,0,0,0,0,
0,0,0,0,0,0,0,0,0,0,0,0,0,0,0,0,
0,0,0,0,0,0,0,0,0,0,0,0,0,0,0,0,
0,0,0,0,0,0,0,0,0,0,0,0,0,0,0,0,
0,0,658,659,660,661,662,663,0,0,0,0,0,0,0,0,
0,0,715,716,717,718,719,720,0,0,0,0,0,0,0,0,
0,0,0,0,0,0,0,0,0,0,0,0,0,0,0,0,
0,0,0,0,0,0,0,0,0,0,0,0,0,0,0,0,
0,0,0,0,0,0,0,0,0,0,0,0,0,0,0,0,
0,0,0,0,0,0,0,0,0,0,0,0,0,0,0,0,
0,0,0,0,0,0,0,0,0,0,0,0,0,0,0,0,
0,0,0,0,0,0,0,0,0,0,0,0,0,0,0,0,
0,0,0,0,0,0,0,0,0,0,0,0,0,0,0,0
</chunk>
   <chunk x="0" y="16" width="16" height="16">
0,0,0,0,0,0,0,0,0,0,0,0,0,0,0,0,
0,0,0,0,0,0,0,0,0,0,0,0,0,0,0,0,
0,0,0,0,0,0,0,0,0,0,0,0,0,0,0,0,
0,0,0,0,0,0,0,0,0,0,0,0,0,0,0,0,
0,0,0,0,0,0,0,0,0,0,0,0,0,0,0,0,
0,0,0,0,0,0,0,0,0,0,0,0,0,0,0,0,
0,0,0,0,0,0,0,0,0,0,0,0,0,0,0,0,
0,0,0,0,0,0,0,0,0,0,0,0,0,0,0,0,
0,0,0,0,0,0,658,659,660,661,662,663,0,0,0,0,
0,0,0,0,0,0,715,716,717,718,719,720,0,0,0,0,
0,0,0,0,0,0,0,0,0,0,0,0,0,0,0,0,
0,0,0,0,0,0,0,0,0,0,0,0,0,0,0,0,
0,0,0,0,0,0,0,0,0,0,0,0,0,0,0,0,
0,0,0,0,0,0,0,0,0,0,0,0,0,0,0,0,
0,0,0,0,0,0,0,0,0,0,0,0,0,0,0,0,
0,0,0,0,0,0,0,0,0,0,0,0,0,0,0,0
</chunk>
   <chunk x="16" y="16" width="16" height="16">
0,0,0,0,0,0,0,0,0,0,0,0,0,0,0,0,
0,0,0,0,0,0,0,0,0,0,0,0,0,0,0,0,
0,0,0,0,0,0,0,0,0,0,0,0,0,0,0,0,
0,0,0,0,0,0,0,0,0,0,0,0,0,0,0,0,
0,0,0,0,0,0,0,0,0,0,0,0,0,0,0,0,
0,0,0,0,0,0,0,0,0,0,0,0,0,0,0,0,
0,0,0,0,0,0,0,0,0,0,0,0,0,0,0,0,
0,0,0,0,0,0,0,0,0,0,0,0,0,0,0,0,
0,0,0,0,0,0,0,0,0,0,0,0,0,0,0,0,
0,0,0,0,0,0,0,0,0,664,665,666,667,668,669,0,
0,0,0,0,0,0,0,0,0,0,0,0,0,0,0,0,
0,0,0,0,0,0,0,0,0,0,0,0,0,0,0,0,
0,0,0,0,0,0,0,0,0,0,0,0,0,0,0,0,
0,0,0,0,0,0,0,0,0,0,0,0,0,0,0,0,
0,0,0,0,0,0,0,0,0,0,0,0,0,0,0,0,
0,0,0,0,0,0,0,0,0,0,0,0,0,0,0,0
</chunk>
   <chunk x="32" y="16" width="16" height="16">
0,0,0,0,0,0,0,0,0,0,0,0,0,0,0,0,
0,0,0,0,0,0,0,0,0,0,0,0,0,0,0,0,
0,0,0,0,0,0,0,0,0,0,0,0,0,0,0,0,
0,0,0,0,0,0,0,0,0,0,0,0,628,629,630,631,
0,0,0,0,0,0,0,0,0,0,0,0,685,686,687,688,
0,0,0,0,0,0,0,0,0,0,0,0,0,0,0,0,
0,0,0,0,0,0,0,0,0,0,0,0,0,0,0,0,
0,0,0,0,0,0,0,0,0,0,0,0,0,0,0,0,
0,0,0,0,0,0,0,0,0,0,0,0,0,0,0,0,
0,0,0,0,0,0,0,0,0,0,0,0,0,0,0,0,
0,0,0,0,0,0,0,0,0,0,0,0,0,0,0,0,
0,0,0,0,0,0,0,0,0,0,0,0,0,0,0,0,
0,0,0,0,0,0,0,0,0,0,0,0,0,0,0,0,
0,0,0,0,0,0,0,0,0,0,0,0,0,0,0,0,
0,0,0,0,0,0,0,0,0,0,0,0,0,0,0,0,
0,0,0,0,0,0,0,0,0,0,0,0,0,0,0,0
</chunk>
   <chunk x="48" y="16" width="16" height="16">
0,0,0,0,0,0,0,0,0,0,0,0,0,0,0,0,
0,0,0,0,0,0,0,0,0,0,0,0,0,0,0,0,
0,0,0,0,0,0,0,0,0,0,0,0,0,0,0,0,
632,633,0,0,0,0,0,0,0,0,0,0,0,0,0,0,
689,690,0,0,0,0,0,0,0,0,0,0,0,0,0,0,
0,0,0,0,0,0,0,0,0,0,0,0,0,0,0,0,
0,0,0,0,0,0,0,0,0,0,0,0,0,0,0,0,
0,0,0,0,0,0,0,0,0,0,0,0,0,0,0,0,
0,0,0,0,0,0,0,0,0,0,0,0,0,0,0,0,
0,0,0,0,0,0,0,0,0,0,0,0,0,0,0,0,
0,0,0,0,0,0,0,0,0,0,0,0,0,0,0,0,
0,0,0,0,0,0,0,0,0,0,0,0,0,0,0,0,
0,0,0,0,0,0,0,0,0,0,0,0,0,0,0,0,
0,0,0,0,0,0,0,0,0,0,0,0,0,0,0,0,
0,0,0,0,0,0,0,0,0,0,0,0,0,0,0,0,
0,0,0,0,0,0,0,0,0,0,0,0,0,0,0,0
</chunk>
   <chunk x="-16" y="32" width="16" height="16">
0,0,0,0,0,0,0,0,0,0,0,0,0,0,0,0,
0,0,0,0,0,0,0,0,0,0,0,0,0,0,0,0,
0,0,0,0,0,0,0,0,0,0,0,0,0,0,0,0,
0,0,634,635,636,637,638,639,0,0,0,0,0,0,0,0,
0,0,691,692,693,694,695,696,0,0,0,0,0,0,0,0,
0,0,0,0,0,0,0,0,0,0,0,0,0,0,0,0,
0,0,0,0,0,0,0,0,0,0,0,0,0,0,0,0,
0,0,0,0,0,0,0,0,0,0,0,0,0,0,0,0,
0,0,0,0,0,0,0,0,0,0,0,0,0,0,0,0,
0,0,0,0,0,0,0,0,0,0,0,0,0,0,0,0,
0,0,0,0,0,0,0,0,0,0,0,0,0,0,0,0,
0,0,0,0,0,0,0,0,0,0,0,0,0,0,0,0,
0,0,0,0,0,0,0,0,0,0,0,0,0,0,0,0,
0,0,0,0,0,0,0,0,0,0,0,0,0,0,0,0,
0,0,0,0,0,0,0,0,0,0,0,0,0,0,0,0,
0,0,0,0,0,0,0,0,0,0,0,0,0,0,0,0
</chunk>
   <chunk x="0" y="32" width="16" height="16">
0,0,0,0,0,0,0,0,0,0,0,0,0,0,0,0,
0,0,0,0,0,0,0,0,0,0,0,0,0,0,0,0,
0,0,0,0,0,0,0,0,0,0,0,0,0,0,0,0,
0,0,0,0,0,0,0,0,0,0,0,0,0,0,0,0,
0,0,0,0,0,0,640,641,642,643,644,645,0,0,0,0,
0,0,0,0,0,0,697,698,699,700,701,702,0,0,0,0,
0,0,0,0,0,0,0,0,0,0,0,0,0,0,0,0,
0,0,0,0,0,0,0,0,0,0,0,0,0,0,0,0,
0,0,0,0,0,0,0,0,0,0,0,0,0,0,0,0,
0,0,0,0,0,0,0,0,0,0,0,0,0,0,0,0,
0,0,0,0,0,0,0,0,0,0,0,0,0,0,0,0,
0,0,0,0,0,0,0,0,0,0,0,0,0,0,0,0,
0,0,0,0,0,0,0,0,0,0,0,0,0,0,0,0,
0,0,0,0,0,0,0,0,0,0,0,0,0,0,0,0,
0,0,0,0,0,0,0,0,0,0,0,0,0,0,0,0,
0,0,0,0,0,0,0,0,0,0,0,0,0,0,0,0
</chunk>
   <chunk x="16" y="32" width="16" height="16">
0,0,0,0,0,0,0,0,0,0,0,0,0,0,0,0,
0,0,0,0,0,0,0,0,0,0,0,0,0,0,0,0,
0,0,0,0,0,0,0,0,0,0,0,0,0,0,0,0,
0,0,0,0,0,0,0,0,0,0,0,0,0,0,0,0,
0,0,0,0,0,0,0,0,0,0,0,0,0,0,0,0,
0,0,0,0,0,0,0,0,0,646,647,648,649,650,651,0,
0,0,0,0,0,0,0,0,0,703,704,705,706,707,708,0,
0,0,0,0,0,0,0,0,0,0,0,0,0,0,0,0,
0,0,0,0,0,0,0,0,0,0,0,0,0,0,0,0,
0,0,0,0,0,0,0,0,0,0,0,0,0,0,0,0,
0,0,0,0,0,0,0,0,0,0,0,0,0,0,0,0,
0,0,0,0,0,0,0,0,0,0,0,0,0,0,0,0,
0,0,0,0,0,0,0,0,0,0,0,0,0,0,0,0,
0,0,0,0,0,0,0,0,0,0,0,0,0,0,0,0,
0,0,0,0,0,0,0,0,0,0,0,0,0,0,0,0,
0,0,0,0,0,0,0,0,0,0,0,0,0,0,0,0
</chunk>
   <chunk x="32" y="32" width="16" height="16">
0,0,0,0,0,0,0,0,0,0,0,0,0,0,0,0,
0,0,0,0,0,0,0,0,0,0,0,0,0,0,0,0,
0,0,0,0,0,0,0,0,0,0,0,0,0,0,0,0,
0,0,0,0,0,0,0,0,0,0,0,0,0,0,0,0,
0,0,0,0,0,0,0,0,0,0,0,0,0,0,0,0,
0,0,0,0,0,0,0,0,0,0,0,0,0,0,0,0,
0,0,0,0,0,0,0,0,0,0,0,0,658,659,660,661,
0,0,0,0,0,0,0,0,0,0,0,0,715,716,717,718,
0,0,0,0,0,0,0,0,0,0,0,0,0,0,0,0,
0,0,0,0,0,0,0,0,0,0,0,0,0,0,0,0,
0,0,0,0,0,0,0,0,0,0,0,0,0,0,0,0,
0,0,0,0,0,0,0,0,0,0,0,0,0,0,0,0,
0,0,0,0,0,0,0,0,0,0,0,0,0,0,0,0,
0,0,0,0,0,0,0,0,0,0,0,0,0,0,0,0,
0,0,0,0,0,0,0,0,0,0,0,0,0,0,0,0,
0,0,0,0,0,0,0,0,0,0,0,0,0,0,0,0
</chunk>
   <chunk x="48" y="32" width="16" height="16">
0,0,0,0,0,0,0,0,0,0,0,0,0,0,0,0,
0,0,0,0,0,0,0,0,0,0,0,0,0,0,0,0,
0,0,0,0,0,0,0,0,0,0,0,0,0,0,0,0,
0,0,0,0,0,0,0,0,0,0,0,0,0,0,0,0,
0,0,0,0,0,0,0,0,0,0,0,0,0,0,0,0,
0,0,0,0,0,0,0,0,0,0,0,0,0,0,0,0,
662,663,0,0,0,0,0,0,0,0,0,0,0,0,0,0,
719,720,0,0,0,0,0,0,0,0,0,0,0,0,0,0,
0,0,0,0,0,0,0,0,0,0,0,0,0,0,0,0,
0,0,0,0,0,0,0,0,0,0,0,0,0,0,0,0,
0,0,0,0,0,0,0,0,0,0,0,0,0,0,0,0,
0,0,0,0,0,0,0,0,0,0,0,0,0,0,0,0,
0,0,0,0,0,0,0,0,0,0,0,0,0,0,0,0,
0,0,0,0,0,0,0,0,0,0,0,0,0,0,0,0,
0,0,0,0,0,0,0,0,0,0,0,0,0,0,0,0,
0,0,0,0,0,0,0,0,0,0,0,0,0,0,0,0
</chunk>
   <chunk x="-16" y="48" width="16" height="16">
0,0,0,0,0,0,0,0,0,0,0,0,0,0,0,0,
0,0,0,0,0,0,0,0,0,0,0,0,0,0,0,0,
0,0,0,0,0,0,0,0,0,0,0,0,0,0,0,0,
0,0,0,0,0,0,0,0,0,0,0,0,0,0,0,0,
0,0,0,0,0,0,0,0,0,0,0,0,0,0,0,0,
0,0,658,659,660,661,662,663,0,0,0,0,0,0,0,0,
0,0,715,716,717,718,719,720,0,0,0,0,0,0,0,0,
0,0,0,0,0,0,0,0,0,0,0,0,0,0,0,0,
0,0,0,0,0,0,0,0,0,0,0,0,0,0,0,0,
0,0,0,0,0,0,0,0,0,0,0,0,0,0,0,0,
0,0,0,0,0,0,0,0,0,0,0,0,0,0,0,0,
0,0,0,0,0,0,0,0,0,0,0,0,0,0,0,0,
0,0,0,0,0,0,0,0,0,0,0,0,0,0,0,0,
0,0,0,0,0,0,0,0,0,0,0,0,0,0,0,0,
0,0,0,0,0,0,0,0,0,0,0,0,0,0,0,0,
0,0,0,0,0,0,0,0,0,0,0,0,0,0,0,0
</chunk>
   <chunk x="0" y="48" width="16" height="16">
0,0,0,0,0,0,0,0,0,0,0,0,0,0,0,0,
0,0,0,0,0,0,0,0,0,0,0,0,0,0,0,0,
0,0,0,0,0,0,0,0,0,0,0,0,0,0,0,0,
0,0,0,0,0,0,0,0,0,0,0,0,0,0,0,0,
0,0,0,0,0,0,0,0,0,0,0,0,0,0,0,0,
0,0,0,0,0,0,0,0,0,0,0,0,0,0,0,0,
0,0,0,0,0,0,664,665,666,667,668,669,0,0,0,0,
0,0,0,0,0,0,721,722,723,724,725,726,0,0,0,0,
0,0,0,0,0,0,0,0,0,0,0,0,0,0,0,0,
0,0,0,0,0,0,0,0,0,0,0,0,0,0,0,0,
0,0,0,0,0,0,0,0,0,0,0,0,0,0,0,0,
0,0,0,0,0,0,0,0,0,0,0,0,0,0,0,0,
0,0,0,0,0,0,0,0,0,0,0,0,0,0,0,0,
0,0,0,0,0,0,0,0,0,0,0,0,0,0,0,0,
0,0,0,0,0,0,0,0,0,0,0,0,0,0,0,0,
0,0,0,0,0,0,0,0,0,0,0,0,0,0,0,0
</chunk>
   <chunk x="16" y="48" width="16" height="16">
0,0,0,0,0,0,0,0,0,628,629,630,631,632,633,0,
0,0,0,0,0,0,0,0,0,685,686,687,688,689,690,0,
0,0,0,0,0,0,0,0,0,0,0,0,0,0,0,0,
0,0,0,0,0,0,0,0,0,0,0,0,0,0,0,0,
0,0,0,0,0,0,0,0,0,0,0,0,0,0,0,0,
0,0,0,0,0,0,0,0,0,0,0,0,0,0,0,0,
0,0,0,0,0,0,0,0,0,0,0,0,0,0,0,0,
0,0,0,0,0,0,0,0,0,0,0,0,0,0,0,0,
0,0,0,0,0,0,0,0,0,0,0,0,0,0,0,0,
0,0,0,0,0,0,0,0,0,0,0,0,0,0,0,0,
0,0,0,0,0,0,0,0,0,0,0,0,0,0,0,0,
0,0,0,0,0,0,0,0,0,0,0,0,0,0,0,0,
0,0,0,0,0,0,0,0,0,0,0,0,0,0,0,0,
0,0,0,0,0,0,0,0,0,0,0,0,0,0,0,0,
0,0,0,0,0,0,0,0,0,0,0,0,0,0,0,0,
0,0,0,0,0,0,0,0,0,0,0,0,0,0,0,0
</chunk>
   <chunk x="32" y="48" width="16" height="16">
0,0,0,0,0,0,0,0,0,0,0,0,0,0,0,0,
0,0,0,0,0,0,0,0,0,0,0,0,634,635,636,637,
0,0,0,0,0,0,0,0,0,0,0,0,691,692,693,694,
0,0,0,0,0,0,0,0,0,0,0,0,0,0,0,0,
0,0,0,0,0,0,0,0,0,0,0,0,0,0,0,0,
0,0,0,0,0,0,0,0,0,0,0,0,0,0,0,0,
0,0,0,0,0,0,0,0,0,0,0,0,0,0,0,0,
0,0,0,0,0,0,0,0,0,0,0,0,0,0,0,0,
0,0,0,0,0,0,0,0,0,0,0,0,0,0,0,0,
0,0,0,0,0,0,0,0,0,0,0,0,0,0,0,0,
0,0,0,0,0,0,0,0,0,0,0,0,0,0,0,0,
0,0,0,0,0,0,0,0,0,0,0,0,0,0,0,0,
0,0,0,0,0,0,0,0,0,0,0,0,0,0,0,0,
0,0,0,0,0,0,0,0,0,0,0,0,0,0,0,0,
0,0,0,0,0,0,0,0,0,0,0,0,0,0,0,0,
0,0,0,0,0,0,0,0,0,0,0,0,0,0,0,0
</chunk>
   <chunk x="48" y="48" width="16" height="16">
0,0,0,0,0,0,0,0,0,0,0,0,0,0,0,0,
638,639,0,0,0,0,0,0,0,0,0,0,0,0,0,0,
695,696,0,0,0,0,0,0,0,0,0,0,0,0,0,0,
0,0,0,0,0,0,0,0,0,0,0,0,0,0,0,0,
0,0,0,0,0,0,0,0,0,0,0,0,0,0,0,0,
0,0,0,0,0,0,0,0,0,0,0,0,0,0,0,0,
0,0,0,0,0,0,0,0,0,0,0,0,0,0,0,0,
0,0,0,0,0,0,0,0,0,0,0,0,0,0,0,0,
0,0,0,0,0,0,0,0,0,0,0,0,0,0,0,0,
0,0,0,0,0,0,0,0,0,0,0,0,0,0,0,0,
0,0,0,0,0,0,0,0,0,0,0,0,0,0,0,0,
0,0,0,0,0,0,0,0,0,0,0,0,0,0,0,0,
0,0,0,0,0,0,0,0,0,0,0,0,0,0,0,0,
0,0,0,0,0,0,0,0,0,0,0,0,0,0,0,0,
0,0,0,0,0,0,0,0,0,0,0,0,0,0,0,0,
0,0,0,0,0,0,0,0,0,0,0,0,0,0,0,0
</chunk>
   <chunk x="-16" y="64" width="16" height="16">
0,0,640,641,642,643,644,645,0,0,0,0,0,0,0,0,
0,0,697,698,699,700,701,702,0,0,0,0,0,0,0,0,
0,0,0,0,0,0,0,0,0,0,0,0,0,0,0,0,
0,0,0,0,0,0,0,0,0,0,0,0,0,0,0,0,
0,0,0,0,0,0,0,0,0,0,0,0,0,0,0,0,
0,0,0,0,0,0,0,0,0,0,0,0,0,0,0,0,
0,0,0,0,0,0,0,0,0,0,0,0,0,0,0,0,
0,0,0,0,0,0,0,0,0,0,0,0,0,0,0,0,
0,0,0,0,0,0,0,0,0,0,0,0,0,0,0,0,
0,0,0,0,0,0,0,0,0,0,0,0,0,0,0,0,
0,0,0,0,0,0,0,0,0,0,0,0,0,0,0,0,
0,0,0,0,0,0,0,0,0,0,0,0,0,0,0,0,
0,0,0,0,0,0,0,0,0,0,0,0,0,0,0,0,
0,0,0,0,0,0,0,0,0,0,0,0,0,0,0,0,
0,0,0,0,0,0,0,0,0,0,0,0,0,0,0,0,
0,0,0,0,0,0,0,0,0,0,0,0,0,0,0,0
</chunk>
   <chunk x="0" y="64" width="16" height="16">
0,0,0,0,0,0,0,0,0,0,0,0,0,0,0,0,
0,0,0,0,0,0,646,647,648,649,650,651,0,0,0,0,
0,0,0,0,0,0,703,704,705,706,707,708,0,0,0,0,
0,0,0,0,0,0,0,0,0,0,0,0,0,0,0,0,
0,0,0,0,0,0,0,0,0,0,0,0,0,0,0,0,
0,0,0,0,0,0,0,0,0,0,0,0,0,0,0,0,
0,0,0,0,0,0,0,0,0,0,0,0,0,0,0,0,
0,0,0,0,0,0,0,0,0,0,0,0,0,0,0,0,
0,0,0,0,0,0,0,0,0,0,0,0,0,0,0,0,
0,0,0,0,0,0,0,0,0,0,0,0,0,0,0,0,
0,0,0,0,0,0,0,0,0,0,0,0,0,0,0,0,
0,0,0,0,0,0,0,0,0,0,0,0,0,0,0,0,
0,0,0,0,0,0,0,0,0,0,0,0,0,0,0,0,
0,0,0,0,0,0,628,629,630,631,632,633,0,0,0,0,
0,0,0,0,0,0,685,686,687,688,689,690,0,0,0,0,
0,0,0,0,0,0,0,0,0,0,0,0,0,0,0,0
</chunk>
   <chunk x="16" y="64" width="16" height="16">
0,0,0,0,0,0,0,0,0,0,0,0,0,0,0,0,
0,0,0,0,0,0,0,0,0,0,0,0,0,0,0,0,
0,0,0,0,0,0,0,0,0,652,653,654,655,656,657,0,
0,0,0,0,0,0,0,0,0,709,710,711,712,713,714,0,
0,0,0,0,0,0,0,0,0,0,0,0,0,0,0,0,
0,0,0,0,0,0,0,0,0,0,0,0,0,0,0,0,
0,0,0,0,0,0,0,0,0,0,0,0,0,0,0,0,
0,0,0,0,0,0,0,0,0,0,0,0,0,0,0,0,
0,0,0,0,0,0,0,0,0,0,0,0,0,0,0,0,
0,0,0,0,0,0,0,0,0,0,0,0,0,0,0,0,
0,0,0,0,0,0,0,0,0,0,0,0,0,0,0,0,
0,0,0,0,0,0,0,0,0,0,0,0,0,0,0,0,
0,0,0,0,0,0,0,0,0,0,0,0,0,0,0,0,
0,0,0,0,0,0,0,0,0,0,0,0,0,0,0,0,
0,0,0,0,0,0,0,0,0,634,635,636,637,638,639,0,
0,0,0,0,0,0,0,0,0,691,692,693,694,695,696,0
</chunk>
   <chunk x="32" y="64" width="16" height="16">
0,0,0,0,0,0,0,0,0,0,0,0,0,0,0,0,
0,0,0,0,0,0,0,0,0,0,0,0,0,0,0,0,
0,0,0,0,0,0,0,0,0,0,0,0,0,0,0,0,
0,0,0,0,0,0,0,0,0,0,0,0,658,659,660,661,
0,0,0,0,0,0,0,0,0,0,0,0,715,716,717,718,
0,0,0,0,0,0,0,0,0,0,0,0,0,0,0,0,
0,0,0,0,0,0,0,0,0,0,0,0,0,0,0,0,
0,0,0,0,0,0,0,0,0,0,0,0,0,0,0,0,
0,0,0,0,0,0,0,0,0,0,0,0,0,0,0,0,
0,0,0,0,0,0,0,0,0,0,0,0,0,0,0,0,
0,0,0,0,0,0,0,0,0,0,0,0,0,0,0,0,
0,0,0,0,0,0,0,0,0,0,0,0,0,0,0,0,
0,0,0,0,0,0,0,0,0,0,0,0,0,0,0,0,
0,0,0,0,0,0,0,0,0,0,0,0,0,0,0,0,
0,0,0,0,0,0,0,0,0,0,0,0,0,0,0,0,
0,0,0,0,0,0,0,0,0,0,0,0,640,641,642,643
</chunk>
   <chunk x="48" y="64" width="16" height="16">
0,0,0,0,0,0,0,0,0,0,0,0,0,0,0,0,
0,0,0,0,0,0,0,0,0,0,0,0,0,0,0,0,
0,0,0,0,0,0,0,0,0,0,0,0,0,0,0,0,
662,663,0,0,0,0,0,0,0,0,0,0,0,0,0,0,
719,720,0,0,0,0,0,0,0,0,0,0,0,0,0,0,
0,0,0,0,0,0,0,0,0,0,0,0,0,0,0,0,
0,0,0,0,0,0,0,0,0,0,0,0,0,0,0,0,
0,0,0,0,0,0,0,0,0,0,0,0,0,0,0,0,
0,0,0,0,0,0,0,0,0,0,0,0,0,0,0,0,
0,0,0,0,0,0,0,0,0,0,0,0,0,0,0,0,
0,0,0,0,0,0,0,0,0,0,0,0,0,0,0,0,
0,0,0,0,0,0,0,0,0,0,0,0,0,0,0,0,
0,0,0,0,0,0,0,0,0,0,0,0,0,0,0,0,
0,0,0,0,0,0,0,0,0,0,0,0,0,0,0,0,
0,0,0,0,0,0,0,0,0,0,0,0,0,0,0,0,
644,645,0,0,0,0,0,0,0,0,0,0,0,0,0,0
</chunk>
   <chunk x="-16" y="80" width="16" height="16">
0,0,0,0,0,0,0,0,0,0,0,0,0,0,0,0,
0,0,0,0,0,0,0,0,0,0,0,0,0,0,0,0,
0,0,0,0,0,0,0,0,0,0,0,0,0,0,0,0,
0,0,664,665,666,667,668,669,670,0,0,0,0,0,0,0,
0,0,721,722,723,724,725,726,727,0,0,0,0,0,0,0,
0,0,0,0,0,0,0,0,0,0,0,0,0,0,0,0,
0,0,0,0,0,0,0,0,0,0,0,0,0,0,0,0,
0,0,0,0,0,0,0,0,0,0,0,0,0,0,0,0,
0,0,0,0,0,0,0,0,0,0,0,0,0,0,0,0,
0,0,0,0,0,0,0,0,0,0,0,0,0,0,0,0,
0,0,0,0,0,0,0,0,0,0,0,0,0,0,0,0,
0,0,0,0,0,0,0,0,0,0,0,0,0,0,0,0,
0,0,0,0,0,0,0,0,0,0,0,0,0,0,0,0,
0,0,0,0,0,0,0,0,0,0,0,0,0,0,0,0,
0,0,0,0,0,0,0,0,0,0,0,0,0,0,0,0,
0,0,0,0,0,0,0,0,0,0,0,0,0,0,0,0
</chunk>
   <chunk x="32" y="80" width="16" height="16">
0,0,0,0,0,0,0,0,0,0,0,0,697,698,699,700,
0,0,0,0,0,0,0,0,0,0,0,0,0,0,0,0,
0,0,0,0,0,0,0,0,0,0,0,0,0,0,0,0,
0,0,0,0,0,0,0,0,0,0,0,0,0,0,0,0,
0,0,0,0,0,0,0,0,0,0,0,0,0,0,0,0,
0,0,0,0,0,0,0,0,0,0,0,0,0,0,0,0,
0,0,0,0,0,0,0,0,0,0,0,0,0,0,0,0,
0,0,0,0,0,0,0,0,0,0,0,0,0,0,0,0,
0,0,0,0,0,0,0,0,0,0,0,0,0,0,0,0,
0,0,0,0,0,0,0,0,0,0,0,0,0,0,0,0,
0,0,0,0,0,0,0,0,0,0,0,0,0,0,0,0,
0,0,0,0,0,0,0,0,0,0,0,0,0,0,0,0,
0,0,0,0,0,0,0,0,0,0,0,0,0,0,0,0,
0,0,0,0,0,0,0,0,0,0,0,0,0,0,0,0,
0,0,0,0,0,0,0,0,0,0,0,0,0,0,0,0,
0,0,0,0,0,0,0,0,0,0,0,0,0,0,0,0
</chunk>
   <chunk x="48" y="80" width="16" height="16">
701,702,0,0,0,0,0,0,0,0,0,0,0,0,0,0,
0,0,0,0,0,0,0,0,0,0,0,0,0,0,0,0,
0,0,0,0,0,0,0,0,0,0,0,0,0,0,0,0,
0,0,0,0,0,0,0,0,0,0,0,0,0,0,0,0,
0,0,0,0,0,0,0,0,0,0,0,0,0,0,0,0,
0,0,0,0,0,0,0,0,0,0,0,0,0,0,0,0,
0,0,0,0,0,0,0,0,0,0,0,0,0,0,0,0,
0,0,0,0,0,0,0,0,0,0,0,0,0,0,0,0,
0,0,0,0,0,0,0,0,0,0,0,0,0,0,0,0,
0,0,0,0,0,0,0,0,0,0,0,0,0,0,0,0,
0,0,0,0,0,0,0,0,0,0,0,0,0,0,0,0,
0,0,0,0,0,0,0,0,0,0,0,0,0,0,0,0,
0,0,0,0,0,0,0,0,0,0,0,0,0,0,0,0,
0,0,0,0,0,0,0,0,0,0,0,0,0,0,0,0,
0,0,0,0,0,0,0,0,0,0,0,0,0,0,0,0,
0,0,0,0,0,0,0,0,0,0,0,0,0,0,0,0
</chunk>
  </data>
 </layer>
 <layer id="19" name="slider" width="16" height="24">
  <data encoding="csv">
   <chunk x="-16" y="0" width="16" height="16">
0,0,0,0,0,0,0,0,0,0,0,0,0,0,0,0,
0,0,0,0,0,0,0,0,0,0,0,0,0,0,0,0,
0,0,0,0,0,0,0,0,0,0,0,0,0,0,0,0,
0,0,0,0,0,0,0,0,0,0,0,0,0,0,0,0,
0,0,0,0,0,0,0,0,0,0,0,0,0,0,0,0,
0,0,0,0,0,0,0,0,0,0,0,0,0,0,0,0,
0,0,0,0,0,0,0,0,0,0,0,0,0,0,0,0,
0,224,225,0,0,0,0,0,0,0,0,0,0,0,0,0,
0,281,282,0,0,0,0,0,0,0,0,0,0,0,0,0,
0,0,0,0,0,0,0,0,0,0,0,0,0,0,0,0,
0,0,0,0,0,0,0,0,0,0,0,0,0,0,0,0,
0,0,0,0,0,0,0,0,0,0,0,0,0,0,0,0,
0,0,0,0,0,0,0,0,0,0,0,0,0,0,0,0,
0,0,0,0,0,0,0,0,0,0,0,0,0,0,0,0,
0,0,0,0,0,0,0,0,0,0,0,0,0,0,0,0,
0,0,0,0,0,0,0,0,0,0,0,0,0,0,0,0
</chunk>
   <chunk x="0" y="0" width="16" height="16">
0,0,0,0,0,0,0,0,0,0,0,0,0,0,0,0,
0,0,0,0,0,0,0,0,0,0,0,0,0,0,0,0,
0,0,0,0,0,0,0,0,0,0,0,0,0,0,0,0,
0,0,0,0,0,0,0,0,0,0,0,0,0,0,0,0,
0,0,0,0,0,0,0,0,0,0,0,0,0,0,0,0,
0,0,0,0,0,0,0,0,0,0,0,0,0,0,0,0,
0,0,0,0,0,0,0,0,0,0,0,0,0,0,0,0,
0,0,0,0,0,224,225,0,0,0,0,0,0,0,0,0,
0,0,0,0,0,281,282,0,0,0,0,0,0,0,0,0,
0,0,0,0,0,0,0,0,0,0,0,0,0,0,0,0,
0,0,0,0,0,0,0,0,0,0,0,0,0,0,0,0,
0,0,0,0,0,0,0,0,0,0,0,0,0,0,0,0,
0,0,0,0,0,0,0,0,0,0,0,0,0,0,0,0,
0,0,0,0,0,0,0,0,0,0,0,0,0,0,0,0,
0,0,0,0,0,0,0,0,0,0,0,0,0,0,0,0,
0,0,0,0,0,0,0,0,0,0,0,0,0,0,0,0
</chunk>
   <chunk x="16" y="0" width="16" height="16">
0,0,0,0,0,0,0,0,0,0,0,0,0,0,0,0,
0,0,0,0,0,0,0,0,0,0,0,0,0,0,0,0,
0,0,0,0,0,0,0,0,0,0,0,0,0,0,0,0,
0,0,0,0,0,0,0,0,0,0,0,0,0,0,0,0,
0,0,0,0,0,0,0,0,0,0,0,0,0,0,0,0,
0,0,0,0,0,0,0,0,0,0,0,0,0,0,0,0,
0,0,0,0,0,0,0,0,0,0,0,0,0,0,0,0,
0,0,0,0,0,0,0,0,224,225,0,0,0,0,0,0,
0,0,0,0,0,0,0,0,281,282,0,0,0,0,0,0,
0,0,0,0,0,0,0,0,0,0,0,0,0,0,0,0,
0,0,0,0,0,0,0,0,0,0,0,0,0,0,0,0,
0,0,0,0,0,0,0,0,0,0,0,0,0,0,0,0,
0,0,0,0,0,0,0,0,0,0,0,0,0,0,0,0,
0,0,0,0,0,0,0,0,0,0,0,0,0,0,0,0,
0,0,0,0,0,0,0,0,0,0,0,0,0,0,0,0,
0,0,0,0,0,0,0,0,0,0,0,0,0,0,0,0
</chunk>
   <chunk x="32" y="0" width="16" height="16">
0,0,0,0,0,0,0,0,0,0,0,0,0,0,0,0,
0,0,0,0,0,0,0,0,0,0,0,0,0,0,0,0,
0,0,0,0,0,0,0,0,0,0,0,0,0,0,0,0,
0,0,0,0,0,0,0,0,0,0,0,0,0,0,0,0,
0,0,0,0,0,0,0,0,0,0,0,0,0,0,0,0,
0,0,0,0,0,0,0,0,0,0,0,0,0,0,0,0,
0,0,0,0,0,0,0,0,0,0,0,0,0,0,0,0,
0,0,0,0,0,0,0,0,0,0,0,224,225,0,0,0,
0,0,0,0,0,0,0,0,0,0,0,281,282,0,0,0,
0,0,0,0,0,0,0,0,0,0,0,0,0,0,0,0,
0,0,0,0,0,0,0,0,0,0,0,0,0,0,0,0,
0,0,0,0,0,0,0,0,0,0,0,0,0,0,0,0,
0,0,0,0,0,0,0,0,0,0,0,0,0,0,0,0,
0,0,0,0,0,0,0,0,0,0,0,0,0,0,0,0,
0,0,0,0,0,0,0,0,0,0,0,0,0,0,0,0,
0,0,0,0,0,0,0,0,0,0,0,0,0,0,0,0
</chunk>
   <chunk x="-16" y="16" width="16" height="16">
0,0,0,0,0,0,0,0,0,0,0,0,0,0,0,0,
0,0,0,0,0,0,0,0,0,0,0,0,0,0,0,0,
0,0,0,0,0,0,0,0,0,0,0,0,0,0,0,0,
0,0,0,0,0,0,0,0,0,0,0,0,0,0,0,0,
0,0,0,0,0,0,0,0,0,0,0,0,0,0,0,0,
0,224,225,0,0,0,0,0,0,0,0,0,0,0,0,0,
0,281,282,0,0,0,0,0,0,0,0,0,0,0,0,0,
0,0,0,0,0,0,0,0,0,0,0,0,0,0,0,0,
0,0,0,0,0,0,0,0,0,0,0,0,0,0,0,0,
0,0,0,0,0,0,0,0,0,0,0,0,0,0,0,0,
0,0,0,0,0,0,0,0,0,0,0,0,0,0,0,0,
0,0,0,0,0,0,0,0,0,0,0,0,0,0,0,0,
0,0,0,0,0,0,0,0,0,0,0,0,0,0,0,0,
0,0,0,0,0,0,0,0,0,0,0,0,0,0,0,0,
0,0,0,0,0,0,0,0,0,0,0,0,0,0,0,0,
0,0,0,0,0,0,0,0,0,0,0,0,0,0,0,0
</chunk>
   <chunk x="0" y="16" width="16" height="16">
0,0,0,0,0,0,0,0,0,0,0,0,0,0,0,0,
0,0,0,0,0,0,0,0,0,0,0,0,0,0,0,0,
0,0,0,0,0,0,0,0,0,0,0,0,0,0,0,0,
0,0,0,0,0,0,0,0,0,0,0,0,0,0,0,0,
0,0,0,0,0,0,0,0,0,0,0,0,0,0,0,0,
0,0,0,0,0,224,225,0,0,0,0,0,0,0,0,0,
0,0,0,0,0,281,282,0,0,0,0,0,0,0,0,0,
0,0,0,0,0,0,0,0,0,0,0,0,0,0,0,0,
0,0,0,0,0,0,0,0,0,0,0,0,0,0,0,0,
0,0,0,0,0,0,0,0,0,0,0,0,0,0,0,0,
0,0,0,0,0,0,0,0,0,0,0,0,0,0,0,0,
0,0,0,0,0,0,0,0,0,0,0,0,0,0,0,0,
0,0,0,0,0,0,0,0,0,0,0,0,0,0,0,0,
0,0,0,0,0,0,0,0,0,0,0,0,0,0,0,0,
0,0,0,0,0,0,0,0,0,0,0,0,0,0,0,0,
0,0,0,0,0,0,0,0,0,0,0,0,0,0,0,0
</chunk>
   <chunk x="16" y="16" width="16" height="16">
0,0,0,0,0,0,0,0,0,0,0,0,0,0,0,0,
0,0,0,0,0,0,0,0,0,0,0,0,0,0,0,0,
0,0,0,0,0,0,0,0,0,0,0,0,0,0,0,0,
0,0,0,0,0,0,0,0,0,0,0,0,0,0,0,0,
0,0,0,0,0,0,0,0,0,0,0,0,0,0,0,0,
0,0,0,0,0,0,0,0,224,225,0,0,0,0,0,0,
0,0,0,0,0,0,0,0,281,282,0,0,0,0,0,0,
0,0,0,0,0,0,0,0,0,0,0,0,0,0,0,0,
0,0,0,0,0,0,0,0,0,0,0,0,0,0,0,0,
0,0,0,0,0,0,0,0,0,0,0,0,0,0,0,0,
0,0,0,0,0,0,0,0,0,0,0,0,0,0,0,0,
0,0,0,0,0,0,0,0,0,0,0,0,0,0,0,0,
0,0,0,0,0,0,0,0,0,0,0,0,0,0,0,0,
0,0,0,0,0,0,0,0,0,0,0,0,0,0,0,0,
0,0,0,0,0,0,0,0,0,0,0,0,0,0,0,0,
0,0,0,0,0,0,0,0,0,0,0,0,0,0,0,0
</chunk>
   <chunk x="32" y="16" width="16" height="16">
0,0,0,0,0,0,0,0,0,0,0,0,0,0,0,0,
0,0,0,0,0,0,0,0,0,0,0,0,0,0,0,0,
0,0,0,0,0,0,0,0,0,0,0,0,0,0,0,0,
0,0,0,0,0,0,0,0,0,0,0,0,0,0,0,0,
0,0,0,0,0,0,0,0,0,0,0,0,0,0,0,0,
0,0,0,0,0,0,0,0,0,0,0,224,225,0,0,0,
0,0,0,0,0,0,0,0,0,0,0,281,282,0,0,0,
0,0,0,0,0,0,0,0,0,0,0,0,0,0,0,0,
0,0,0,0,0,0,0,0,0,0,0,0,0,0,0,0,
0,0,0,0,0,0,0,0,0,0,0,0,0,0,0,0,
0,0,0,0,0,0,0,0,0,0,0,0,0,0,0,0,
0,0,0,0,0,0,0,0,0,0,0,0,0,0,0,0,
0,0,0,0,0,0,0,0,0,0,0,0,0,0,0,0,
0,0,0,0,0,0,0,0,0,0,0,0,0,0,0,0,
0,0,0,0,0,0,0,0,0,0,0,0,0,0,0,0,
0,0,0,0,0,0,0,0,0,0,0,0,0,0,0,0
</chunk>
   <chunk x="-16" y="32" width="16" height="16">
0,0,0,0,0,0,0,0,0,0,0,0,0,0,0,0,
0,0,0,0,0,0,0,0,0,0,0,0,0,0,0,0,
0,0,0,0,0,0,0,0,0,0,0,0,0,0,0,0,
0,0,0,0,0,0,0,0,0,0,0,0,0,0,0,0,
0,224,225,0,0,0,0,0,0,0,0,0,0,0,0,0,
0,281,282,0,0,0,0,0,0,0,0,0,0,0,0,0,
0,0,0,0,0,0,0,0,0,0,0,0,0,0,0,0,
0,0,0,0,0,0,0,0,0,0,0,0,0,0,0,0,
0,0,0,0,0,0,0,0,0,0,0,0,0,0,0,0,
0,0,0,0,0,0,0,0,0,0,0,0,0,0,0,0,
0,0,0,0,0,0,0,0,0,0,0,0,0,0,0,0,
0,0,0,0,0,0,0,0,0,0,0,0,0,0,0,0,
0,0,0,0,0,0,0,0,0,0,0,0,0,0,0,0,
0,0,0,0,0,0,0,0,0,0,0,0,0,0,0,0,
0,0,0,0,0,0,0,0,0,0,0,0,0,0,0,0,
0,0,0,0,0,0,0,0,0,0,0,0,0,0,0,0
</chunk>
   <chunk x="0" y="32" width="16" height="16">
0,0,0,0,0,0,0,0,0,0,0,0,0,0,0,0,
0,0,0,0,0,0,0,0,0,0,0,0,0,0,0,0,
0,0,0,0,0,0,0,0,0,0,0,0,0,0,0,0,
0,0,0,0,0,0,0,0,0,0,0,0,0,0,0,0,
0,0,0,0,0,224,225,0,0,0,0,0,0,0,0,0,
0,0,0,0,0,281,282,0,0,0,0,0,0,0,0,0,
0,0,0,0,0,0,0,0,0,0,0,0,0,0,0,0,
0,0,0,0,0,0,0,0,0,0,0,0,0,0,0,0,
0,0,0,0,0,0,0,0,0,0,0,0,0,0,0,0,
0,0,0,0,0,0,0,0,0,0,0,0,0,0,0,0,
0,0,0,0,0,0,0,0,0,0,0,0,0,0,0,0,
0,0,0,0,0,0,0,0,0,0,0,0,0,0,0,0,
0,0,0,0,0,0,0,0,0,0,0,0,0,0,0,0,
0,0,0,0,0,0,0,0,0,0,0,0,0,0,0,0,
0,0,0,0,0,0,0,0,0,0,0,0,0,0,0,0,
0,0,0,0,0,0,0,0,0,0,0,0,0,0,0,0
</chunk>
   <chunk x="16" y="32" width="16" height="16">
0,0,0,0,0,0,0,0,0,0,0,0,0,0,0,0,
0,0,0,0,0,0,0,0,0,0,0,0,0,0,0,0,
0,0,0,0,0,0,0,0,0,0,0,0,0,0,0,0,
0,0,0,0,0,0,0,0,0,0,0,0,0,0,0,0,
0,0,0,0,0,0,0,0,224,225,0,0,0,0,0,0,
0,0,0,0,0,0,0,0,281,282,0,0,0,0,0,0,
0,0,0,0,0,0,0,0,0,0,0,0,0,0,0,0,
0,0,0,0,0,0,0,0,0,0,0,0,0,0,0,0,
0,0,0,0,0,0,0,0,0,0,0,0,0,0,0,0,
0,0,0,0,0,0,0,0,0,0,0,0,0,0,0,0,
0,0,0,0,0,0,0,0,0,0,0,0,0,0,0,0,
0,0,0,0,0,0,0,0,0,0,0,0,0,0,0,0,
0,0,0,0,0,0,0,0,0,0,0,0,0,0,0,0,
0,0,0,0,0,0,0,0,0,0,0,0,0,0,0,0,
0,0,0,0,0,0,0,0,0,0,0,0,0,0,0,0,
0,0,0,0,0,0,0,0,0,0,0,0,0,0,0,0
</chunk>
   <chunk x="32" y="32" width="16" height="16">
0,0,0,0,0,0,0,0,0,0,0,0,0,0,0,0,
0,0,0,0,0,0,0,0,0,0,0,0,0,0,0,0,
0,0,0,0,0,0,0,0,0,0,0,0,0,0,0,0,
0,0,0,0,0,0,0,0,0,0,0,0,0,0,0,0,
0,0,0,0,0,0,0,0,0,0,0,224,225,0,0,0,
0,0,0,0,0,0,0,0,0,0,0,281,282,0,0,0,
0,0,0,0,0,0,0,0,0,0,0,0,0,0,0,0,
0,0,0,0,0,0,0,0,0,0,0,0,0,0,0,0,
0,0,0,0,0,0,0,0,0,0,0,0,0,0,0,0,
0,0,0,0,0,0,0,0,0,0,0,0,0,0,0,0,
0,0,0,0,0,0,0,0,0,0,0,0,0,0,0,0,
0,0,0,0,0,0,0,0,0,0,0,0,0,0,0,0,
0,0,0,0,0,0,0,0,0,0,0,0,0,0,0,0,
0,0,0,0,0,0,0,0,0,0,0,0,0,0,0,0,
0,0,0,0,0,0,0,0,0,0,0,0,0,0,0,0,
0,0,0,0,0,0,0,0,0,0,0,0,0,0,0,0
</chunk>
   <chunk x="-16" y="48" width="16" height="16">
0,0,0,0,0,0,0,0,0,0,0,0,0,0,0,0,
0,0,0,0,0,0,0,0,0,0,0,0,0,0,0,0,
0,224,225,0,0,0,0,0,0,0,0,0,0,0,0,0,
0,281,282,0,0,0,0,0,0,0,0,0,0,0,0,0,
0,0,0,0,0,0,0,0,0,0,0,0,0,0,0,0,
0,0,0,0,0,0,0,0,0,0,0,0,0,0,0,0,
0,0,0,0,0,0,0,0,0,0,0,0,0,0,0,0,
0,0,0,0,0,0,0,0,0,0,0,0,0,0,0,0,
0,0,0,0,0,0,0,0,0,0,0,0,0,0,0,0,
0,0,0,0,0,0,0,0,0,0,0,0,0,0,0,0,
0,0,0,0,0,0,0,0,0,0,0,0,0,0,0,0,
0,0,0,0,0,0,0,0,0,0,0,0,0,0,0,0,
0,0,0,0,0,0,0,0,0,0,0,0,0,0,0,0,
0,0,0,0,0,0,0,0,0,0,0,0,0,0,0,0,
0,0,0,0,0,0,0,0,0,0,0,0,0,0,0,0,
0,0,0,0,0,0,0,0,0,0,0,0,0,0,0,0
</chunk>
   <chunk x="0" y="48" width="16" height="16">
0,0,0,0,0,0,0,0,0,0,0,0,0,0,0,0,
0,0,0,0,0,0,0,0,0,0,0,0,0,0,0,0,
0,0,0,0,0,224,225,0,0,0,0,0,0,0,0,0,
0,0,0,0,0,281,282,0,0,0,0,0,0,0,0,0,
0,0,0,0,0,0,0,0,0,0,0,0,0,0,0,0,
0,0,0,0,0,0,0,0,0,0,0,0,0,0,0,0,
0,0,0,0,0,0,0,0,0,0,0,0,0,0,0,0,
0,0,0,0,0,0,0,0,0,0,0,0,0,0,0,0,
0,0,0,0,0,0,0,0,0,0,0,0,0,0,0,0,
0,0,0,0,0,0,0,0,0,0,0,0,0,0,0,0,
0,0,0,0,0,0,0,0,0,0,0,0,0,0,0,0,
0,0,0,0,0,0,0,0,0,0,0,0,0,0,0,0,
0,0,0,0,0,0,0,0,0,0,0,0,0,0,0,0,
0,0,0,0,0,0,0,0,0,0,0,0,0,0,0,0,
0,0,0,0,0,0,0,0,0,0,0,0,0,0,0,0,
0,0,0,0,0,0,0,0,0,0,0,0,0,0,0,0
</chunk>
   <chunk x="16" y="48" width="16" height="16">
0,0,0,0,0,0,0,0,0,0,0,0,0,0,0,0,
0,0,0,0,0,0,0,0,0,0,0,0,0,0,0,0,
0,0,0,0,0,0,0,0,224,225,0,0,0,0,0,0,
0,0,0,0,0,0,0,0,281,282,0,0,0,0,0,0,
0,0,0,0,0,0,0,0,0,0,0,0,0,0,0,0,
0,0,0,0,0,0,0,0,0,0,0,0,0,0,0,0,
0,0,0,0,0,0,0,0,0,0,0,0,0,0,0,0,
0,0,0,0,0,0,0,0,0,0,0,0,0,0,0,0,
0,0,0,0,0,0,0,0,0,0,0,0,0,0,0,0,
0,0,0,0,0,0,0,0,0,0,0,0,0,0,0,0,
0,0,0,0,0,0,0,0,0,0,0,0,0,0,0,0,
0,0,0,0,0,0,0,0,0,0,0,0,0,0,0,0,
0,0,0,0,0,0,0,0,0,0,0,0,0,0,0,0,
0,0,0,0,0,0,0,0,0,0,0,0,0,0,0,0,
0,0,0,0,0,0,0,0,0,0,0,0,0,0,0,0,
0,0,0,0,0,0,0,0,0,0,0,0,0,0,0,0
</chunk>
   <chunk x="32" y="48" width="16" height="16">
0,0,0,0,0,0,0,0,0,0,0,0,0,0,0,0,
0,0,0,0,0,0,0,0,0,0,0,0,0,0,0,0,
0,0,0,0,0,0,0,0,0,0,0,224,225,0,0,0,
0,0,0,0,0,0,0,0,0,0,0,281,282,0,0,0,
0,0,0,0,0,0,0,0,0,0,0,0,0,0,0,0,
0,0,0,0,0,0,0,0,0,0,0,0,0,0,0,0,
0,0,0,0,0,0,0,0,0,0,0,0,0,0,0,0,
0,0,0,0,0,0,0,0,0,0,0,0,0,0,0,0,
0,0,0,0,0,0,0,0,0,0,0,0,0,0,0,0,
0,0,0,0,0,0,0,0,0,0,0,0,0,0,0,0,
0,0,0,0,0,0,0,0,0,0,0,0,0,0,0,0,
0,0,0,0,0,0,0,0,0,0,0,0,0,0,0,0,
0,0,0,0,0,0,0,0,0,0,0,0,0,0,0,0,
0,0,0,0,0,0,0,0,0,0,0,0,0,0,0,0,
0,0,0,0,0,0,0,0,0,0,0,0,0,0,0,0,
0,0,0,0,0,0,0,0,0,0,0,0,0,0,0,0
</chunk>
   <chunk x="-16" y="64" width="16" height="16">
0,224,225,0,0,0,0,0,0,0,0,0,0,0,0,0,
0,281,282,0,0,0,0,0,0,0,0,0,0,0,0,0,
0,0,0,0,0,0,0,0,0,0,0,0,0,0,0,0,
0,0,0,0,0,0,0,0,0,0,0,0,0,0,0,0,
0,0,0,0,0,0,0,0,0,0,0,0,0,0,0,0,
0,0,0,0,0,0,0,0,0,0,0,0,0,0,0,0,
0,0,0,0,0,0,0,0,0,0,0,0,0,0,0,0,
0,0,0,0,0,0,0,0,0,0,0,0,0,0,0,0,
0,0,0,0,0,0,0,0,0,0,0,0,0,0,0,0,
0,0,0,0,0,0,0,0,0,0,0,0,0,0,0,0,
0,0,0,0,0,0,0,0,0,0,0,0,0,0,0,0,
0,0,0,0,0,0,0,0,0,0,0,0,0,0,0,0,
0,0,0,0,0,0,0,0,0,0,0,0,0,0,0,0,
0,0,0,0,0,0,0,0,0,0,0,0,0,0,0,0,
0,0,0,0,0,0,0,0,0,0,0,0,0,0,0,0,
0,224,225,0,0,0,0,0,0,0,0,0,0,0,0,0
</chunk>
   <chunk x="0" y="64" width="16" height="16">
0,0,0,0,0,224,225,0,0,0,0,0,0,0,0,0,
0,0,0,0,0,281,282,0,0,0,0,0,0,0,0,0,
0,0,0,0,0,0,0,0,0,0,0,0,0,0,0,0,
0,0,0,0,0,0,0,0,0,0,0,0,0,0,0,0,
0,0,0,0,0,0,0,0,0,0,0,0,0,0,0,0,
0,0,0,0,0,0,0,0,0,0,0,0,0,0,0,0,
0,0,0,0,0,0,0,0,0,0,0,0,0,0,0,0,
0,0,0,0,0,0,0,0,0,0,0,0,0,0,0,0,
0,0,0,0,0,0,0,0,0,0,0,0,0,0,0,0,
0,0,0,0,0,0,0,0,0,0,0,0,0,0,0,0,
0,0,0,0,0,0,0,0,0,0,0,0,0,0,0,0,
0,0,0,0,0,0,0,0,0,0,0,0,0,0,0,0,
0,0,0,0,0,0,0,0,0,0,0,0,0,0,0,0,
0,0,0,0,0,0,0,0,0,0,0,0,0,0,0,0,
0,0,0,0,0,0,0,0,0,0,0,0,0,0,0,0,
0,0,0,0,0,224,225,0,0,0,0,0,0,0,0,0
</chunk>
   <chunk x="16" y="64" width="16" height="16">
0,0,0,0,0,0,0,0,224,225,0,0,0,0,0,0,
0,0,0,0,0,0,0,0,281,282,0,0,0,0,0,0,
0,0,0,0,0,0,0,0,0,0,0,0,0,0,0,0,
0,0,0,0,0,0,0,0,0,0,0,0,0,0,0,0,
0,0,0,0,0,0,0,0,0,0,0,0,0,0,0,0,
0,0,0,0,0,0,0,0,0,0,0,0,0,0,0,0,
0,0,0,0,0,0,0,0,0,0,0,0,0,0,0,0,
0,0,0,0,0,0,0,0,0,0,0,0,0,0,0,0,
0,0,0,0,0,0,0,0,0,0,0,0,0,0,0,0,
0,0,0,0,0,0,0,0,0,0,0,0,0,0,0,0,
0,0,0,0,0,0,0,0,0,0,0,0,0,0,0,0,
0,0,0,0,0,0,0,0,0,0,0,0,0,0,0,0,
0,0,0,0,0,0,0,0,0,0,0,0,0,0,0,0,
0,0,0,0,0,0,0,0,0,0,0,0,0,0,0,0,
0,0,0,0,0,0,0,0,0,0,0,0,0,0,0,0,
0,0,0,0,0,0,0,0,224,225,0,0,0,0,0,0
</chunk>
   <chunk x="32" y="64" width="16" height="16">
0,0,0,0,0,0,0,0,0,0,0,224,225,0,0,0,
0,0,0,0,0,0,0,0,0,0,0,281,282,0,0,0,
0,0,0,0,0,0,0,0,0,0,0,0,0,0,0,0,
0,0,0,0,0,0,0,0,0,0,0,0,0,0,0,0,
0,0,0,0,0,0,0,0,0,0,0,0,0,0,0,0,
0,0,0,0,0,0,0,0,0,0,0,0,0,0,0,0,
0,0,0,0,0,0,0,0,0,0,0,0,0,0,0,0,
0,0,0,0,0,0,0,0,0,0,0,0,0,0,0,0,
0,0,0,0,0,0,0,0,0,0,0,0,0,0,0,0,
0,0,0,0,0,0,0,0,0,0,0,0,0,0,0,0,
0,0,0,0,0,0,0,0,0,0,0,0,0,0,0,0,
0,0,0,0,0,0,0,0,0,0,0,0,0,0,0,0,
0,0,0,0,0,0,0,0,0,0,0,0,0,0,0,0,
0,0,0,0,0,0,0,0,0,0,0,0,0,0,0,0,
0,0,0,0,0,0,0,0,0,0,0,0,0,0,0,0,
0,0,0,0,0,0,0,0,0,0,0,224,225,0,0,0
</chunk>
   <chunk x="-16" y="80" width="16" height="16">
0,281,282,0,0,0,0,0,0,0,0,0,0,0,0,0,
0,0,0,0,0,0,0,0,0,0,0,0,0,0,0,0,
0,0,0,0,0,0,0,0,0,0,0,0,0,0,0,0,
0,0,0,0,0,0,0,0,0,0,0,0,0,0,0,0,
0,0,0,0,0,0,0,0,0,0,0,0,0,0,0,0,
0,0,0,0,0,0,0,0,0,0,0,0,0,0,0,0,
0,0,0,0,0,0,0,0,0,0,0,0,0,0,0,0,
0,0,0,0,0,0,0,0,0,0,0,0,0,0,0,0,
0,0,0,0,0,0,0,0,0,0,0,0,0,0,0,0,
0,0,0,0,0,0,0,0,0,0,0,0,0,0,0,0,
0,0,0,0,0,0,0,0,0,0,0,0,0,0,0,0,
0,0,0,0,0,0,0,0,0,0,0,0,0,0,0,0,
0,0,0,0,0,0,0,0,0,0,0,0,0,0,0,0,
0,0,0,0,0,0,0,0,0,0,0,0,0,0,0,0,
0,0,0,0,0,0,0,0,0,0,0,0,0,0,0,0,
0,0,0,0,0,0,0,0,0,0,0,0,0,0,0,0
</chunk>
   <chunk x="0" y="80" width="16" height="16">
0,0,0,0,0,281,282,0,0,0,0,0,0,0,0,0,
0,0,0,0,0,0,0,0,0,0,0,0,0,0,0,0,
0,0,0,0,0,0,0,0,0,0,0,0,0,0,0,0,
0,0,0,0,0,0,0,0,0,0,0,0,0,0,0,0,
0,0,0,0,0,0,0,0,0,0,0,0,0,0,0,0,
0,0,0,0,0,0,0,0,0,0,0,0,0,0,0,0,
0,0,0,0,0,0,0,0,0,0,0,0,0,0,0,0,
0,0,0,0,0,0,0,0,0,0,0,0,0,0,0,0,
0,0,0,0,0,0,0,0,0,0,0,0,0,0,0,0,
0,0,0,0,0,0,0,0,0,0,0,0,0,0,0,0,
0,0,0,0,0,0,0,0,0,0,0,0,0,0,0,0,
0,0,0,0,0,0,0,0,0,0,0,0,0,0,0,0,
0,0,0,0,0,0,0,0,0,0,0,0,0,0,0,0,
0,0,0,0,0,0,0,0,0,0,0,0,0,0,0,0,
0,0,0,0,0,0,0,0,0,0,0,0,0,0,0,0,
0,0,0,0,0,0,0,0,0,0,0,0,0,0,0,0
</chunk>
   <chunk x="16" y="80" width="16" height="16">
0,0,0,0,0,0,0,0,281,282,0,0,0,0,0,0,
0,0,0,0,0,0,0,0,0,0,0,0,0,0,0,0,
0,0,0,0,0,0,0,0,0,0,0,0,0,0,0,0,
0,0,0,0,0,0,0,0,0,0,0,0,0,0,0,0,
0,0,0,0,0,0,0,0,0,0,0,0,0,0,0,0,
0,0,0,0,0,0,0,0,0,0,0,0,0,0,0,0,
0,0,0,0,0,0,0,0,0,0,0,0,0,0,0,0,
0,0,0,0,0,0,0,0,0,0,0,0,0,0,0,0,
0,0,0,0,0,0,0,0,0,0,0,0,0,0,0,0,
0,0,0,0,0,0,0,0,0,0,0,0,0,0,0,0,
0,0,0,0,0,0,0,0,0,0,0,0,0,0,0,0,
0,0,0,0,0,0,0,0,0,0,0,0,0,0,0,0,
0,0,0,0,0,0,0,0,0,0,0,0,0,0,0,0,
0,0,0,0,0,0,0,0,0,0,0,0,0,0,0,0,
0,0,0,0,0,0,0,0,0,0,0,0,0,0,0,0,
0,0,0,0,0,0,0,0,0,0,0,0,0,0,0,0
</chunk>
   <chunk x="32" y="80" width="16" height="16">
0,0,0,0,0,0,0,0,0,0,0,281,282,0,0,0,
0,0,0,0,0,0,0,0,0,0,0,0,0,0,0,0,
0,0,0,0,0,0,0,0,0,0,0,0,0,0,0,0,
0,0,0,0,0,0,0,0,0,0,0,0,0,0,0,0,
0,0,0,0,0,0,0,0,0,0,0,0,0,0,0,0,
0,0,0,0,0,0,0,0,0,0,0,0,0,0,0,0,
0,0,0,0,0,0,0,0,0,0,0,0,0,0,0,0,
0,0,0,0,0,0,0,0,0,0,0,0,0,0,0,0,
0,0,0,0,0,0,0,0,0,0,0,0,0,0,0,0,
0,0,0,0,0,0,0,0,0,0,0,0,0,0,0,0,
0,0,0,0,0,0,0,0,0,0,0,0,0,0,0,0,
0,0,0,0,0,0,0,0,0,0,0,0,0,0,0,0,
0,0,0,0,0,0,0,0,0,0,0,0,0,0,0,0,
0,0,0,0,0,0,0,0,0,0,0,0,0,0,0,0,
0,0,0,0,0,0,0,0,0,0,0,0,0,0,0,0,
0,0,0,0,0,0,0,0,0,0,0,0,0,0,0,0
</chunk>
  </data>
 </layer>
 <layer id="15" name="Compendium_element" width="16" height="24">
  <data encoding="csv">
   <chunk x="16" y="-16" width="16" height="16">
0,0,0,0,0,0,0,0,0,0,0,0,0,0,0,0,
0,0,0,0,0,0,0,0,0,0,0,0,0,0,0,0,
0,0,0,0,0,0,0,0,0,0,0,0,0,0,0,0,
0,0,0,0,0,0,0,0,0,0,0,0,0,0,0,0,
0,0,0,0,0,0,0,0,0,0,0,0,0,0,0,0,
0,0,0,0,0,0,0,0,43,44,45,46,47,48,49,50,
0,0,0,0,0,0,0,0,100,101,102,103,104,105,106,107,
0,0,0,0,0,0,0,0,157,158,159,160,161,162,163,164,
0,0,0,0,0,0,0,0,214,215,0,0,0,0,220,221,
0,0,0,0,0,0,0,0,271,272,0,0,0,0,0,0,
0,0,0,0,0,0,0,0,0,0,0,0,0,0,0,0,
0,0,0,0,0,0,0,0,0,0,0,0,0,0,0,0,
0,0,0,0,0,0,0,0,0,0,0,0,0,0,0,0,
0,0,0,0,0,0,0,0,0,0,0,0,0,0,0,0,
0,0,0,0,0,0,0,0,0,0,0,0,0,0,0,0,
0,0,0,0,0,0,0,0,0,0,0,0,0,0,0,0
</chunk>
   <chunk x="32" y="-16" width="16" height="16">
0,0,0,0,0,0,0,0,0,0,0,0,0,0,0,0,
0,0,0,0,0,0,0,0,0,0,0,0,0,0,0,0,
0,0,0,0,0,0,0,0,0,0,0,0,0,0,0,0,
0,0,0,0,0,0,0,0,0,0,0,0,0,0,0,0,
0,0,0,0,0,0,0,0,0,0,0,0,0,0,0,0,
51,52,53,54,55,56,57,0,0,0,0,0,0,0,0,0,
108,109,110,111,112,113,114,0,0,0,0,0,0,0,0,0,
165,166,167,168,169,170,171,0,0,0,0,0,0,0,0,0,
222,0,0,0,0,0,228,0,0,0,0,0,0,0,0,0,
0,0,0,0,0,0,285,0,0,0,0,0,0,0,0,0,
0,0,0,0,0,0,0,0,0,0,0,0,0,0,0,0,
0,0,0,0,0,0,0,0,0,0,0,0,0,0,0,0,
0,0,0,0,0,0,0,0,0,0,0,0,0,0,0,0,
0,0,0,0,0,0,0,0,0,0,0,0,0,0,0,0,
0,0,0,0,0,0,0,0,0,0,0,0,0,0,0,0,
0,0,0,0,0,0,0,0,0,0,0,0,0,0,0,0
</chunk>
  </data>
 </layer>
 <layer id="22" name="Monsters" width="16" height="24">
  <data encoding="csv"/>
 </layer>
 <layer id="16" name="Claws" width="16" height="24">
  <data encoding="csv"/>
 </layer>
 <layer id="20" name="Text" width="16" height="24">
  <data encoding="csv">
   <chunk x="16" y="-16" width="16" height="16">
0,0,0,0,0,0,0,0,0,0,0,0,0,0,0,0,
0,0,0,0,0,0,0,0,0,0,0,0,0,0,0,0,
0,0,0,0,0,0,0,0,0,0,0,0,0,0,0,0,
0,0,0,0,0,0,0,0,0,0,0,0,0,0,0,0,
0,0,0,0,0,0,0,0,0,0,0,0,0,0,0,0,
0,0,0,0,0,0,0,0,0,0,0,0,0,0,0,0,
0,0,0,0,0,0,0,0,0,507,508,509,510,511,512,0,
0,0,0,0,0,0,0,0,0,0,0,0,0,0,0,0,
0,0,0,0,0,0,0,0,0,0,0,0,0,0,0,0,
0,0,0,0,0,0,0,0,0,0,0,0,0,0,0,0,
0,0,0,0,0,0,0,0,0,0,0,0,0,0,0,0,
0,0,0,0,0,0,0,0,0,0,0,0,0,0,0,0,
0,0,0,0,0,0,0,0,0,0,0,0,0,0,0,0,
0,0,0,0,0,0,0,0,0,0,0,0,0,0,0,0,
0,0,0,0,0,0,0,0,0,0,0,0,0,0,0,0,
0,0,0,0,0,0,0,0,0,0,0,0,0,0,0,0
</chunk>
   <chunk x="32" y="-16" width="16" height="16">
0,0,0,0,0,0,0,0,0,0,0,0,0,0,0,0,
0,0,0,0,0,0,0,0,0,0,0,0,0,0,0,0,
0,0,0,0,0,0,0,0,0,0,0,0,0,0,0,0,
0,0,0,0,0,0,0,0,0,0,0,0,0,0,0,0,
0,0,0,0,0,0,0,0,0,0,0,0,0,0,0,0,
0,0,0,0,0,0,0,0,0,0,0,0,0,0,0,0,
0,0,0,393,394,395,0,0,0,0,0,0,0,0,0,0,
0,0,0,0,0,0,0,0,0,0,0,0,0,0,0,0,
0,0,0,0,0,0,0,0,0,0,0,0,0,0,0,0,
0,0,0,0,0,0,0,0,0,0,0,0,0,0,0,0,
0,0,0,0,0,0,0,0,0,0,0,0,0,0,0,0,
0,0,0,0,0,0,0,0,0,0,0,0,0,0,0,0,
0,0,0,0,0,0,0,0,0,0,0,0,0,0,0,0,
0,0,0,0,0,0,0,0,0,0,0,0,0,0,0,0,
0,0,0,0,0,0,0,0,0,0,0,0,0,0,0,0,
0,0,0,0,0,0,0,0,0,0,0,0,0,0,0,0
</chunk>
   <chunk x="-16" y="0" width="16" height="16">
0,0,0,0,0,0,0,0,0,0,0,0,0,0,0,0,
0,0,0,0,0,0,0,0,0,0,0,0,0,0,0,0,
0,0,0,0,0,0,0,0,0,0,0,0,0,0,0,0,
0,0,0,0,0,0,0,0,0,0,0,0,0,0,0,0,
0,0,0,564,565,566,567,0,0,0,1043,1044,1045,1046,1047,0,
0,0,1054,1055,1056,1057,1058,1059,0,0,1086,1087,1088,1089,1090,0,
0,0,1097,1098,1099,1100,1101,1102,0,0,0,0,0,0,0,0,
0,0,1140,1141,1142,1143,1144,1145,0,0,0,0,0,0,0,0,
0,0,1183,1184,1185,1186,1187,1188,0,0,0,0,0,0,0,0,
0,0,1226,1227,1228,1229,1230,1231,0,0,0,0,0,0,0,0,
0,0,1269,1270,1271,1272,1273,1274,0,0,0,0,0,0,0,0,
0,0,1312,1313,1314,1315,1316,1317,0,0,0,0,0,0,0,0,
0,0,336,337,338,339,0,0,0,0,0,0,0,0,0,0,
0,0,0,0,0,0,0,0,0,0,0,0,0,0,0,0,
0,0,0,0,0,0,0,0,0,0,0,0,0,0,0,0,
0,0,0,0,0,0,0,0,0,0,0,0,0,0,0,0
</chunk>
   <chunk x="0" y="0" width="16" height="16">
0,0,0,0,0,0,0,0,0,0,0,0,0,0,0,0,
0,0,0,0,0,0,0,0,0,0,0,0,0,0,0,0,
0,0,0,0,0,0,0,0,0,0,0,0,0,0,0,0,
0,0,0,0,0,0,0,0,0,0,0,0,0,0,0,0,
0,0,0,0,0,0,0,564,565,566,567,0,0,1128,1129,1130,
0,0,0,0,0,0,1054,1055,1056,1057,1058,1059,0,1171,1172,1173,
0,0,0,0,0,0,1097,1098,1099,1100,1101,1102,0,0,0,0,
0,0,0,0,0,0,1140,1141,1142,1143,1144,1145,0,0,0,0,
0,0,0,0,0,0,1183,1184,1185,1186,1187,1188,0,0,0,0,
0,0,0,0,0,0,1226,1227,1228,1229,1230,1231,0,0,0,0,
0,0,0,0,0,0,1269,1270,1271,1272,1273,1274,0,0,0,0,
0,0,0,0,0,0,1312,1313,1314,1315,1316,1317,0,0,0,0,
0,0,0,0,0,0,336,337,338,339,0,0,0,0,0,0,
0,0,0,0,0,0,0,0,0,0,0,0,0,0,0,0,
0,0,0,0,0,0,0,0,0,0,0,0,0,0,0,0,
0,0,0,0,0,0,0,0,0,0,0,0,0,0,0,0
</chunk>
   <chunk x="16" y="0" width="16" height="16">
0,0,0,0,0,0,0,0,0,0,0,0,0,0,0,0,
0,0,0,0,0,0,0,0,0,0,0,0,0,0,0,0,
0,0,0,0,0,0,0,0,0,0,0,0,0,0,0,0,
0,0,0,0,0,0,0,0,0,0,0,0,0,0,0,0,
1131,1132,1133,0,0,0,0,0,0,0,564,565,566,567,0,0,
1174,1175,1176,0,0,0,0,0,0,1054,1055,1056,1057,1058,1059,0,
0,0,0,0,0,0,0,0,0,1097,1098,1099,1100,1101,1102,0,
0,0,0,0,0,0,0,0,0,1140,1141,1142,1143,1144,1145,0,
0,0,0,0,0,0,0,0,0,1183,1184,1185,1186,1187,1188,0,
0,0,0,0,0,0,0,0,0,1226,1227,1228,1229,1230,1231,0,
0,0,0,0,0,0,0,0,0,1269,1270,1271,1272,1273,1274,0,
0,0,0,0,0,0,0,0,0,1312,1313,1314,1315,1316,1317,0,
0,0,0,0,0,0,0,0,0,336,337,338,339,0,0,0,
0,0,0,0,0,0,0,0,0,0,0,0,0,0,0,0,
0,0,0,0,0,0,0,0,0,0,0,0,0,0,0,0,
0,0,0,0,0,0,0,0,0,0,0,0,0,0,0,0
</chunk>
   <chunk x="32" y="0" width="16" height="16">
0,0,0,0,0,0,0,0,0,0,0,0,0,0,0,0,
0,0,0,0,0,0,0,0,0,0,0,0,0,0,0,0,
0,0,0,0,0,0,0,0,0,0,0,0,0,0,0,0,
0,0,0,0,0,0,0,0,0,0,0,0,0,0,0,0,
0,1215,1216,1217,1218,0,0,0,0,0,0,0,0,564,565,566,
0,1258,1259,1260,1261,0,0,0,0,0,0,0,1054,1055,1056,1057,
0,0,0,0,0,0,0,0,0,0,0,0,1097,1098,1099,1100,
0,0,0,0,0,0,0,0,0,0,0,0,1140,1141,1142,1143,
0,0,0,0,0,0,0,0,0,0,0,0,1183,1184,1185,1186,
0,0,0,0,0,0,0,0,0,0,0,0,1226,1227,1228,1229,
0,0,0,0,0,0,0,0,0,0,0,0,1269,1270,1271,1272,
0,0,0,0,0,0,0,0,0,0,0,0,1312,1313,1314,1315,
0,0,0,0,0,0,0,0,0,0,0,0,336,337,338,339,
0,0,0,0,0,0,0,0,0,0,0,0,0,0,0,0,
0,0,0,0,0,0,0,0,0,0,0,0,0,0,0,0,
0,0,0,0,0,0,0,0,0,0,0,0,0,0,0,0
</chunk>
   <chunk x="48" y="0" width="16" height="16">
0,0,0,0,0,0,0,0,0,0,0,0,0,0,0,0,
0,0,0,0,0,0,0,0,0,0,0,0,0,0,0,0,
0,0,0,0,0,0,0,0,0,0,0,0,0,0,0,0,
0,0,0,0,0,0,0,0,0,0,0,0,0,0,0,0,
567,0,0,0,1301,1302,1303,1304,0,0,0,0,0,0,0,0,
1058,1059,0,0,1344,1345,1346,1347,0,0,0,0,0,0,0,0,
1101,1102,0,0,0,0,0,0,0,0,0,0,0,0,0,0,
1144,1145,0,0,0,0,0,0,0,0,0,0,0,0,0,0,
1187,1188,0,0,0,0,0,0,0,0,0,0,0,0,0,0,
1230,1231,0,0,0,0,0,0,0,0,0,0,0,0,0,0,
1273,1274,0,0,0,0,0,0,0,0,0,0,0,0,0,0,
1316,1317,0,0,0,0,0,0,0,0,0,0,0,0,0,0,
0,0,0,0,0,0,0,0,0,0,0,0,0,0,0,0,
0,0,0,0,0,0,0,0,0,0,0,0,0,0,0,0,
0,0,0,0,0,0,0,0,0,0,0,0,0,0,0,0,
0,0,0,0,0,0,0,0,0,0,0,0,0,0,0,0
</chunk>
   <chunk x="-16" y="16" width="16" height="16">
0,0,0,0,0,0,0,0,0,0,0,0,0,0,0,0,
0,0,0,0,0,0,0,0,0,0,0,0,0,0,0,0,
0,0,0,564,565,566,567,0,0,0,1817,1818,1819,1820,0,0,
0,0,1054,1055,1056,1057,1058,1059,0,0,1860,1861,1862,1863,0,0,
0,0,1097,1098,1099,1100,1101,1102,0,0,0,0,0,0,0,0,
0,0,1140,1141,1142,1143,1144,1145,0,0,0,0,0,0,0,0,
0,0,1183,1184,1185,1186,1187,1188,0,0,0,0,0,0,0,0,
0,0,1226,1227,1228,1229,1230,1231,0,0,0,0,0,0,0,0,
0,0,1269,1270,1271,1272,1273,1274,0,0,0,0,0,0,0,0,
0,0,1312,1313,1314,1315,1316,1317,0,0,0,0,0,0,0,0,
0,0,336,337,338,339,0,0,0,0,0,0,0,0,0,0,
0,0,0,0,0,0,0,0,0,0,0,0,0,0,0,0,
0,0,0,0,0,0,0,0,0,0,0,0,0,0,0,0,
0,0,0,0,0,0,0,0,0,0,0,0,0,0,0,0,
0,0,0,0,0,0,0,0,0,0,0,0,0,0,0,0,
0,0,0,0,0,0,0,0,0,0,0,0,0,0,0,0
</chunk>
   <chunk x="0" y="16" width="16" height="16">
0,0,0,0,0,0,0,0,0,0,0,0,0,0,0,0,
0,0,0,0,0,0,0,0,0,0,0,0,0,0,0,0,
0,0,0,0,0,0,0,564,565,566,567,0,0,1902,1903,1904,
0,0,0,0,0,0,1054,1055,1056,1057,1058,1059,0,1945,1946,1947,
0,0,0,0,0,0,1097,1098,1099,1100,1101,1102,0,0,0,0,
0,0,0,0,0,0,1140,1141,1142,1143,1144,1145,0,0,0,0,
0,0,0,0,0,0,1183,1184,1185,1186,1187,1188,0,0,0,0,
0,0,0,0,0,0,1226,1227,1228,1229,1230,1231,0,0,0,0,
0,0,0,0,0,0,1269,1270,1271,1272,1273,1274,0,0,0,0,
0,0,0,0,0,0,1312,1313,1314,1315,1316,1317,0,0,0,0,
0,0,0,0,0,0,336,337,338,339,0,0,0,0,0,0,
0,0,0,0,0,0,0,0,0,0,0,0,0,0,0,0,
0,0,0,0,0,0,0,0,0,0,0,0,0,0,0,0,
0,0,0,0,0,0,0,0,0,0,0,0,0,0,0,0,
0,0,0,0,0,0,0,0,0,0,0,0,0,0,0,0,
0,0,0,0,0,0,0,0,0,0,0,0,0,0,0,0
</chunk>
   <chunk x="16" y="16" width="16" height="16">
0,0,0,0,0,0,0,0,0,0,0,0,0,0,0,0,
0,0,0,0,0,0,0,0,0,0,0,0,0,0,0,0,
1905,1906,1907,0,0,0,0,0,0,0,564,565,566,567,0,0,
1948,1949,1950,0,0,0,0,0,0,1054,1055,1056,1057,1058,1059,0,
0,0,0,0,0,0,0,0,0,1097,1098,1099,1100,1101,1102,0,
0,0,0,0,0,0,0,0,0,1140,1141,1142,1143,1144,1145,0,
0,0,0,0,0,0,0,0,0,1183,1184,1185,1186,1187,1188,0,
0,0,0,0,0,0,0,0,0,1226,1227,1228,1229,1230,1231,0,
0,0,0,0,0,0,0,0,0,1269,1270,1271,1272,1273,1274,0,
0,0,0,0,0,0,0,0,0,1312,1313,1314,1315,1316,1317,0,
0,0,0,0,0,0,0,0,0,336,337,338,339,0,0,0,
0,0,0,0,0,0,0,0,0,0,0,0,0,0,0,0,
0,0,0,0,0,0,0,0,0,0,0,0,0,0,0,0,
0,0,0,0,0,0,0,0,0,0,0,0,0,0,0,0,
0,0,0,0,0,0,0,0,0,0,0,0,0,0,0,0,
0,0,0,0,0,0,0,0,0,0,0,0,0,0,0,0
</chunk>
   <chunk x="32" y="16" width="16" height="16">
0,0,0,0,0,0,0,0,0,0,0,0,0,0,0,0,
0,0,0,0,0,0,0,0,0,0,0,0,0,0,0,0,
0,1473,1474,1475,1476,0,0,0,0,0,0,0,0,564,565,566,
0,1516,1517,1518,1519,0,0,0,0,0,0,0,1355,1356,1357,1358,
0,0,0,0,0,0,0,0,0,0,0,0,1398,1399,1400,1401,
0,0,0,0,0,0,0,0,0,0,0,0,1441,1442,1443,1444,
0,0,0,0,0,0,0,0,0,0,0,0,1484,1485,1486,1487,
0,0,0,0,0,0,0,0,0,0,0,0,1527,1528,1529,1530,
0,0,0,0,0,0,0,0,0,0,0,0,1570,1571,1572,1573,
0,0,0,0,0,0,0,0,0,0,0,0,1613,1614,1615,1616,
0,0,0,0,0,0,0,0,0,0,0,0,336,337,338,339,
0,0,0,0,0,0,0,0,0,0,0,0,0,0,0,0,
0,0,0,0,0,0,0,0,0,0,0,0,0,0,0,0,
0,0,0,0,0,0,0,0,0,0,0,0,0,0,0,0,
0,0,0,0,0,0,0,0,0,0,0,0,0,0,0,0,
0,0,0,0,0,0,0,0,0,0,0,0,0,0,0,0
</chunk>
   <chunk x="48" y="16" width="16" height="16">
0,0,0,0,0,0,0,0,0,0,0,0,0,0,0,0,
0,0,0,0,0,0,0,0,0,0,0,0,0,0,0,0,
567,0,0,0,1989,1990,1991,1992,0,0,0,0,0,0,0,0,
1359,1360,0,0,2032,2033,2034,2035,0,0,0,0,0,0,0,0,
1402,1403,0,0,0,0,0,0,0,0,0,0,0,0,0,0,
1445,1446,0,0,0,0,0,0,0,0,0,0,0,0,0,0,
1488,1489,0,0,0,0,0,0,0,0,0,0,0,0,0,0,
1531,1532,0,0,0,0,0,0,0,0,0,0,0,0,0,0,
1574,1575,0,0,0,0,0,0,0,0,0,0,0,0,0,0,
1617,1618,0,0,0,0,0,0,0,0,0,0,0,0,0,0,
0,0,0,0,0,0,0,0,0,0,0,0,0,0,0,0,
0,0,0,0,0,0,0,0,0,0,0,0,0,0,0,0,
0,0,0,0,0,0,0,0,0,0,0,0,0,0,0,0,
0,0,0,0,0,0,0,0,0,0,0,0,0,0,0,0,
0,0,0,0,0,0,0,0,0,0,0,0,0,0,0,0,
0,0,0,0,0,0,0,0,0,0,0,0,0,0,0,0
</chunk>
   <chunk x="-16" y="32" width="16" height="16">
0,0,0,0,0,0,0,0,0,0,0,0,0,0,0,0,
0,0,0,564,565,566,567,0,0,0,1049,1050,1051,1052,0,0,
0,0,1355,1356,1357,1358,1359,1360,0,0,1092,1093,1094,1095,0,0,
0,0,1398,1399,1400,1401,1402,1403,0,0,0,0,0,0,0,0,
0,0,1441,1442,1443,1444,1445,1446,0,0,0,0,0,0,0,0,
0,0,1484,1485,1486,1487,1488,1489,0,0,0,0,0,0,0,0,
0,0,1527,1528,1529,1530,1531,1532,0,0,0,0,0,0,0,0,
0,0,1570,1571,1572,1573,1574,1575,0,0,0,0,0,0,0,0,
0,0,1613,1614,1615,1616,1617,1618,0,0,0,0,0,0,0,0,
0,0,336,337,338,339,0,0,0,0,0,0,0,0,0,0,
0,0,0,0,0,0,0,0,0,0,0,0,0,0,0,0,
0,0,0,0,0,0,0,0,0,0,0,0,0,0,0,0,
0,0,0,0,0,0,0,0,0,0,0,0,0,0,0,0,
0,0,0,0,0,0,0,0,0,0,0,0,0,0,0,0,
0,0,0,0,0,0,0,0,0,0,0,0,0,0,0,0,
0,0,0,564,565,566,567,0,0,1730,1731,1732,1733,1734,1735,0
</chunk>
   <chunk x="0" y="32" width="16" height="16">
0,0,0,0,0,0,0,0,0,0,0,0,0,0,0,0,
0,0,0,0,0,0,0,564,565,566,567,0,0,0,0,1646,
0,0,0,0,0,0,1355,1356,1357,1358,1359,1360,0,0,0,1689,
0,0,0,0,0,0,1398,1399,1400,1401,1402,1403,0,0,0,0,
0,0,0,0,0,0,1441,1442,1443,1444,1445,1446,0,0,0,0,
0,0,0,0,0,0,1484,1485,1486,1487,1488,1489,0,0,0,0,
0,0,0,0,0,0,1527,1528,1529,1530,1531,1532,0,0,0,0,
0,0,0,0,0,0,1570,1571,1572,1573,1574,1575,0,0,0,0,
0,0,0,0,0,0,1613,1614,1615,1616,1617,1618,0,0,0,0,
0,0,0,0,0,0,336,337,338,339,0,0,0,0,0,0,
0,0,0,0,0,0,0,0,0,0,0,0,0,0,0,0,
0,0,0,0,0,0,0,0,0,0,0,0,0,0,0,0,
0,0,0,0,0,0,0,0,0,0,0,0,0,0,0,0,
0,0,0,0,0,0,0,0,0,0,0,0,0,0,0,0,
0,0,0,0,0,0,0,0,0,0,0,0,0,0,0,0,
0,0,0,0,0,0,0,564,565,566,567,0,0,0,1387,1388
</chunk>
   <chunk x="16" y="32" width="16" height="16">
0,0,0,0,0,0,0,0,0,0,0,0,0,0,0,0,
1647,1648,0,0,0,0,0,0,0,0,564,565,566,567,0,0,
1690,1691,0,0,0,0,0,0,0,1355,1356,1357,1358,1359,1360,0,
0,0,0,0,0,0,0,0,0,1398,1399,1400,1401,1402,1403,0,
0,0,0,0,0,0,0,0,0,1441,1442,1443,1444,1445,1446,0,
0,0,0,0,0,0,0,0,0,1484,1485,1486,1487,1488,1489,0,
0,0,0,0,0,0,0,0,0,1527,1528,1529,1530,1531,1532,0,
0,0,0,0,0,0,0,0,0,1570,1571,1572,1573,1574,1575,0,
0,0,0,0,0,0,0,0,0,1613,1614,1615,1616,1617,1618,0,
0,0,0,0,0,0,0,0,0,336,337,338,339,0,0,0,
0,0,0,0,0,0,0,0,0,0,0,0,0,0,0,0,
0,0,0,0,0,0,0,0,0,0,0,0,0,0,0,0,
0,0,0,0,0,0,0,0,0,0,0,0,0,0,0,0,
0,0,0,0,0,0,0,0,0,0,0,0,0,0,0,0,
0,0,0,0,0,0,0,0,0,0,0,0,0,0,0,0,
1389,1390,1391,0,0,0,0,0,0,0,564,565,566,567,0,0
</chunk>
   <chunk x="32" y="32" width="16" height="16">
0,0,0,0,0,0,0,0,0,0,0,0,0,0,0,0,
1134,1135,1136,1137,1138,1139,0,0,0,0,0,0,0,564,565,566,
1177,1178,1179,1180,1181,1182,0,0,0,0,0,0,1355,1356,1357,1358,
0,0,0,0,0,0,0,0,0,0,0,0,1398,1399,1400,1401,
0,0,0,0,0,0,0,0,0,0,0,0,1441,1442,1443,1444,
0,0,0,0,0,0,0,0,0,0,0,0,1484,1485,1486,1487,
0,0,0,0,0,0,0,0,0,0,0,0,1527,1528,1529,1530,
0,0,0,0,0,0,0,0,0,0,0,0,1570,1571,1572,1573,
0,0,0,0,0,0,0,0,0,0,0,0,1613,1614,1615,1616,
0,0,0,0,0,0,0,0,0,0,0,0,336,337,338,339,
0,0,0,0,0,0,0,0,0,0,0,0,0,0,0,0,
0,0,0,0,0,0,0,0,0,0,0,0,0,0,0,0,
0,0,0,0,0,0,0,0,0,0,0,0,0,0,0,0,
0,0,0,0,0,0,0,0,0,0,0,0,0,0,0,0,
0,0,0,0,0,0,0,0,0,0,0,0,0,0,0,0,
0,1307,1308,1309,1310,1311,0,0,0,0,0,0,0,564,565,566
</chunk>
   <chunk x="48" y="32" width="16" height="16">
0,0,0,0,0,0,0,0,0,0,0,0,0,0,0,0,
567,0,0,0,1221,1222,1223,1224,0,0,0,0,0,0,0,0,
1359,1360,0,0,1264,1265,1266,1267,0,0,0,0,0,0,0,0,
1402,1403,0,0,0,0,0,0,0,0,0,0,0,0,0,0,
1445,1446,0,0,0,0,0,0,0,0,0,0,0,0,0,0,
1488,1489,0,0,0,0,0,0,0,0,0,0,0,0,0,0,
1531,1532,0,0,0,0,0,0,0,0,0,0,0,0,0,0,
1574,1575,0,0,0,0,0,0,0,0,0,0,0,0,0,0,
1617,1618,0,0,0,0,0,0,0,0,0,0,0,0,0,0,
0,0,0,0,0,0,0,0,0,0,0,0,0,0,0,0,
0,0,0,0,0,0,0,0,0,0,0,0,0,0,0,0,
0,0,0,0,0,0,0,0,0,0,0,0,0,0,0,0,
0,0,0,0,0,0,0,0,0,0,0,0,0,0,0,0,
0,0,0,0,0,0,0,0,0,0,0,0,0,0,0,0,
0,0,0,0,0,0,0,0,0,0,0,0,0,0,0,0,
567,0,0,1392,1393,1394,1395,1396,1397,0,0,0,0,0,0,0
</chunk>
   <chunk x="-16" y="48" width="16" height="16">
0,0,1355,1356,1357,1358,1359,1360,0,1773,1774,1775,1776,1777,1778,0,
0,0,1398,1399,1400,1401,1402,1403,0,0,0,0,0,0,0,0,
0,0,1441,1442,1443,1444,1445,1446,0,0,0,0,0,0,0,0,
0,0,1484,1485,1486,1487,1488,1489,0,0,0,0,0,0,0,0,
0,0,1527,1528,1529,1530,1531,1532,0,0,0,0,0,0,0,0,
0,0,1570,1571,1572,1573,1574,1575,0,0,0,0,0,0,0,0,
0,0,1613,1614,1615,1616,1617,1618,0,0,0,0,0,0,0,0,
0,0,336,337,338,339,0,0,0,0,0,0,0,0,0,0,
0,0,0,0,0,0,0,0,0,0,0,0,0,0,0,0,
0,0,0,0,0,0,0,0,0,0,0,0,0,0,0,0,
0,0,0,0,0,0,0,0,0,0,0,0,0,0,0,0,
0,0,0,0,0,0,0,0,0,0,0,0,0,0,0,0,
0,0,0,0,0,0,0,0,0,0,0,0,0,0,0,0,
0,0,0,564,565,566,567,0,0,1478,1479,1480,1481,1482,1483,0,
0,0,1656,1657,1658,1659,1660,0,0,1521,1522,1523,1524,1525,1526,0,
0,0,1699,1700,1701,1702,1703,0,0,0,0,0,0,0,0,0
</chunk>
   <chunk x="0" y="48" width="16" height="16">
0,0,0,0,0,0,1355,1356,1357,1358,1359,1360,0,0,1430,1431,
0,0,0,0,0,0,1398,1399,1400,1401,1402,1403,0,0,0,0,
0,0,0,0,0,0,1441,1442,1443,1444,1445,1446,0,0,0,0,
0,0,0,0,0,0,1484,1485,1486,1487,1488,1489,0,0,0,0,
0,0,0,0,0,0,1527,1528,1529,1530,1531,1532,0,0,0,0,
0,0,0,0,0,0,1570,1571,1572,1573,1574,1575,0,0,0,0,
0,0,0,0,0,0,1613,1614,1615,1616,1617,1618,0,0,0,0,
0,0,0,0,0,0,336,337,338,339,0,0,0,0,0,0,
0,0,0,0,0,0,0,0,0,0,0,0,0,0,0,0,
0,0,0,0,0,0,0,0,0,0,0,0,0,0,0,0,
0,0,0,0,0,0,0,0,0,0,0,0,0,0,0,0,
0,0,0,0,0,0,0,0,0,0,0,0,0,0,0,0,
0,0,0,0,0,0,0,0,0,0,0,0,0,0,0,0,
0,0,0,0,0,0,0,564,565,566,567,0,0,1564,1565,1566,
0,0,0,0,0,0,1656,1657,1658,1659,1660,0,0,1607,1608,1609,
0,0,0,0,0,0,1699,1700,1701,1702,1703,0,0,0,0,0
</chunk>
   <chunk x="16" y="48" width="16" height="16">
1432,1433,1434,0,0,0,0,0,0,1656,1657,1658,1659,1660,0,0,
0,0,0,0,0,0,0,0,0,1699,1700,1701,1702,1703,0,0,
0,0,0,0,0,0,0,0,0,1742,1743,1744,1745,1746,0,0,
0,0,0,0,0,0,0,0,0,1785,1786,1787,1788,1789,0,0,
0,0,0,0,0,0,0,0,0,1828,1829,1830,1831,1832,0,0,
0,0,0,0,0,0,0,0,0,1871,1872,1873,1874,1875,0,0,
0,0,0,0,0,0,0,0,0,1914,1915,1916,1917,1918,0,0,
0,0,0,0,0,0,0,0,0,336,337,338,339,0,0,0,
0,0,0,0,0,0,0,0,0,0,0,0,0,0,0,0,
0,0,0,0,0,0,0,0,0,0,0,0,0,0,0,0,
0,0,0,0,0,0,0,0,0,0,0,0,0,0,0,0,
0,0,0,0,0,0,0,0,0,0,0,0,0,0,0,0,
0,0,0,0,0,0,0,0,0,0,0,0,0,0,0,0,
1567,1568,1569,0,0,0,0,0,0,0,564,565,566,567,0,0,
1610,1611,1612,0,0,0,0,0,0,1656,1657,1658,1659,1660,0,0,
0,0,0,0,0,0,0,0,0,1699,1700,1701,1702,1703,0,0
</chunk>
   <chunk x="32" y="48" width="16" height="16">
0,1350,1351,1352,1353,1354,0,0,0,0,0,0,1656,1657,1658,1659,
0,0,0,0,0,0,0,0,0,0,0,0,1699,1700,1701,1702,
0,0,0,0,0,0,0,0,0,0,0,0,1742,1743,1744,1745,
0,0,0,0,0,0,0,0,0,0,0,0,1785,1786,1787,1788,
0,0,0,0,0,0,0,0,0,0,0,0,1828,1829,1830,1831,
0,0,0,0,0,0,0,0,0,0,0,0,1871,1872,1873,1874,
0,0,0,0,0,0,0,0,0,0,0,0,1914,1915,1916,1917,
0,0,0,0,0,0,0,0,0,0,0,0,336,337,338,339,
0,0,0,0,0,0,0,0,0,0,0,0,0,0,0,0,
0,0,0,0,0,0,0,0,0,0,0,0,0,0,0,0,
0,0,0,0,0,0,0,0,0,0,0,0,0,0,0,0,
0,0,0,0,0,0,0,0,0,0,0,0,0,0,0,0,
0,0,0,0,0,0,0,0,0,0,0,0,0,0,0,0,
1650,1651,1652,1653,1654,1655,0,0,0,0,0,0,0,564,565,566,
1693,1694,1695,1696,1697,1698,0,0,0,0,0,0,1656,1657,1658,1659,
0,0,0,0,0,0,0,0,0,0,0,0,1699,1700,1701,1702
</chunk>
   <chunk x="48" y="48" width="16" height="16">
1660,0,0,1435,1436,1437,1438,1439,1440,0,0,0,0,0,0,0,
1703,0,0,0,0,0,0,0,0,0,0,0,0,0,0,0,
1746,0,0,0,0,0,0,0,0,0,0,0,0,0,0,0,
1789,0,0,0,0,0,0,0,0,0,0,0,0,0,0,0,
1832,0,0,0,0,0,0,0,0,0,0,0,0,0,0,0,
1875,0,0,0,0,0,0,0,0,0,0,0,0,0,0,0,
1918,0,0,0,0,0,0,0,0,0,0,0,0,0,0,0,
0,0,0,0,0,0,0,0,0,0,0,0,0,0,0,0,
0,0,0,0,0,0,0,0,0,0,0,0,0,0,0,0,
0,0,0,0,0,0,0,0,0,0,0,0,0,0,0,0,
0,0,0,0,0,0,0,0,0,0,0,0,0,0,0,0,
0,0,0,0,0,0,0,0,0,0,0,0,0,0,0,0,
0,0,0,0,0,0,0,0,0,0,0,0,0,0,0,0,
567,0,0,0,1737,1738,1739,1740,1741,0,0,0,0,0,0,0,
1660,0,0,0,1780,1781,1782,1783,1784,0,0,0,0,0,0,0,
1703,0,0,0,0,0,0,0,0,0,0,0,0,0,0,0
</chunk>
   <chunk x="-16" y="64" width="16" height="16">
0,0,1742,1743,1744,1745,1746,0,0,0,0,0,0,0,0,0,
0,0,1785,1786,1787,1788,1789,0,0,0,0,0,0,0,0,0,
0,0,1828,1829,1830,1831,1832,0,0,0,0,0,0,0,0,0,
0,0,1871,1872,1873,1874,1875,0,0,0,0,0,0,0,0,0,
0,0,1914,1915,1916,1917,1918,0,0,0,0,0,0,0,0,0,
0,0,336,337,338,339,0,0,0,0,0,0,0,0,0,0,
0,0,0,0,0,0,0,0,0,0,0,0,0,0,0,0,
0,0,0,0,0,0,0,0,0,0,0,0,0,0,0,0,
0,0,0,0,0,0,0,0,0,0,0,0,0,0,0,0,
0,0,0,0,0,0,0,0,0,0,0,0,0,0,0,0,
0,0,0,0,0,0,0,0,0,0,0,0,0,0,0,0,
0,0,0,0,0,0,0,0,0,0,0,0,0,0,0,0,
0,0,0,564,565,566,567,0,0,1822,1823,1824,1825,1826,1827,0,
0,0,1656,1657,1658,1659,1660,0,0,1865,1866,1867,1868,1869,1870,0,
0,0,1699,1700,1701,1702,1703,0,0,0,0,0,0,0,0,0,
0,0,1742,1743,1744,1745,1746,0,0,0,0,0,0,0,0,0
</chunk>
   <chunk x="0" y="64" width="16" height="16">
0,0,0,0,0,0,1742,1743,1744,1745,1746,0,0,0,0,0,
0,0,0,0,0,0,1785,1786,1787,1788,1789,0,0,0,0,0,
0,0,0,0,0,0,1828,1829,1830,1831,1832,0,0,0,0,0,
0,0,0,0,0,0,1871,1872,1873,1874,1875,0,0,0,0,0,
0,0,0,0,0,0,1914,1915,1916,1917,1918,0,0,0,0,0,
0,0,0,0,0,0,336,337,338,339,0,0,0,0,0,0,
0,0,0,0,0,0,0,0,0,0,0,0,0,0,0,0,
0,0,0,0,0,0,0,0,0,0,0,0,0,0,0,0,
0,0,0,0,0,0,0,0,0,0,0,0,0,0,0,0,
0,0,0,0,0,0,0,0,0,0,0,0,0,0,0,0,
0,0,0,0,0,0,0,0,0,0,0,0,0,0,0,0,
0,0,0,0,0,0,0,0,0,0,0,0,0,0,0,0,
0,0,0,0,0,0,0,564,565,566,567,0,0,0,1909,1910,
0,0,0,0,0,0,1957,1958,1959,1960,1961,1962,0,0,1952,1953,
0,0,0,0,0,0,2000,2001,2002,2003,2004,2005,0,0,0,0,
0,0,0,0,0,0,2043,2044,2045,2046,2047,2048,0,0,0,0
</chunk>
   <chunk x="16" y="64" width="16" height="16">
0,0,0,0,0,0,0,0,0,1742,1743,1744,1745,1746,0,0,
0,0,0,0,0,0,0,0,0,1785,1786,1787,1788,1789,0,0,
0,0,0,0,0,0,0,0,0,1828,1829,1830,1831,1832,0,0,
0,0,0,0,0,0,0,0,0,1871,1872,1873,1874,1875,0,0,
0,0,0,0,0,0,0,0,0,1914,1915,1916,1917,1918,0,0,
0,0,0,0,0,0,0,0,0,336,337,338,339,0,0,0,
0,0,0,0,0,0,0,0,0,0,0,0,0,0,0,0,
0,0,0,0,0,0,0,0,0,0,0,0,0,0,0,0,
0,0,0,0,0,0,0,0,0,0,0,0,0,0,0,0,
0,0,0,0,0,0,0,0,0,0,0,0,0,0,0,0,
0,0,0,0,0,0,0,0,0,0,0,0,0,0,0,0,
0,0,0,0,0,0,0,0,0,0,0,0,0,0,0,0,
1911,1912,1913,0,0,0,0,0,0,0,564,565,566,567,0,0,
1954,1955,1956,0,0,0,0,0,0,1957,1958,1959,1960,1961,1962,0,
0,0,0,0,0,0,0,0,0,2000,2001,2002,2003,2004,2005,0,
0,0,0,0,0,0,0,0,0,2043,2044,2045,2046,2047,2048,0
</chunk>
   <chunk x="32" y="64" width="16" height="16">
0,0,0,0,0,0,0,0,0,0,0,0,1742,1743,1744,1745,
0,0,0,0,0,0,0,0,0,0,0,0,1785,1786,1787,1788,
0,0,0,0,0,0,0,0,0,0,0,0,1828,1829,1830,1831,
0,0,0,0,0,0,0,0,0,0,0,0,1871,1872,1873,1874,
0,0,0,0,0,0,0,0,0,0,0,0,1914,1915,1916,1917,
0,0,0,0,0,0,0,0,0,0,0,0,336,337,338,339,
0,0,0,0,0,0,0,0,0,0,0,0,0,0,0,0,
0,0,0,0,0,0,0,0,0,0,0,0,0,0,0,0,
0,0,0,0,0,0,0,0,0,0,0,0,0,0,0,0,
0,0,0,0,0,0,0,0,0,0,0,0,0,0,0,0,
0,0,0,0,0,0,0,0,0,0,0,0,0,0,0,0,
0,0,0,0,0,0,0,0,0,0,0,0,0,0,0,0,
1558,1559,1560,1561,1562,1563,0,0,0,0,0,0,0,564,565,566,
1601,1602,1603,1604,1605,1606,0,0,0,0,0,0,1957,1958,1959,1960,
0,0,0,0,0,0,0,0,0,0,0,0,2000,2001,2002,2003,
0,0,0,0,0,0,0,0,0,0,0,0,2043,2044,2045,2046
</chunk>
   <chunk x="48" y="64" width="16" height="16">
1746,0,0,0,0,0,0,0,0,0,0,0,0,0,0,0,
1789,0,0,0,0,0,0,0,0,0,0,0,0,0,0,0,
1832,0,0,0,0,0,0,0,0,0,0,0,0,0,0,0,
1875,0,0,0,0,0,0,0,0,0,0,0,0,0,0,0,
1918,0,0,0,0,0,0,0,0,0,0,0,0,0,0,0,
0,0,0,0,0,0,0,0,0,0,0,0,0,0,0,0,
0,0,0,0,0,0,0,0,0,0,0,0,0,0,0,0,
0,0,0,0,0,0,0,0,0,0,0,0,0,0,0,0,
0,0,0,0,0,0,0,0,0,0,0,0,0,0,0,0,
0,0,0,0,0,0,0,0,0,0,0,0,0,0,0,0,
0,0,0,0,0,0,0,0,0,0,0,0,0,0,0,0,
0,0,0,0,0,0,0,0,0,0,0,0,0,0,0,0,
567,0,0,1994,1995,1996,1997,1998,1999,0,0,0,0,0,0,0,
1961,1962,0,2037,2038,2039,2040,2041,2042,0,0,0,0,0,0,0,
2004,2005,0,0,0,0,0,0,0,0,0,0,0,0,0,0,
2047,2048,0,0,0,0,0,0,0,0,0,0,0,0,0,0
</chunk>
   <chunk x="-16" y="80" width="16" height="16">
0,0,1785,1786,1787,1788,1789,0,0,0,0,0,0,0,0,0,
0,0,1828,1829,1830,1831,1832,0,0,0,0,0,0,0,0,0,
0,0,1871,1872,1873,1874,1875,0,0,0,0,0,0,0,0,0,
0,0,1914,1915,1916,1917,1918,0,0,0,0,0,0,0,0,0,
0,0,336,337,338,339,0,0,0,0,0,0,0,0,0,0,
0,0,0,0,0,0,0,0,0,0,0,0,0,0,0,0,
0,0,0,0,0,0,0,0,0,0,0,0,0,0,0,0,
0,0,0,0,0,0,0,0,0,0,0,0,0,0,0,0,
0,0,0,0,0,0,0,0,0,0,0,0,0,0,0,0,
0,0,0,0,0,0,0,0,0,0,0,0,0,0,0,0,
0,0,0,0,0,0,0,0,0,0,0,0,0,0,0,0,
0,0,0,0,0,0,0,0,0,0,0,0,0,0,0,0,
0,0,0,0,0,0,0,0,0,0,0,0,0,0,0,0,
0,0,0,0,0,0,0,0,0,0,0,0,0,0,0,0,
0,0,0,0,0,0,0,0,0,0,0,0,0,0,0,0,
0,0,0,0,0,0,0,0,0,0,0,0,0,0,0,0
</chunk>
   <chunk x="0" y="80" width="16" height="16">
0,0,0,0,0,0,0,0,0,0,0,0,0,0,0,0,
0,0,0,0,0,0,0,0,0,0,0,0,0,0,0,0,
0,0,0,0,0,0,0,0,0,0,0,0,0,0,0,0,
0,0,0,0,0,0,0,0,0,0,0,0,0,0,0,0,
0,0,0,0,0,0,336,337,338,339,0,0,0,0,0,0,
0,0,0,0,0,0,0,0,0,0,0,0,0,0,0,0,
0,0,0,0,0,0,0,0,0,0,0,0,0,0,0,0,
0,0,0,0,0,0,0,0,0,0,0,0,0,0,0,0,
0,0,0,0,0,0,0,0,0,0,0,0,0,0,0,0,
0,0,0,0,0,0,0,0,0,0,0,0,0,0,0,0,
0,0,0,0,0,0,0,0,0,0,0,0,0,0,0,0,
0,0,0,0,0,0,0,0,0,0,0,0,0,0,0,0,
0,0,0,0,0,0,0,0,0,0,0,0,0,0,0,0,
0,0,0,0,0,0,0,0,0,0,0,0,0,0,0,0,
0,0,0,0,0,0,0,0,0,0,0,0,0,0,0,0,
0,0,0,0,0,0,0,0,0,0,0,0,0,0,0,0
</chunk>
   <chunk x="16" y="80" width="16" height="16">
0,0,0,0,0,0,0,0,0,0,0,0,0,0,0,0,
0,0,0,0,0,0,0,0,0,0,0,0,0,0,0,0,
0,0,0,0,0,0,0,0,0,0,0,0,0,0,0,0,
0,0,0,0,0,0,0,0,0,0,0,0,0,0,0,0,
0,0,0,0,0,0,0,0,0,336,337,338,339,0,0,0,
0,0,0,0,0,0,0,0,0,0,0,0,0,0,0,0,
0,0,0,0,0,0,0,0,0,0,0,0,0,0,0,0,
0,0,0,0,0,0,0,0,0,0,0,0,0,0,0,0,
0,0,0,0,0,0,0,0,0,0,0,0,0,0,0,0,
0,0,0,0,0,0,0,0,0,0,0,0,0,0,0,0,
0,0,0,0,0,0,0,0,0,0,0,0,0,0,0,0,
0,0,0,0,0,0,0,0,0,0,0,0,0,0,0,0,
0,0,0,0,0,0,0,0,0,0,0,0,0,0,0,0,
0,0,0,0,0,0,0,0,0,0,0,0,0,0,0,0,
0,0,0,0,0,0,0,0,0,0,0,0,0,0,0,0,
0,0,0,0,0,0,0,0,0,0,0,0,0,0,0,0
</chunk>
   <chunk x="32" y="80" width="16" height="16">
0,0,0,0,0,0,0,0,0,0,0,0,0,0,0,0,
0,0,0,0,0,0,0,0,0,0,0,0,0,0,0,0,
0,0,0,0,0,0,0,0,0,0,0,0,0,0,0,0,
0,0,0,0,0,0,0,0,0,0,0,0,0,0,0,0,
0,0,0,0,0,0,0,0,0,0,0,0,336,337,338,339,
0,0,0,0,0,0,0,0,0,0,0,0,0,0,0,0,
0,0,0,0,0,0,0,0,0,0,0,0,0,0,0,0,
0,0,0,0,0,0,0,0,0,0,0,0,0,0,0,0,
0,0,0,0,0,0,0,0,0,0,0,0,0,0,0,0,
0,0,0,0,0,0,0,0,0,0,0,0,0,0,0,0,
0,0,0,0,0,0,0,0,0,0,0,0,0,0,0,0,
0,0,0,0,0,0,0,0,0,0,0,0,0,0,0,0,
0,0,0,0,0,0,0,0,0,0,0,0,0,0,0,0,
0,0,0,0,0,0,0,0,0,0,0,0,0,0,0,0,
0,0,0,0,0,0,0,0,0,0,0,0,0,0,0,0,
0,0,0,0,0,0,0,0,0,0,0,0,0,0,0,0
</chunk>
  </data>
 </layer>
 <layer id="24" name="Text_selected" width="16" height="24">
  <data encoding="csv">
   <chunk x="-16" y="0" width="16" height="16">
0,0,0,0,0,0,0,0,0,0,0,0,0,0,0,0,
0,0,0,0,0,0,0,0,0,0,0,0,0,0,0,0,
0,0,0,0,0,0,0,0,0,0,0,0,0,0,0,0,
0,0,0,0,0,0,0,0,0,0,0,0,0,0,0,0,
0,0,0,0,0,0,0,0,0,0,0,0,0,0,0,0,
0,0,0,1146,1147,1148,1149,0,0,0,0,0,0,0,0,0,
0,0,0,1189,1190,1191,1192,0,0,0,0,0,0,0,0,0,
0,0,0,0,0,0,0,0,0,0,0,0,0,0,0,0,
0,0,0,0,0,0,0,0,0,0,0,0,0,0,0,0,
0,0,0,0,0,0,0,0,0,0,0,0,0,0,0,0,
0,0,0,0,0,0,0,0,0,0,0,0,0,0,0,0,
0,0,0,0,0,0,0,0,0,0,0,0,0,0,0,0,
0,0,0,0,0,0,0,0,0,0,0,0,0,0,0,0,
0,0,0,0,0,0,0,0,0,0,0,0,0,0,0,0,
0,0,0,0,0,0,0,0,0,0,0,0,0,0,0,0,
0,0,0,0,0,0,0,0,0,0,0,0,0,0,0,0
</chunk>
   <chunk x="0" y="0" width="16" height="16">
0,0,0,0,0,0,0,0,0,0,0,0,0,0,0,0,
0,0,0,0,0,0,0,0,0,0,0,0,0,0,0,0,
0,0,0,0,0,0,0,0,0,0,0,0,0,0,0,0,
0,0,0,0,0,0,0,0,0,0,0,0,0,0,0,0,
0,0,0,0,0,0,0,0,0,0,0,0,0,0,0,0,
0,0,0,0,0,0,0,0,0,0,0,0,0,0,0,0,
0,0,0,0,0,0,0,1404,1405,1406,1407,0,0,0,0,0,
0,0,0,0,0,0,0,1447,1448,1449,1450,0,0,0,0,0,
0,0,0,0,0,0,0,0,0,0,0,0,0,0,0,0,
0,0,0,0,0,0,0,0,0,0,0,0,0,0,0,0,
0,0,0,0,0,0,0,0,0,0,0,0,0,0,0,0,
0,0,0,0,0,0,0,0,0,0,0,0,0,0,0,0,
0,0,0,0,0,0,0,0,0,0,0,0,0,0,0,0,
0,0,0,0,0,0,0,0,0,0,0,0,0,0,0,0,
0,0,0,0,0,0,0,0,0,0,0,0,0,0,0,0,
0,0,0,0,0,0,0,0,0,0,0,0,0,0,0,0
</chunk>
   <chunk x="16" y="0" width="16" height="16">
0,0,0,0,0,0,0,0,0,0,0,0,0,0,0,0,
0,0,0,0,0,0,0,0,0,0,0,0,0,0,0,0,
0,0,0,0,0,0,0,0,0,0,0,0,0,0,0,0,
0,0,0,0,0,0,0,0,0,0,0,0,0,0,0,0,
0,0,0,0,0,0,0,0,0,0,0,0,0,0,0,0,
0,0,0,0,0,0,0,0,0,0,0,0,0,0,0,0,
0,0,0,0,0,0,0,0,0,0,0,0,0,0,0,0,
0,0,0,0,0,0,0,0,0,0,1662,1663,1664,1665,0,0,
0,0,0,0,0,0,0,0,0,0,1705,1706,1707,1708,0,0,
0,0,0,0,0,0,0,0,0,0,0,0,0,0,0,0,
0,0,0,0,0,0,0,0,0,0,0,0,0,0,0,0,
0,0,0,0,0,0,0,0,0,0,0,0,0,0,0,0,
0,0,0,0,0,0,0,0,0,0,0,0,0,0,0,0,
0,0,0,0,0,0,0,0,0,0,0,0,0,0,0,0,
0,0,0,0,0,0,0,0,0,0,0,0,0,0,0,0,
0,0,0,0,0,0,0,0,0,0,0,0,0,0,0,0
</chunk>
   <chunk x="32" y="0" width="16" height="16">
0,0,0,0,0,0,0,0,0,0,0,0,0,0,0,0,
0,0,0,0,0,0,0,0,0,0,0,0,0,0,0,0,
0,0,0,0,0,0,0,0,0,0,0,0,0,0,0,0,
0,0,0,0,0,0,0,0,0,0,0,0,0,0,0,0,
0,0,0,0,0,0,0,0,0,0,0,0,0,0,0,0,
0,0,0,0,0,0,0,0,0,0,0,0,0,0,0,0,
0,0,0,0,0,0,0,0,0,0,0,0,0,0,0,0,
0,0,0,0,0,0,0,0,0,0,0,0,0,0,0,0,
0,0,0,0,0,0,0,0,0,0,0,0,1919,1920,1921,1922,
0,0,0,0,0,0,0,0,0,0,0,0,0,0,0,0,
0,0,0,0,0,0,0,0,0,0,0,0,0,0,0,0,
0,0,0,0,0,0,0,0,0,0,0,0,0,0,0,0,
0,0,0,0,0,0,0,0,0,0,0,0,0,0,0,0,
0,0,0,0,0,0,0,0,0,0,0,0,0,0,0,0,
0,0,0,0,0,0,0,0,0,0,0,0,0,0,0,0,
0,0,0,0,0,0,0,0,0,0,0,0,0,0,0,0
</chunk>
   <chunk x="48" y="0" width="16" height="16">
0,0,0,0,0,0,0,0,0,0,0,0,0,0,0,0,
0,0,0,0,0,0,0,0,0,0,0,0,0,0,0,0,
0,0,0,0,0,0,0,0,0,0,0,0,0,0,0,0,
0,0,0,0,0,0,0,0,0,0,0,0,0,0,0,0,
0,0,0,0,0,0,0,0,0,0,0,0,0,0,0,0,
0,0,0,0,0,0,0,0,0,0,0,0,0,0,0,0,
0,0,0,0,0,0,0,0,0,0,0,0,0,0,0,0,
0,0,0,0,0,0,0,0,0,0,0,0,0,0,0,0,
1923,1924,0,0,0,0,0,0,0,0,0,0,0,0,0,0,
0,0,0,0,0,0,0,0,0,0,0,0,0,0,0,0,
0,0,0,0,0,0,0,0,0,0,0,0,0,0,0,0,
0,0,0,0,0,0,0,0,0,0,0,0,0,0,0,0,
0,0,0,0,0,0,0,0,0,0,0,0,0,0,0,0,
0,0,0,0,0,0,0,0,0,0,0,0,0,0,0,0,
0,0,0,0,0,0,0,0,0,0,0,0,0,0,0,0,
0,0,0,0,0,0,0,0,0,0,0,0,0,0,0,0
</chunk>
   <chunk x="-16" y="16" width="16" height="16">
0,0,0,0,0,0,0,0,0,0,0,0,0,0,0,0,
0,0,0,0,0,0,0,0,0,0,0,0,0,0,0,0,
0,0,0,0,0,0,0,0,0,0,0,0,0,0,0,0,
0,0,0,0,0,0,0,0,0,0,0,0,0,0,0,0,
0,0,0,0,0,0,0,0,0,0,0,0,0,0,0,0,
0,0,0,0,0,0,0,0,0,0,0,0,0,0,0,0,
0,0,0,0,0,0,0,0,0,0,0,0,0,0,0,0,
0,0,0,1242,1243,1244,1245,0,0,0,0,0,0,0,0,0,
0,0,0,0,0,0,0,0,0,0,0,0,0,0,0,0,
0,0,0,0,0,0,0,0,0,0,0,0,0,0,0,0,
0,0,0,0,0,0,0,0,0,0,0,0,0,0,0,0,
0,0,0,0,0,0,0,0,0,0,0,0,0,0,0,0,
0,0,0,0,0,0,0,0,0,0,0,0,0,0,0,0,
0,0,0,0,0,0,0,0,0,0,0,0,0,0,0,0,
0,0,0,0,0,0,0,0,0,0,0,0,0,0,0,0,
0,0,0,0,0,0,0,0,0,0,0,0,0,0,0,0
</chunk>
   <chunk x="0" y="16" width="16" height="16">
0,0,0,0,0,0,0,0,0,0,0,0,0,0,0,0,
0,0,0,0,0,0,0,0,0,0,0,0,0,0,0,0,
0,0,0,0,0,0,0,0,0,0,0,0,0,0,0,0,
0,0,0,0,0,0,0,0,0,0,0,0,0,0,0,0,
0,0,0,0,0,0,0,0,0,0,0,0,0,0,0,0,
0,0,0,0,0,0,0,0,0,0,0,0,0,0,0,0,
0,0,0,0,0,0,0,0,0,0,0,0,0,0,0,0,
0,0,0,0,0,0,0,0,0,0,0,0,0,0,0,0,
0,0,0,0,0,0,0,1414,1415,1416,1417,0,0,0,0,0,
0,0,0,0,0,0,0,0,0,0,0,0,0,0,0,0,
0,0,0,0,0,0,0,0,0,0,0,0,0,0,0,0,
0,0,0,0,0,0,0,0,0,0,0,0,0,0,0,0,
0,0,0,0,0,0,0,0,0,0,0,0,0,0,0,0,
0,0,0,0,0,0,0,0,0,0,0,0,0,0,0,0,
0,0,0,0,0,0,0,0,0,0,0,0,0,0,0,0,
0,0,0,0,0,0,0,0,0,0,0,0,0,0,0,0
</chunk>
   <chunk x="16" y="16" width="16" height="16">
0,0,0,0,0,0,0,0,0,0,0,0,0,0,0,0,
0,0,0,0,0,0,0,0,0,0,0,0,0,0,0,0,
0,0,0,0,0,0,0,0,0,0,0,0,0,0,0,0,
0,0,0,0,0,0,0,0,0,0,0,0,0,0,0,0,
0,0,0,0,0,0,0,0,0,0,0,0,0,0,0,0,
0,0,0,0,0,0,0,0,0,0,0,0,0,0,0,0,
0,0,0,0,0,0,0,0,0,0,0,0,0,0,0,0,
0,0,0,0,0,0,0,0,0,0,0,0,0,0,0,0,
0,0,0,0,0,0,0,0,0,0,0,0,0,0,0,0,
0,0,0,0,0,0,0,0,0,0,1193,1194,1195,1196,0,0,
0,0,0,0,0,0,0,0,0,0,0,0,0,0,0,0,
0,0,0,0,0,0,0,0,0,0,0,0,0,0,0,0,
0,0,0,0,0,0,0,0,0,0,0,0,0,0,0,0,
0,0,0,0,0,0,0,0,0,0,0,0,0,0,0,0,
0,0,0,0,0,0,0,0,0,0,0,0,0,0,0,0,
0,0,0,0,0,0,0,0,0,0,0,0,0,0,0,0
</chunk>
   <chunk x="32" y="16" width="16" height="16">
0,0,0,0,0,0,0,0,0,0,0,0,0,0,0,0,
0,0,0,0,0,0,0,0,0,0,0,0,0,0,0,0,
0,0,0,0,0,0,0,0,0,0,0,0,0,0,0,0,
0,0,0,0,0,0,0,0,0,0,0,0,0,1586,1587,1588,
0,0,0,0,0,0,0,0,0,0,0,0,0,1629,1630,1631,
0,0,0,0,0,0,0,0,0,0,0,0,0,0,0,0,
0,0,0,0,0,0,0,0,0,0,0,0,0,0,0,0,
0,0,0,0,0,0,0,0,0,0,0,0,0,0,0,0,
0,0,0,0,0,0,0,0,0,0,0,0,0,0,0,0,
0,0,0,0,0,0,0,0,0,0,0,0,0,0,0,0,
0,0,0,0,0,0,0,0,0,0,0,0,0,0,0,0,
0,0,0,0,0,0,0,0,0,0,0,0,0,0,0,0,
0,0,0,0,0,0,0,0,0,0,0,0,0,0,0,0,
0,0,0,0,0,0,0,0,0,0,0,0,0,0,0,0,
0,0,0,0,0,0,0,0,0,0,0,0,0,0,0,0,
0,0,0,0,0,0,0,0,0,0,0,0,0,0,0,0
</chunk>
   <chunk x="48" y="16" width="16" height="16">
0,0,0,0,0,0,0,0,0,0,0,0,0,0,0,0,
0,0,0,0,0,0,0,0,0,0,0,0,0,0,0,0,
0,0,0,0,0,0,0,0,0,0,0,0,0,0,0,0,
1589,0,0,0,0,0,0,0,0,0,0,0,0,0,0,0,
1632,0,0,0,0,0,0,0,0,0,0,0,0,0,0,0,
0,0,0,0,0,0,0,0,0,0,0,0,0,0,0,0,
0,0,0,0,0,0,0,0,0,0,0,0,0,0,0,0,
0,0,0,0,0,0,0,0,0,0,0,0,0,0,0,0,
0,0,0,0,0,0,0,0,0,0,0,0,0,0,0,0,
0,0,0,0,0,0,0,0,0,0,0,0,0,0,0,0,
0,0,0,0,0,0,0,0,0,0,0,0,0,0,0,0,
0,0,0,0,0,0,0,0,0,0,0,0,0,0,0,0,
0,0,0,0,0,0,0,0,0,0,0,0,0,0,0,0,
0,0,0,0,0,0,0,0,0,0,0,0,0,0,0,0,
0,0,0,0,0,0,0,0,0,0,0,0,0,0,0,0,
0,0,0,0,0,0,0,0,0,0,0,0,0,0,0,0
</chunk>
   <chunk x="-16" y="32" width="16" height="16">
0,0,0,0,0,0,0,0,0,0,0,0,0,0,0,0,
0,0,0,0,0,0,0,0,0,0,0,0,0,0,0,0,
0,0,0,0,0,0,0,0,0,0,0,0,0,0,0,0,
0,0,1623,1624,1625,1626,1627,1628,0,0,0,0,0,0,0,0,
0,0,1666,1667,1668,1669,1670,1671,0,0,0,0,0,0,0,0,
0,0,0,0,0,0,0,0,0,0,0,0,0,0,0,0,
0,0,0,0,0,0,0,0,0,0,0,0,0,0,0,0,
0,0,0,0,0,0,0,0,0,0,0,0,0,0,0,0,
0,0,0,0,0,0,0,0,0,0,0,0,0,0,0,0,
0,0,0,0,0,0,0,0,0,0,0,0,0,0,0,0,
0,0,0,0,0,0,0,0,0,0,0,0,0,0,0,0,
0,0,0,0,0,0,0,0,0,0,0,0,0,0,0,0,
0,0,0,0,0,0,0,0,0,0,0,0,0,0,0,0,
0,0,0,0,0,0,0,0,0,0,0,0,0,0,0,0,
0,0,0,0,0,0,0,0,0,0,0,0,0,0,0,0,
0,0,0,0,0,0,0,0,0,0,0,0,0,0,0,0
</chunk>
   <chunk x="0" y="32" width="16" height="16">
0,0,0,0,0,0,0,0,0,0,0,0,0,0,0,0,
0,0,0,0,0,0,0,0,0,0,0,0,0,0,0,0,
0,0,0,0,0,0,0,0,0,0,0,0,0,0,0,0,
0,0,0,0,0,0,0,0,0,0,0,0,0,0,0,0,
0,0,0,0,0,0,0,1882,1883,1884,0,0,0,0,0,0,
0,0,0,0,0,0,0,0,0,0,0,0,0,0,0,0,
0,0,0,0,0,0,0,0,0,0,0,0,0,0,0,0,
0,0,0,0,0,0,0,0,0,0,0,0,0,0,0,0,
0,0,0,0,0,0,0,0,0,0,0,0,0,0,0,0,
0,0,0,0,0,0,0,0,0,0,0,0,0,0,0,0,
0,0,0,0,0,0,0,0,0,0,0,0,0,0,0,0,
0,0,0,0,0,0,0,0,0,0,0,0,0,0,0,0,
0,0,0,0,0,0,0,0,0,0,0,0,0,0,0,0,
0,0,0,0,0,0,0,0,0,0,0,0,0,0,0,0,
0,0,0,0,0,0,0,0,0,0,0,0,0,0,0,0,
0,0,0,0,0,0,0,0,0,0,0,0,0,0,0,0
</chunk>
   <chunk x="16" y="32" width="16" height="16">
0,0,0,0,0,0,0,0,0,0,0,0,0,0,0,0,
0,0,0,0,0,0,0,0,0,0,0,0,0,0,0,0,
0,0,0,0,0,0,0,0,0,0,0,0,0,0,0,0,
0,0,0,0,0,0,0,0,0,0,0,0,0,0,0,0,
0,0,0,0,0,0,0,0,0,0,0,0,0,0,0,0,
0,0,0,0,0,0,0,0,0,1843,1844,1845,1846,1847,1848,0,
0,0,0,0,0,0,0,0,0,0,0,0,0,0,0,0,
0,0,0,0,0,0,0,0,0,0,0,0,0,0,0,0,
0,0,0,0,0,0,0,0,0,0,0,0,0,0,0,0,
0,0,0,0,0,0,0,0,0,0,0,0,0,0,0,0,
0,0,0,0,0,0,0,0,0,0,0,0,0,0,0,0,
0,0,0,0,0,0,0,0,0,0,0,0,0,0,0,0,
0,0,0,0,0,0,0,0,0,0,0,0,0,0,0,0,
0,0,0,0,0,0,0,0,0,0,0,0,0,0,0,0,
0,0,0,0,0,0,0,0,0,0,0,0,0,0,0,0,
0,0,0,0,0,0,0,0,0,0,0,0,0,0,0,0
</chunk>
   <chunk x="32" y="32" width="16" height="16">
0,0,0,0,0,0,0,0,0,0,0,0,0,0,0,0,
0,0,0,0,0,0,0,0,0,0,0,0,0,0,0,0,
0,0,0,0,0,0,0,0,0,0,0,0,0,0,0,0,
0,0,0,0,0,0,0,0,0,0,0,0,0,0,0,0,
0,0,0,0,0,0,0,0,0,0,0,0,0,0,0,0,
0,0,0,0,0,0,0,0,0,0,0,0,0,0,0,0,
0,0,0,0,0,0,0,0,0,0,0,0,0,2059,2060,2061,
0,0,0,0,0,0,0,0,0,0,0,0,0,0,0,0,
0,0,0,0,0,0,0,0,0,0,0,0,0,0,0,0,
0,0,0,0,0,0,0,0,0,0,0,0,0,0,0,0,
0,0,0,0,0,0,0,0,0,0,0,0,0,0,0,0,
0,0,0,0,0,0,0,0,0,0,0,0,0,0,0,0,
0,0,0,0,0,0,0,0,0,0,0,0,0,0,0,0,
0,0,0,0,0,0,0,0,0,0,0,0,0,0,0,0,
0,0,0,0,0,0,0,0,0,0,0,0,0,0,0,0,
0,0,0,0,0,0,0,0,0,0,0,0,0,0,0,0
</chunk>
   <chunk x="48" y="32" width="16" height="16">
0,0,0,0,0,0,0,0,0,0,0,0,0,0,0,0,
0,0,0,0,0,0,0,0,0,0,0,0,0,0,0,0,
0,0,0,0,0,0,0,0,0,0,0,0,0,0,0,0,
0,0,0,0,0,0,0,0,0,0,0,0,0,0,0,0,
0,0,0,0,0,0,0,0,0,0,0,0,0,0,0,0,
0,0,0,0,0,0,0,0,0,0,0,0,0,0,0,0,
2062,0,0,0,0,0,0,0,0,0,0,0,0,0,0,0,
0,0,0,0,0,0,0,0,0,0,0,0,0,0,0,0,
0,0,0,0,0,0,0,0,0,0,0,0,0,0,0,0,
0,0,0,0,0,0,0,0,0,0,0,0,0,0,0,0,
0,0,0,0,0,0,0,0,0,0,0,0,0,0,0,0,
0,0,0,0,0,0,0,0,0,0,0,0,0,0,0,0,
0,0,0,0,0,0,0,0,0,0,0,0,0,0,0,0,
0,0,0,0,0,0,0,0,0,0,0,0,0,0,0,0,
0,0,0,0,0,0,0,0,0,0,0,0,0,0,0,0,
0,0,0,0,0,0,0,0,0,0,0,0,0,0,0,0
</chunk>
   <chunk x="-16" y="48" width="16" height="16">
0,0,0,0,0,0,0,0,0,0,0,0,0,0,0,0,
0,0,0,0,0,0,0,0,0,0,0,0,0,0,0,0,
0,0,0,0,0,0,0,0,0,0,0,0,0,0,0,0,
0,0,0,0,0,0,0,0,0,0,0,0,0,0,0,0,
0,0,0,0,0,0,0,0,0,0,0,0,0,0,0,0,
0,0,0,1070,1071,1072,1073,0,0,0,0,0,0,0,0,0,
0,0,0,0,0,0,0,0,0,0,0,0,0,0,0,0,
0,0,0,0,0,0,0,0,0,0,0,0,0,0,0,0,
0,0,0,0,0,0,0,0,0,0,0,0,0,0,0,0,
0,0,0,0,0,0,0,0,0,0,0,0,0,0,0,0,
0,0,0,0,0,0,0,0,0,0,0,0,0,0,0,0,
0,0,0,0,0,0,0,0,0,0,0,0,0,0,0,0,
0,0,0,0,0,0,0,0,0,0,0,0,0,0,0,0,
0,0,0,0,0,0,0,0,0,0,0,0,0,0,0,0,
0,0,0,0,0,0,0,0,0,0,0,0,0,0,0,0,
0,0,0,0,0,0,0,0,0,0,0,0,0,0,0,0
</chunk>
   <chunk x="0" y="48" width="16" height="16">
0,0,0,0,0,0,0,0,0,0,0,0,0,0,0,0,
0,0,0,0,0,0,0,0,0,0,0,0,0,0,0,0,
0,0,0,0,0,0,0,0,0,0,0,0,0,0,0,0,
0,0,0,0,0,0,0,0,0,0,0,0,0,0,0,0,
0,0,0,0,0,0,0,0,0,0,0,0,0,0,0,0,
0,0,0,0,0,0,0,0,0,0,0,0,0,0,0,0,
0,0,0,0,0,0,0,2049,2050,2051,2052,0,0,0,0,0,
0,0,0,0,0,0,0,0,0,0,0,0,0,0,0,0,
0,0,0,0,0,0,0,0,0,0,0,0,0,0,0,0,
0,0,0,0,0,0,0,0,0,0,0,0,0,0,0,0,
0,0,0,0,0,0,0,0,0,0,0,0,0,0,0,0,
0,0,0,0,0,0,0,0,0,0,0,0,0,0,0,0,
0,0,0,0,0,0,0,0,0,0,0,0,0,0,0,0,
0,0,0,0,0,0,0,0,0,0,0,0,0,0,0,0,
0,0,0,0,0,0,0,0,0,0,0,0,0,0,0,0,
0,0,0,0,0,0,0,0,0,0,0,0,0,0,0,0
</chunk>
   <chunk x="16" y="48" width="16" height="16">
0,0,0,0,0,0,0,0,0,0,1161,1162,1163,1164,0,0,
0,0,0,0,0,0,0,0,0,0,1204,1205,1206,1207,0,0,
0,0,0,0,0,0,0,0,0,0,0,0,0,0,0,0,
0,0,0,0,0,0,0,0,0,0,0,0,0,0,0,0,
0,0,0,0,0,0,0,0,0,0,0,0,0,0,0,0,
0,0,0,0,0,0,0,0,0,0,0,0,0,0,0,0,
0,0,0,0,0,0,0,0,0,0,0,0,0,0,0,0,
0,0,0,0,0,0,0,0,0,0,0,0,0,0,0,0,
0,0,0,0,0,0,0,0,0,0,0,0,0,0,0,0,
0,0,0,0,0,0,0,0,0,0,0,0,0,0,0,0,
0,0,0,0,0,0,0,0,0,0,0,0,0,0,0,0,
0,0,0,0,0,0,0,0,0,0,0,0,0,0,0,0,
0,0,0,0,0,0,0,0,0,0,0,0,0,0,0,0,
0,0,0,0,0,0,0,0,0,0,0,0,0,0,0,0,
0,0,0,0,0,0,0,0,0,0,0,0,0,0,0,0,
0,0,0,0,0,0,0,0,0,0,0,0,0,0,0,0
</chunk>
   <chunk x="32" y="48" width="16" height="16">
0,0,0,0,0,0,0,0,0,0,0,0,0,0,0,0,
0,0,0,0,0,0,0,0,0,0,0,0,0,1419,1420,1421,
0,0,0,0,0,0,0,0,0,0,0,0,0,1462,1463,1464,
0,0,0,0,0,0,0,0,0,0,0,0,0,0,0,0,
0,0,0,0,0,0,0,0,0,0,0,0,0,0,0,0,
0,0,0,0,0,0,0,0,0,0,0,0,0,0,0,0,
0,0,0,0,0,0,0,0,0,0,0,0,0,0,0,0,
0,0,0,0,0,0,0,0,0,0,0,0,0,0,0,0,
0,0,0,0,0,0,0,0,0,0,0,0,0,0,0,0,
0,0,0,0,0,0,0,0,0,0,0,0,0,0,0,0,
0,0,0,0,0,0,0,0,0,0,0,0,0,0,0,0,
0,0,0,0,0,0,0,0,0,0,0,0,0,0,0,0,
0,0,0,0,0,0,0,0,0,0,0,0,0,0,0,0,
0,0,0,0,0,0,0,0,0,0,0,0,0,0,0,0,
0,0,0,0,0,0,0,0,0,0,0,0,0,0,0,0,
0,0,0,0,0,0,0,0,0,0,0,0,0,0,0,0
</chunk>
   <chunk x="48" y="48" width="16" height="16">
0,0,0,0,0,0,0,0,0,0,0,0,0,0,0,0,
1422,0,0,0,0,0,0,0,0,0,0,0,0,0,0,0,
1465,0,0,0,0,0,0,0,0,0,0,0,0,0,0,0,
0,0,0,0,0,0,0,0,0,0,0,0,0,0,0,0,
0,0,0,0,0,0,0,0,0,0,0,0,0,0,0,0,
0,0,0,0,0,0,0,0,0,0,0,0,0,0,0,0,
0,0,0,0,0,0,0,0,0,0,0,0,0,0,0,0,
0,0,0,0,0,0,0,0,0,0,0,0,0,0,0,0,
0,0,0,0,0,0,0,0,0,0,0,0,0,0,0,0,
0,0,0,0,0,0,0,0,0,0,0,0,0,0,0,0,
0,0,0,0,0,0,0,0,0,0,0,0,0,0,0,0,
0,0,0,0,0,0,0,0,0,0,0,0,0,0,0,0,
0,0,0,0,0,0,0,0,0,0,0,0,0,0,0,0,
0,0,0,0,0,0,0,0,0,0,0,0,0,0,0,0,
0,0,0,0,0,0,0,0,0,0,0,0,0,0,0,0,
0,0,0,0,0,0,0,0,0,0,0,0,0,0,0,0
</chunk>
   <chunk x="-16" y="64" width="16" height="16">
0,0,0,1677,1678,1679,1680,0,0,0,0,0,0,0,0,0,
0,0,0,0,0,0,0,0,0,0,0,0,0,0,0,0,
0,0,0,0,0,0,0,0,0,0,0,0,0,0,0,0,
0,0,0,0,0,0,0,0,0,0,0,0,0,0,0,0,
0,0,0,0,0,0,0,0,0,0,0,0,0,0,0,0,
0,0,0,0,0,0,0,0,0,0,0,0,0,0,0,0,
0,0,0,0,0,0,0,0,0,0,0,0,0,0,0,0,
0,0,0,0,0,0,0,0,0,0,0,0,0,0,0,0,
0,0,0,0,0,0,0,0,0,0,0,0,0,0,0,0,
0,0,0,0,0,0,0,0,0,0,0,0,0,0,0,0,
0,0,0,0,0,0,0,0,0,0,0,0,0,0,0,0,
0,0,0,0,0,0,0,0,0,0,0,0,0,0,0,0,
0,0,0,0,0,0,0,0,0,0,0,0,0,0,0,0,
0,0,0,0,0,0,0,0,0,0,0,0,0,0,0,0,
0,0,0,0,0,0,0,0,0,0,0,0,0,0,0,0,
0,0,0,0,0,0,0,0,0,0,0,0,0,0,0,0
</chunk>
   <chunk x="0" y="64" width="16" height="16">
0,0,0,0,0,0,0,0,0,0,0,0,0,0,0,0,
0,0,0,0,0,0,0,1849,1850,1851,1852,0,0,0,0,0,
0,0,0,0,0,0,0,0,0,0,0,0,0,0,0,0,
0,0,0,0,0,0,0,0,0,0,0,0,0,0,0,0,
0,0,0,0,0,0,0,0,0,0,0,0,0,0,0,0,
0,0,0,0,0,0,0,0,0,0,0,0,0,0,0,0,
0,0,0,0,0,0,0,0,0,0,0,0,0,0,0,0,
0,0,0,0,0,0,0,0,0,0,0,0,0,0,0,0,
0,0,0,0,0,0,0,0,0,0,0,0,0,0,0,0,
0,0,0,0,0,0,0,0,0,0,0,0,0,0,0,0,
0,0,0,0,0,0,0,0,0,0,0,0,0,0,0,0,
0,0,0,0,0,0,0,0,0,0,0,0,0,0,0,0,
0,0,0,0,0,0,0,0,0,0,0,0,0,0,0,0,
0,0,0,0,0,0,1638,1639,1640,1641,1642,1643,0,0,0,0,
0,0,0,0,0,0,1681,1682,1683,1684,1685,1686,0,0,0,0,
0,0,0,0,0,0,0,0,0,0,0,0,0,0,0,0
</chunk>
   <chunk x="16" y="64" width="16" height="16">
0,0,0,0,0,0,0,0,0,0,0,0,0,0,0,0,
0,0,0,0,0,0,0,0,0,0,0,0,0,0,0,0,
0,0,0,0,0,0,0,0,0,0,2021,2022,2023,2024,0,0,
0,0,0,0,0,0,0,0,0,0,0,0,0,0,0,0,
0,0,0,0,0,0,0,0,0,0,0,0,0,0,0,0,
0,0,0,0,0,0,0,0,0,0,0,0,0,0,0,0,
0,0,0,0,0,0,0,0,0,0,0,0,0,0,0,0,
0,0,0,0,0,0,0,0,0,0,0,0,0,0,0,0,
0,0,0,0,0,0,0,0,0,0,0,0,0,0,0,0,
0,0,0,0,0,0,0,0,0,0,0,0,0,0,0,0,
0,0,0,0,0,0,0,0,0,0,0,0,0,0,0,0,
0,0,0,0,0,0,0,0,0,0,0,0,0,0,0,0,
0,0,0,0,0,0,0,0,0,0,0,0,0,0,0,0,
0,0,0,0,0,0,0,0,0,0,0,0,0,0,0,0,
0,0,0,0,0,0,0,0,0,0,1365,1366,1367,1368,0,0,
0,0,0,0,0,0,0,0,0,0,1408,1409,1410,1411,0,0
</chunk>
   <chunk x="32" y="64" width="16" height="16">
0,0,0,0,0,0,0,0,0,0,0,0,0,0,0,0,
0,0,0,0,0,0,0,0,0,0,0,0,0,0,0,0,
0,0,0,0,0,0,0,0,0,0,0,0,0,0,0,0,
0,0,0,0,0,0,0,0,0,0,0,0,0,1122,1123,1124,
0,0,0,0,0,0,0,0,0,0,0,0,0,0,0,0,
0,0,0,0,0,0,0,0,0,0,0,0,0,0,0,0,
0,0,0,0,0,0,0,0,0,0,0,0,0,0,0,0,
0,0,0,0,0,0,0,0,0,0,0,0,0,0,0,0,
0,0,0,0,0,0,0,0,0,0,0,0,0,0,0,0,
0,0,0,0,0,0,0,0,0,0,0,0,0,0,0,0,
0,0,0,0,0,0,0,0,0,0,0,0,0,0,0,0,
0,0,0,0,0,0,0,0,0,0,0,0,0,0,0,0,
0,0,0,0,0,0,0,0,0,0,0,0,0,0,0,0,
0,0,0,0,0,0,0,0,0,0,0,0,0,0,0,0,
0,0,0,0,0,0,0,0,0,0,0,0,0,0,0,0,
0,0,0,0,0,0,0,0,0,0,0,0,0,0,0,0
</chunk>
   <chunk x="48" y="64" width="16" height="16">
0,0,0,0,0,0,0,0,0,0,0,0,0,0,0,0,
0,0,0,0,0,0,0,0,0,0,0,0,0,0,0,0,
0,0,0,0,0,0,0,0,0,0,0,0,0,0,0,0,
1125,1126,0,0,0,0,0,0,0,0,0,0,0,0,0,0,
0,0,0,0,0,0,0,0,0,0,0,0,0,0,0,0,
0,0,0,0,0,0,0,0,0,0,0,0,0,0,0,0,
0,0,0,0,0,0,0,0,0,0,0,0,0,0,0,0,
0,0,0,0,0,0,0,0,0,0,0,0,0,0,0,0,
0,0,0,0,0,0,0,0,0,0,0,0,0,0,0,0,
0,0,0,0,0,0,0,0,0,0,0,0,0,0,0,0,
0,0,0,0,0,0,0,0,0,0,0,0,0,0,0,0,
0,0,0,0,0,0,0,0,0,0,0,0,0,0,0,0,
0,0,0,0,0,0,0,0,0,0,0,0,0,0,0,0,
0,0,0,0,0,0,0,0,0,0,0,0,0,0,0,0,
0,0,0,0,0,0,0,0,0,0,0,0,0,0,0,0,
0,0,0,0,0,0,0,0,0,0,0,0,0,0,0,0
</chunk>
   <chunk x="-16" y="80" width="16" height="16">
0,0,0,0,0,0,0,0,0,0,0,0,0,0,0,0,
0,0,0,0,0,0,0,0,0,0,0,0,0,0,0,0,
0,0,0,0,0,0,0,0,0,0,0,0,0,0,0,0,
0,0,0,1294,1295,1296,1297,1298,0,0,0,0,0,0,0,0,
0,0,0,0,0,0,0,0,0,0,0,0,0,0,0,0,
0,0,0,0,0,0,0,0,0,0,0,0,0,0,0,0,
0,0,0,0,0,0,0,0,0,0,0,0,0,0,0,0,
0,0,0,0,0,0,0,0,0,0,0,0,0,0,0,0,
0,0,0,0,0,0,0,0,0,0,0,0,0,0,0,0,
0,0,0,0,0,0,0,0,0,0,0,0,0,0,0,0,
0,0,0,0,0,0,0,0,0,0,0,0,0,0,0,0,
0,0,0,0,0,0,0,0,0,0,0,0,0,0,0,0,
0,0,0,0,0,0,0,0,0,0,0,0,0,0,0,0,
0,0,0,0,0,0,0,0,0,0,0,0,0,0,0,0,
0,0,0,0,0,0,0,0,0,0,0,0,0,0,0,0,
0,0,0,0,0,0,0,0,0,0,0,0,0,0,0,0
</chunk>
  </data>
 </layer>
 <layer id="27" name="Monsters" width="16" height="24">
  <data encoding="csv">
   <chunk x="-16" y="0" width="16" height="16">
0,0,0,0,0,0,0,0,0,0,0,0,0,0,0,0,
0,0,0,0,0,0,0,0,0,0,0,0,0,0,0,0,
0,0,0,0,0,0,0,0,0,0,0,0,0,0,0,0,
0,0,0,0,0,0,0,0,0,0,0,0,0,0,0,0,
0,0,0,0,0,0,0,0,0,0,0,0,0,0,0,0,
0,0,0,0,0,0,0,0,2074,2075,2076,2077,2078,0,0,0,
0,0,0,0,0,0,0,0,2093,2094,2095,2096,2097,0,0,0,
0,0,0,0,0,0,0,0,2112,2113,2114,2115,2116,0,0,0,
0,0,0,0,0,0,0,0,2131,2132,2133,2134,2135,0,0,0,
0,0,0,0,0,0,0,0,2150,2151,2152,2153,2154,0,0,0,
0,0,0,0,0,0,0,0,0,0,0,0,0,0,0,0,
0,0,0,0,0,0,0,0,0,0,0,0,0,0,0,0,
0,0,0,0,0,0,0,0,0,0,0,0,0,0,0,0,
0,0,0,0,0,0,0,0,0,0,0,0,0,0,0,0,
0,0,0,0,0,0,0,0,0,0,0,0,0,0,0,0,
0,0,0,0,0,0,0,0,0,0,0,0,0,0,0,0
</chunk>
   <chunk x="0" y="0" width="16" height="16">
0,0,0,0,0,0,0,0,0,0,0,0,0,0,0,0,
0,0,0,0,0,0,0,0,0,0,0,0,0,0,0,0,
0,0,0,0,0,0,0,0,0,0,0,0,0,0,0,0,
0,0,0,0,0,0,0,0,0,0,0,0,0,0,0,0,
0,0,0,0,0,0,0,0,0,0,0,0,0,0,0,0,
0,0,0,0,0,0,0,0,0,0,0,0,2079,2080,2081,2082,
0,0,0,0,0,0,0,0,0,0,0,0,2098,2099,2100,2101,
0,0,0,0,0,0,0,0,0,0,0,0,2117,2118,2119,2120,
0,0,0,0,0,0,0,0,0,0,0,0,2136,2137,2138,2139,
0,0,0,0,0,0,0,0,0,0,0,0,2155,2156,2157,2158,
0,0,0,0,0,0,0,0,0,0,0,0,2174,2175,2176,2177,
0,0,0,0,0,0,0,0,0,0,0,0,0,0,0,0,
0,0,0,0,0,0,0,0,0,0,0,0,0,0,0,0,
0,0,0,0,0,0,0,0,0,0,0,0,0,0,0,0,
0,0,0,0,0,0,0,0,0,0,0,0,0,0,0,0,
0,0,0,0,0,0,0,0,0,0,0,0,0,0,0,0
</chunk>
   <chunk x="16" y="0" width="16" height="16">
0,0,0,0,0,0,0,0,0,0,0,0,0,0,0,0,
0,0,0,0,0,0,0,0,0,0,0,0,0,0,0,0,
0,0,0,0,0,0,0,0,0,0,0,0,0,0,0,0,
0,0,0,0,0,0,0,0,0,0,0,0,0,0,0,0,
0,0,0,0,0,0,0,0,0,0,0,0,0,0,0,0,
2083,0,0,0,0,0,0,0,0,0,0,0,0,0,0,2084,
2102,0,0,0,0,0,0,0,0,0,0,0,0,0,0,2103,
2121,0,0,0,0,0,0,0,0,0,0,0,0,0,0,2122,
2140,0,0,0,0,0,0,0,0,0,0,0,0,0,0,2141,
2159,0,0,0,0,0,0,0,0,0,0,0,0,0,0,2160,
2178,0,0,0,0,0,0,0,0,0,0,0,0,0,0,0,
0,0,0,0,0,0,0,0,0,0,0,0,0,0,0,0,
0,0,0,0,0,0,0,0,0,0,0,0,0,0,0,0,
0,0,0,0,0,0,0,0,0,0,0,0,0,0,0,0,
0,0,0,0,0,0,0,0,0,0,0,0,0,0,0,0,
0,0,0,0,0,0,0,0,0,0,0,0,0,0,0,0
</chunk>
   <chunk x="32" y="0" width="16" height="16">
0,0,0,0,0,0,0,0,0,0,0,0,0,0,0,0,
0,0,0,0,0,0,0,0,0,0,0,0,0,0,0,0,
0,0,0,0,0,0,0,0,0,0,0,0,0,0,0,0,
0,0,0,0,0,0,0,0,0,0,0,0,0,0,0,0,
0,0,0,0,0,0,0,0,0,0,0,0,0,0,0,0,
2085,2086,2087,0,0,0,0,0,0,0,0,0,0,0,0,0,
2104,2105,2106,0,0,0,0,0,0,0,0,0,0,0,0,0,
2123,2124,2125,0,0,0,0,0,0,0,0,0,0,0,0,0,
2142,2143,2144,0,0,0,0,0,0,0,0,0,0,0,0,0,
2161,2162,2163,0,0,0,0,0,0,0,0,0,0,0,0,0,
0,0,0,0,0,0,0,0,0,0,0,0,0,0,0,0,
0,0,0,0,0,0,0,0,0,0,0,0,0,0,0,0,
0,0,0,0,0,0,0,0,0,0,0,0,0,0,0,0,
0,0,0,0,0,0,0,0,0,0,0,0,0,0,0,0,
0,0,0,0,0,0,0,0,0,0,0,0,0,0,0,0,
0,0,0,0,0,0,0,0,0,0,0,0,0,0,0,0
</chunk>
   <chunk x="48" y="0" width="16" height="16">
0,0,0,0,0,0,0,0,0,0,0,0,0,0,0,0,
0,0,0,0,0,0,0,0,0,0,0,0,0,0,0,0,
0,0,0,0,0,0,0,0,0,0,0,0,0,0,0,0,
0,0,0,0,0,0,0,0,0,0,0,0,0,0,0,0,
0,0,0,0,0,0,0,0,0,0,0,0,0,0,0,0,
0,0,2088,2089,2090,2091,2092,0,0,0,0,0,0,0,0,0,
0,0,0,2108,2109,2110,2111,0,0,0,0,0,0,0,0,0,
0,0,0,2127,2128,2129,2130,0,0,0,0,0,0,0,0,0,
0,0,0,2146,2147,2148,2149,0,0,0,0,0,0,0,0,0,
0,0,2164,2165,2166,2167,2168,0,0,0,0,0,0,0,0,0,
0,0,0,0,0,0,0,0,0,0,0,0,0,0,0,0,
0,0,0,0,0,0,0,0,0,0,0,0,0,0,0,0,
0,0,0,0,0,0,0,0,0,0,0,0,0,0,0,0,
0,0,0,0,0,0,0,0,0,0,0,0,0,0,0,0,
0,0,0,0,0,0,0,0,0,0,0,0,0,0,0,0,
0,0,0,0,0,0,0,0,0,0,0,0,0,0,0,0
</chunk>
   <chunk x="-16" y="16" width="16" height="16">
0,0,0,0,0,0,0,0,0,0,0,0,0,0,0,0,
0,0,0,0,0,0,0,0,0,0,0,0,0,0,0,0,
0,0,0,0,0,0,0,0,0,0,0,0,0,0,0,0,
0,0,0,0,0,0,0,0,2169,2170,2171,2172,2173,0,0,0,
0,0,0,0,0,0,0,0,2188,2189,2190,2191,2192,0,0,0,
0,0,0,0,0,0,0,0,2207,2208,2209,2210,2211,0,0,0,
0,0,0,0,0,0,0,0,2226,2227,2228,2229,2230,0,0,0,
0,0,0,0,0,0,0,0,2245,2246,2247,2248,2249,0,0,0,
0,0,0,0,0,0,0,0,0,0,0,0,0,0,0,0,
0,0,0,0,0,0,0,0,0,0,0,0,0,0,0,0,
0,0,0,0,0,0,0,0,0,0,0,0,0,0,0,0,
0,0,0,0,0,0,0,0,0,0,0,0,0,0,0,0,
0,0,0,0,0,0,0,0,0,0,0,0,0,0,0,0,
0,0,0,0,0,0,0,0,0,0,0,0,0,0,0,0,
0,0,0,0,0,0,0,0,0,0,0,0,0,0,0,0,
0,0,0,0,0,0,0,0,0,0,0,0,0,0,0,0
</chunk>
   <chunk x="0" y="16" width="16" height="16">
0,0,0,0,0,0,0,0,0,0,0,0,0,0,0,0,
0,0,0,0,0,0,0,0,0,0,0,0,0,0,0,0,
0,0,0,0,0,0,0,0,0,0,0,0,0,0,0,0,
0,0,0,0,0,0,0,0,0,0,0,0,2174,2175,2176,2177,
0,0,0,0,0,0,0,0,0,0,0,0,2193,2194,2195,2196,
0,0,0,0,0,0,0,0,0,0,0,0,2212,2213,2214,2215,
0,0,0,0,0,0,0,0,0,0,0,0,2231,2232,2233,2234,
0,0,0,0,0,0,0,0,0,0,0,0,2250,2251,2252,2253,
0,0,0,0,0,0,0,0,0,0,0,0,0,0,0,0,
0,0,0,0,0,0,0,0,0,0,0,0,0,0,0,0,
0,0,0,0,0,0,0,0,0,0,0,0,0,0,0,0,
0,0,0,0,0,0,0,0,0,0,0,0,0,0,0,0,
0,0,0,0,0,0,0,0,0,0,0,0,0,0,0,0,
0,0,0,0,0,0,0,0,0,0,0,0,0,0,0,0,
0,0,0,0,0,0,0,0,0,0,0,0,0,0,0,0,
0,0,0,0,0,0,0,0,0,0,0,0,0,0,0,0
</chunk>
   <chunk x="16" y="16" width="16" height="16">
0,0,0,0,0,0,0,0,0,0,0,0,0,0,0,0,
0,0,0,0,0,0,0,0,0,0,0,0,0,0,0,0,
0,0,0,0,0,0,0,0,0,0,0,0,0,0,0,0,
2178,0,0,0,0,0,0,0,0,0,0,0,0,0,0,2178,
2197,0,0,0,0,0,0,0,0,0,0,0,0,0,0,0,
2216,0,0,0,0,0,0,0,0,0,0,0,0,0,0,0,
0,0,0,0,0,0,0,0,0,0,0,0,0,0,0,2235,
0,0,0,0,0,0,0,0,0,0,0,0,0,0,0,2254,
0,0,0,0,0,0,0,0,0,0,0,0,0,0,0,0,
0,0,0,0,0,0,0,0,0,0,0,0,0,0,0,0,
0,0,0,0,0,0,0,0,0,0,0,0,0,0,0,0,
0,0,0,0,0,0,0,0,0,0,0,0,0,0,0,0,
0,0,0,0,0,0,0,0,0,0,0,0,0,0,0,0,
0,0,0,0,0,0,0,0,0,0,0,0,0,0,0,0,
0,0,0,0,0,0,0,0,0,0,0,0,0,0,0,0,
0,0,0,0,0,0,0,0,0,0,0,0,0,0,0,0
</chunk>
   <chunk x="32" y="16" width="16" height="16">
0,0,0,0,0,0,0,0,0,0,0,0,0,0,0,0,
0,0,0,0,0,0,0,0,0,0,0,0,0,0,0,0,
0,0,0,0,0,0,0,0,0,0,0,0,0,0,0,0,
2179,2180,2181,2182,0,0,0,0,0,0,0,0,0,0,0,0,
2198,2199,2200,2201,0,0,0,0,0,0,0,0,0,0,0,0,
2217,2218,2219,2220,0,0,0,0,0,0,0,0,0,0,0,0,
2236,2237,2238,2239,0,0,0,0,0,0,0,0,0,0,0,0,
2255,2256,2257,2258,0,0,0,0,0,0,0,0,0,0,0,0,
0,0,0,0,0,0,0,0,0,0,0,0,0,0,0,0,
0,0,0,0,0,0,0,0,0,0,0,0,0,0,0,0,
0,0,0,0,0,0,0,0,0,0,0,0,0,0,0,0,
0,0,0,0,0,0,0,0,0,0,0,0,0,0,0,0,
0,0,0,0,0,0,0,0,0,0,0,0,0,0,0,0,
0,0,0,0,0,0,0,0,0,0,0,0,0,0,0,0,
0,0,0,0,0,0,0,0,0,0,0,0,0,0,0,0,
0,0,0,0,0,0,0,0,0,0,0,0,0,0,0,0
</chunk>
   <chunk x="48" y="16" width="16" height="16">
0,0,0,0,0,0,0,0,0,0,0,0,0,0,0,0,
0,0,0,0,0,0,0,0,0,0,0,0,0,0,0,0,
0,0,0,0,0,0,0,0,0,0,0,0,0,0,0,0,
0,0,2183,2184,2185,2186,2187,0,0,0,0,0,0,0,0,0,
0,0,2202,2203,2204,2205,2206,0,0,0,0,0,0,0,0,0,
0,0,2221,2222,2223,2224,2225,0,0,0,0,0,0,0,0,0,
0,0,2240,2241,2242,2243,2244,0,0,0,0,0,0,0,0,0,
0,0,2259,2260,2261,2262,2263,0,0,0,0,0,0,0,0,0,
0,0,2278,2279,2280,2281,2282,0,0,0,0,0,0,0,0,0,
0,0,0,0,0,0,0,0,0,0,0,0,0,0,0,0,
0,0,0,0,0,0,0,0,0,0,0,0,0,0,0,0,
0,0,0,0,0,0,0,0,0,0,0,0,0,0,0,0,
0,0,0,0,0,0,0,0,0,0,0,0,0,0,0,0,
0,0,0,0,0,0,0,0,0,0,0,0,0,0,0,0,
0,0,0,0,0,0,0,0,0,0,0,0,0,0,0,0,
0,0,0,0,0,0,0,0,0,0,0,0,0,0,0,0
</chunk>
   <chunk x="-16" y="32" width="16" height="16">
0,0,0,0,0,0,0,0,0,0,0,0,0,0,0,0,
0,0,0,0,0,0,0,0,2264,2265,2266,2267,2268,2269,0,0,
0,0,0,0,0,0,0,0,2283,2284,2285,2286,2287,2288,0,0,
0,0,0,0,0,0,0,0,2302,2303,2304,2305,2306,2307,0,0,
0,0,0,0,0,0,0,0,2321,2322,2323,2324,2325,0,0,0,
0,0,0,0,0,0,0,0,2340,2341,2342,2343,2344,0,0,0,
0,0,0,0,0,0,0,0,2359,2360,2361,2362,2363,0,0,0,
0,0,0,0,0,0,0,0,0,0,0,0,0,0,0,0,
0,0,0,0,0,0,0,0,0,0,0,0,0,0,0,0,
0,0,0,0,0,0,0,0,0,0,0,0,0,0,0,0,
0,0,0,0,0,0,0,0,0,0,0,0,0,0,0,0,
0,0,0,0,0,0,0,0,0,0,0,0,0,0,0,0,
0,0,0,0,0,0,0,0,0,0,0,0,0,0,0,0,
0,0,0,0,0,0,0,0,0,0,0,0,0,0,0,0,
0,0,0,0,0,0,0,0,0,0,0,0,0,0,0,0,
0,0,0,0,0,0,0,0,2378,2379,2380,2381,0,0,0,0
</chunk>
   <chunk x="0" y="32" width="16" height="16">
0,0,0,0,0,0,0,0,0,0,0,0,0,0,0,0,
0,0,0,0,0,0,0,0,0,0,0,0,0,0,0,0,
0,0,0,0,0,0,0,0,0,0,0,0,0,0,2289,2290,
0,0,0,0,0,0,0,0,0,0,0,0,0,0,2308,2309,
0,0,0,0,0,0,0,0,0,0,0,0,0,2326,2327,2328,
0,0,0,0,0,0,0,0,0,0,0,0,2344,2345,2346,2347,
0,0,0,0,0,0,0,0,0,0,0,0,0,2364,2365,2366,
0,0,0,0,0,0,0,0,0,0,0,0,0,0,0,0,
0,0,0,0,0,0,0,0,0,0,0,0,0,0,0,0,
0,0,0,0,0,0,0,0,0,0,0,0,0,0,0,0,
0,0,0,0,0,0,0,0,0,0,0,0,0,0,0,0,
0,0,0,0,0,0,0,0,0,0,0,0,0,0,0,0,
0,0,0,0,0,0,0,0,0,0,0,0,0,0,0,0,
0,0,0,0,0,0,0,0,0,0,0,0,0,0,0,0,
0,0,0,0,0,0,0,0,0,0,0,0,0,0,0,0,
0,0,0,0,0,0,0,0,0,0,0,0,2382,2383,2384,2385
</chunk>
   <chunk x="16" y="32" width="16" height="16">
0,0,0,0,0,0,0,0,0,0,0,0,0,0,0,0,
0,0,0,0,0,0,0,0,0,0,0,0,0,0,0,2272,
0,0,0,0,0,0,0,0,0,0,0,0,0,0,0,2291,
0,0,0,0,0,0,0,0,0,0,0,0,0,0,0,2310,
0,0,0,0,0,0,0,0,0,0,0,0,0,0,0,2329,
0,0,0,0,0,0,0,0,0,0,0,0,0,0,0,2348,
0,0,0,0,0,0,0,0,0,0,0,0,0,0,0,2367,
0,0,0,0,0,0,0,0,0,0,0,0,0,0,0,0,
0,0,0,0,0,0,0,0,0,0,0,0,0,0,0,0,
0,0,0,0,0,0,0,0,0,0,0,0,0,0,0,0,
0,0,0,0,0,0,0,0,0,0,0,0,0,0,0,0,
0,0,0,0,0,0,0,0,0,0,0,0,0,0,0,0,
0,0,0,0,0,0,0,0,0,0,0,0,0,0,0,0,
0,0,0,0,0,0,0,0,0,0,0,0,0,0,0,0,
0,0,0,0,0,0,0,0,0,0,0,0,0,0,0,0,
2386,0,0,0,0,0,0,0,0,0,0,0,0,0,0,0
</chunk>
   <chunk x="32" y="32" width="16" height="16">
0,0,0,0,0,0,0,0,0,0,0,0,0,0,0,0,
2273,2274,2275,2276,0,0,0,0,0,0,0,0,0,0,0,0,
2292,2293,2294,2295,0,0,0,0,0,0,0,0,0,0,0,0,
2311,2312,2313,2314,0,0,0,0,0,0,0,0,0,0,0,0,
2330,2331,2332,2333,0,0,0,0,0,0,0,0,0,0,0,0,
2349,2350,2351,2352,0,0,0,0,0,0,0,0,0,0,0,0,
2368,2369,2370,2371,0,0,0,0,0,0,0,0,0,0,0,0,
0,0,0,0,0,0,0,0,0,0,0,0,0,0,0,0,
0,0,0,0,0,0,0,0,0,0,0,0,0,0,0,0,
0,0,0,0,0,0,0,0,0,0,0,0,0,0,0,0,
0,0,0,0,0,0,0,0,0,0,0,0,0,0,0,0,
0,0,0,0,0,0,0,0,0,0,0,0,0,0,0,0,
0,0,0,0,0,0,0,0,0,0,0,0,0,0,0,0,
0,0,0,0,0,0,0,0,0,0,0,0,0,0,0,0,
0,0,0,0,0,0,0,0,0,0,0,0,0,0,0,0,
0,0,0,0,0,0,0,0,0,0,0,0,0,0,0,0
</chunk>
   <chunk x="48" y="32" width="16" height="16">
0,0,0,0,0,0,0,0,0,0,0,0,0,0,0,0,
0,0,0,0,0,0,0,0,0,0,0,0,0,0,0,0,
0,0,2296,2297,2298,2299,2300,2301,0,0,0,0,0,0,0,0,
0,0,2315,2316,2317,2318,2319,2320,0,0,0,0,0,0,0,0,
0,0,2334,2335,2336,2337,2338,2339,0,0,0,0,0,0,0,0,
0,0,2353,2354,2355,2356,2357,2358,0,0,0,0,0,0,0,0,
0,0,2372,2373,2374,2375,2376,2377,0,0,0,0,0,0,0,0,
0,0,2391,2392,2393,2394,2395,2396,0,0,0,0,0,0,0,0,
0,0,0,0,0,0,0,0,0,0,0,0,0,0,0,0,
0,0,0,0,0,0,0,0,0,0,0,0,0,0,0,0,
0,0,0,0,0,0,0,0,0,0,0,0,0,0,0,0,
0,0,0,0,0,0,0,0,0,0,0,0,0,0,0,0,
0,0,0,0,0,0,0,0,0,0,0,0,0,0,0,0,
0,0,0,0,0,0,0,0,0,0,0,0,0,0,0,0,
0,0,0,0,0,0,0,0,0,0,0,0,0,0,0,0,
0,0,0,0,0,0,0,0,0,0,0,0,0,0,0,0
</chunk>
   <chunk x="-16" y="48" width="16" height="16">
0,0,0,0,0,0,0,0,2397,2398,2399,2400,0,0,0,0,
0,0,0,0,0,0,0,0,2416,2417,2418,2419,0,0,0,0,
0,0,0,0,0,0,0,0,2435,2436,2437,2438,0,0,0,0,
0,0,0,0,0,0,0,0,2454,2455,2456,2457,0,0,0,0,
0,0,0,0,0,0,0,0,2473,2474,2475,2476,0,0,0,0,
0,0,0,0,0,0,0,0,0,0,0,0,0,0,0,0,
0,0,0,0,0,0,0,0,0,0,0,0,0,0,0,0,
0,0,0,0,0,0,0,0,0,0,0,0,0,0,0,0,
0,0,0,0,0,0,0,0,0,0,0,0,0,0,0,0,
0,0,0,0,0,0,0,0,0,0,0,0,0,0,0,0,
0,0,0,0,0,0,0,0,0,0,0,0,0,0,0,0,
0,0,0,0,0,0,0,0,0,0,0,0,0,0,0,0,
0,0,0,0,0,0,0,0,0,0,0,0,0,0,0,0,
0,0,0,0,0,0,0,0,0,0,0,0,0,0,0,0,
0,0,0,0,0,0,0,0,2492,2493,2494,2495,2496,0,0,0,
0,0,0,0,0,0,0,0,2511,2512,2513,2514,2515,0,0,0
</chunk>
   <chunk x="0" y="48" width="16" height="16">
0,0,0,0,0,0,0,0,0,0,0,0,2401,2402,2403,2404,
0,0,0,0,0,0,0,0,0,0,0,0,2420,2421,2422,2423,
0,0,0,0,0,0,0,0,0,0,0,0,2439,2440,2441,2442,
0,0,0,0,0,0,0,0,0,0,0,0,2458,2459,2460,2461,
0,0,0,0,0,0,0,0,0,0,0,0,2477,2478,2479,2480,
0,0,0,0,0,0,0,0,0,0,0,0,0,0,0,0,
0,0,0,0,0,0,0,0,0,0,0,0,0,0,0,0,
0,0,0,0,0,0,0,0,0,0,0,0,0,0,0,0,
0,0,0,0,0,0,0,0,0,0,0,0,0,0,0,0,
0,0,0,0,0,0,0,0,0,0,0,0,0,0,0,0,
0,0,0,0,0,0,0,0,0,0,0,0,0,0,0,0,
0,0,0,0,0,0,0,0,0,0,0,0,0,0,0,0,
0,0,0,0,0,0,0,0,0,0,0,0,0,0,0,0,
0,0,0,0,0,0,0,0,0,0,0,0,0,0,0,0,
0,0,0,0,0,0,0,0,0,0,0,0,0,2497,2498,2499,
0,0,0,0,0,0,0,0,0,0,0,0,0,2516,2517,2518
</chunk>
   <chunk x="16" y="48" width="16" height="16">
2405,0,0,0,0,0,0,0,0,0,0,0,0,0,0,2406,
2424,0,0,0,0,0,0,0,0,0,0,0,0,0,0,2425,
2443,0,0,0,0,0,0,0,0,0,0,0,0,0,0,2444,
2462,0,0,0,0,0,0,0,0,0,0,0,0,0,0,2463,
2481,0,0,0,0,0,0,0,0,0,0,0,0,0,0,2482,
0,0,0,0,0,0,0,0,0,0,0,0,0,0,0,0,
0,0,0,0,0,0,0,0,0,0,0,0,0,0,0,0,
0,0,0,0,0,0,0,0,0,0,0,0,0,0,0,0,
0,0,0,0,0,0,0,0,0,0,0,0,0,0,0,0,
0,0,0,0,0,0,0,0,0,0,0,0,0,0,0,0,
0,0,0,0,0,0,0,0,0,0,0,0,0,0,0,0,
0,0,0,0,0,0,0,0,0,0,0,0,0,0,0,0,
0,0,0,0,0,0,0,0,0,0,0,0,0,0,0,0,
0,0,0,0,0,0,0,0,0,0,0,0,0,0,0,0,
0,0,0,0,0,0,0,0,0,0,0,0,0,0,0,2501,
0,0,0,0,0,0,0,0,0,0,0,0,0,0,0,2520
</chunk>
   <chunk x="32" y="48" width="16" height="16">
2407,2408,2409,2410,0,0,0,0,0,0,0,0,0,0,0,0,
2426,2427,2428,2429,0,0,0,0,0,0,0,0,0,0,0,0,
2445,2446,2447,2448,0,0,0,0,0,0,0,0,0,0,0,0,
2464,2465,2466,2467,0,0,0,0,0,0,0,0,0,0,0,0,
2483,2484,2485,2486,0,0,0,0,0,0,0,0,0,0,0,0,
0,0,0,0,0,0,0,0,0,0,0,0,0,0,0,0,
0,0,0,0,0,0,0,0,0,0,0,0,0,0,0,0,
0,0,0,0,0,0,0,0,0,0,0,0,0,0,0,0,
0,0,0,0,0,0,0,0,0,0,0,0,0,0,0,0,
0,0,0,0,0,0,0,0,0,0,0,0,0,0,0,0,
0,0,0,0,0,0,0,0,0,0,0,0,0,0,0,0,
0,0,0,0,0,0,0,0,0,0,0,0,0,0,0,0,
0,0,0,0,0,0,0,0,0,0,0,0,0,0,0,0,
0,0,0,0,0,0,0,0,0,0,0,0,0,0,0,0,
2502,2503,2504,0,0,0,0,0,0,0,0,0,0,0,0,0,
2521,2522,2523,0,0,0,0,0,0,0,0,0,0,0,0,0
</chunk>
   <chunk x="48" y="48" width="16" height="16">
0,0,2411,2412,2413,2414,2415,0,0,0,0,0,0,0,0,0,
0,0,2430,2431,2432,2433,2434,0,0,0,0,0,0,0,0,0,
0,0,2449,2450,2451,2452,2453,0,0,0,0,0,0,0,0,0,
0,0,2468,2469,2470,2471,2472,0,0,0,0,0,0,0,0,0,
0,0,2487,2488,2489,2490,2491,0,0,0,0,0,0,0,0,0,
0,0,0,0,0,0,0,0,0,0,0,0,0,0,0,0,
0,0,0,0,0,0,0,0,0,0,0,0,0,0,0,0,
0,0,0,0,0,0,0,0,0,0,0,0,0,0,0,0,
0,0,0,0,0,0,0,0,0,0,0,0,0,0,0,0,
0,0,0,0,0,0,0,0,0,0,0,0,0,0,0,0,
0,0,0,0,0,0,0,0,0,0,0,0,0,0,0,0,
0,0,0,0,0,0,0,0,0,0,0,0,0,0,0,0,
0,0,0,0,0,0,0,0,0,0,0,0,0,0,0,0,
0,0,0,0,0,0,0,0,0,0,0,0,0,0,0,0,
0,0,2505,2506,2507,2508,2509,2510,0,0,0,0,0,0,0,0,
0,0,2524,2525,2526,2527,2528,2529,0,0,0,0,0,0,0,0
</chunk>
   <chunk x="-16" y="64" width="16" height="16">
0,0,0,0,0,0,0,0,2530,2531,2532,2533,2534,0,0,0,
0,0,0,0,0,0,0,0,2549,2550,2551,2552,2553,0,0,0,
0,0,0,0,0,0,0,0,2568,2569,2570,2571,2572,0,0,0,
0,0,0,0,0,0,0,0,0,0,0,0,0,0,0,0,
0,0,0,0,0,0,0,0,0,0,0,0,0,0,0,0,
0,0,0,0,0,0,0,0,0,0,0,0,0,0,0,0,
0,0,0,0,0,0,0,0,0,0,0,0,0,0,0,0,
0,0,0,0,0,0,0,0,0,0,0,0,0,0,0,0,
0,0,0,0,0,0,0,0,0,0,0,0,0,0,0,0,
0,0,0,0,0,0,0,0,0,0,0,0,0,0,0,0,
0,0,0,0,0,0,0,0,0,0,0,0,0,0,0,0,
0,0,0,0,0,0,0,0,0,0,0,0,0,0,0,0,
0,0,0,0,0,0,0,0,2587,2588,2589,2590,2591,0,0,0,
0,0,0,0,0,0,0,0,2606,2607,2608,2609,2610,0,0,0,
0,0,0,0,0,0,0,0,2625,2626,2627,2628,2629,0,0,0,
0,0,0,0,0,0,0,0,2644,2645,2646,2647,2648,0,0,0
</chunk>
   <chunk x="0" y="64" width="16" height="16">
0,0,0,0,0,0,0,0,0,0,0,0,0,2535,2536,2537,
0,0,0,0,0,0,0,0,0,0,0,0,2553,2554,2555,2556,
0,0,0,0,0,0,0,0,0,0,0,0,2572,2573,2574,2575,
0,0,0,0,0,0,0,0,0,0,0,0,0,0,0,0,
0,0,0,0,0,0,0,0,0,0,0,0,0,0,0,0,
0,0,0,0,0,0,0,0,0,0,0,0,0,0,0,0,
0,0,0,0,0,0,0,0,0,0,0,0,0,0,0,0,
0,0,0,0,0,0,0,0,0,0,0,0,0,0,0,0,
0,0,0,0,0,0,0,0,0,0,0,0,0,0,0,0,
0,0,0,0,0,0,0,0,0,0,0,0,0,0,0,0,
0,0,0,0,0,0,0,0,0,0,0,0,0,0,0,0,
0,0,0,0,0,0,0,0,0,0,0,0,0,0,0,0,
0,0,0,0,0,0,0,0,0,0,0,0,0,0,0,0,
0,0,0,0,0,0,0,0,0,0,0,0,2610,2611,2612,2613,
0,0,0,0,0,0,0,0,0,0,0,0,2629,2630,2631,2632,
0,0,0,0,0,0,0,0,0,0,0,0,2648,2649,2650,2651
</chunk>
   <chunk x="16" y="64" width="16" height="16">
0,0,0,0,0,0,0,0,0,0,0,0,0,0,0,2539,
0,0,0,0,0,0,0,0,0,0,0,0,0,0,0,2558,
0,0,0,0,0,0,0,0,0,0,0,0,0,0,0,0,
0,0,0,0,0,0,0,0,0,0,0,0,0,0,0,0,
0,0,0,0,0,0,0,0,0,0,0,0,0,0,0,0,
0,0,0,0,0,0,0,0,0,0,0,0,0,0,0,0,
0,0,0,0,0,0,0,0,0,0,0,0,0,0,0,0,
0,0,0,0,0,0,0,0,0,0,0,0,0,0,0,0,
0,0,0,0,0,0,0,0,0,0,0,0,0,0,0,0,
0,0,0,0,0,0,0,0,0,0,0,0,0,0,0,0,
0,0,0,0,0,0,0,0,0,0,0,0,0,0,0,0,
0,0,0,0,0,0,0,0,0,0,0,0,0,0,0,2576,
0,0,0,0,0,0,0,0,0,0,0,0,0,0,0,2595,
0,0,0,0,0,0,0,0,0,0,0,0,0,0,0,2614,
0,0,0,0,0,0,0,0,0,0,0,0,0,0,0,2633,
0,0,0,0,0,0,0,0,0,0,0,0,0,0,0,0
</chunk>
   <chunk x="32" y="64" width="16" height="16">
2540,2541,2542,0,0,0,0,0,0,0,0,0,0,0,0,0,
2559,2560,2561,0,0,0,0,0,0,0,0,0,0,0,0,0,
2578,2579,2580,0,0,0,0,0,0,0,0,0,0,0,0,0,
0,0,0,0,0,0,0,0,0,0,0,0,0,0,0,0,
0,0,0,0,0,0,0,0,0,0,0,0,0,0,0,0,
0,0,0,0,0,0,0,0,0,0,0,0,0,0,0,0,
0,0,0,0,0,0,0,0,0,0,0,0,0,0,0,0,
0,0,0,0,0,0,0,0,0,0,0,0,0,0,0,0,
0,0,0,0,0,0,0,0,0,0,0,0,0,0,0,0,
0,0,0,0,0,0,0,0,0,0,0,0,0,0,0,0,
0,0,0,0,0,0,0,0,0,0,0,0,0,0,0,0,
2577,0,0,0,0,0,0,0,0,0,0,0,0,0,0,0,
2596,0,0,0,0,0,0,0,0,0,0,0,0,0,0,0,
2615,2616,2617,2618,0,0,0,0,0,0,0,0,0,0,0,0,
2634,2635,2636,2637,0,0,0,0,0,0,0,0,0,0,0,0,
2653,2654,2655,2656,0,0,0,0,0,0,0,0,0,0,0,0
</chunk>
   <chunk x="48" y="64" width="16" height="16">
0,0,2543,2544,2545,2546,2547,2548,0,0,0,0,0,0,0,0,
0,0,2562,2563,2564,2565,2566,2567,0,0,0,0,0,0,0,0,
0,0,2581,2582,2583,2584,2585,2586,0,0,0,0,0,0,0,0,
0,0,0,0,0,0,0,0,0,0,0,0,0,0,0,0,
0,0,0,0,0,0,0,0,0,0,0,0,0,0,0,0,
0,0,0,0,0,0,0,0,0,0,0,0,0,0,0,0,
0,0,0,0,0,0,0,0,0,0,0,0,0,0,0,0,
0,0,0,0,0,0,0,0,0,0,0,0,0,0,0,0,
0,0,0,0,0,0,0,0,0,0,0,0,0,0,0,0,
0,0,0,0,0,0,0,0,0,0,0,0,0,0,0,0,
0,0,0,0,0,0,0,0,0,0,0,0,0,0,0,0,
0,0,0,0,0,0,0,0,0,0,0,0,0,0,0,0,
0,0,0,0,0,0,0,0,0,0,0,0,0,0,0,0,
0,0,2619,2620,2621,2622,2623,0,0,0,0,0,0,0,0,0,
0,0,2638,2639,2640,2641,2642,0,0,0,0,0,0,0,0,0,
0,0,2657,2658,2659,2660,2661,0,0,0,0,0,0,0,0,0
</chunk>
   <chunk x="-16" y="80" width="16" height="16">
0,0,0,0,0,0,0,0,2663,2664,2665,2666,2667,0,0,0,
0,0,0,0,0,0,0,0,2682,2683,2684,2685,0,0,0,0,
0,0,0,0,0,0,0,0,0,0,0,0,0,0,0,0,
0,0,0,0,0,0,0,0,0,0,0,0,0,0,0,0,
0,0,0,0,0,0,0,0,0,0,0,0,0,0,0,0,
0,0,0,0,0,0,0,0,0,0,0,0,0,0,0,0,
0,0,0,0,0,0,0,0,0,0,0,0,0,0,0,0,
0,0,0,0,0,0,0,0,0,0,0,0,0,0,0,0,
0,0,0,0,0,0,0,0,0,0,0,0,0,0,0,0,
0,0,0,0,0,0,0,0,0,0,0,0,0,0,0,0,
0,0,0,0,0,0,0,0,0,0,0,0,0,0,0,0,
0,0,0,0,0,0,0,0,0,0,0,0,0,0,0,0,
0,0,0,0,0,0,0,0,0,0,0,0,0,0,0,0,
0,0,0,0,0,0,0,0,0,0,0,0,0,0,0,0,
0,0,0,0,0,0,0,0,0,0,0,0,0,0,0,0,
0,0,0,0,0,0,0,0,0,0,0,0,0,0,0,0
</chunk>
   <chunk x="0" y="80" width="16" height="16">
0,0,0,0,0,0,0,0,0,0,0,0,0,2668,2669,2670,
0,0,0,0,0,0,0,0,0,0,0,0,2686,2687,2688,2689,
0,0,0,0,0,0,0,0,0,0,0,0,0,0,0,0,
0,0,0,0,0,0,0,0,0,0,0,0,0,0,0,0,
0,0,0,0,0,0,0,0,0,0,0,0,0,0,0,0,
0,0,0,0,0,0,0,0,0,0,0,0,0,0,0,0,
0,0,0,0,0,0,0,0,0,0,0,0,0,0,0,0,
0,0,0,0,0,0,0,0,0,0,0,0,0,0,0,0,
0,0,0,0,0,0,0,0,0,0,0,0,0,0,0,0,
0,0,0,0,0,0,0,0,0,0,0,0,0,0,0,0,
0,0,0,0,0,0,0,0,0,0,0,0,0,0,0,0,
0,0,0,0,0,0,0,0,0,0,0,0,0,0,0,0,
0,0,0,0,0,0,0,0,0,0,0,0,0,0,0,0,
0,0,0,0,0,0,0,0,0,0,0,0,0,0,0,0,
0,0,0,0,0,0,0,0,0,0,0,0,0,0,0,0,
0,0,0,0,0,0,0,0,0,0,0,0,0,0,0,0
</chunk>
   <chunk x="16" y="80" width="16" height="16">
0,0,0,0,0,0,0,0,0,0,0,0,0,0,0,0,
0,0,0,0,0,0,0,0,0,0,0,0,0,0,0,2690,
0,0,0,0,0,0,0,0,0,0,0,0,0,0,0,0,
0,0,0,0,0,0,0,0,0,0,0,0,0,0,0,0,
0,0,0,0,0,0,0,0,0,0,0,0,0,0,0,0,
0,0,0,0,0,0,0,0,0,0,0,0,0,0,0,0,
0,0,0,0,0,0,0,0,0,0,0,0,0,0,0,0,
0,0,0,0,0,0,0,0,0,0,0,0,0,0,0,0,
0,0,0,0,0,0,0,0,0,0,0,0,0,0,0,0,
0,0,0,0,0,0,0,0,0,0,0,0,0,0,0,0,
0,0,0,0,0,0,0,0,0,0,0,0,0,0,0,0,
0,0,0,0,0,0,0,0,0,0,0,0,0,0,0,0,
0,0,0,0,0,0,0,0,0,0,0,0,0,0,0,0,
0,0,0,0,0,0,0,0,0,0,0,0,0,0,0,0,
0,0,0,0,0,0,0,0,0,0,0,0,0,0,0,0,
0,0,0,0,0,0,0,0,0,0,0,0,0,0,0,0
</chunk>
   <chunk x="32" y="80" width="16" height="16">
2672,2673,2674,2675,0,0,0,0,0,0,0,0,0,0,0,0,
2691,2692,2693,2694,0,0,0,0,0,0,0,0,0,0,0,0,
0,0,0,0,0,0,0,0,0,0,0,0,0,0,0,0,
0,0,0,0,0,0,0,0,0,0,0,0,0,0,0,0,
0,0,0,0,0,0,0,0,0,0,0,0,0,0,0,0,
0,0,0,0,0,0,0,0,0,0,0,0,0,0,0,0,
0,0,0,0,0,0,0,0,0,0,0,0,0,0,0,0,
0,0,0,0,0,0,0,0,0,0,0,0,0,0,0,0,
0,0,0,0,0,0,0,0,0,0,0,0,0,0,0,0,
0,0,0,0,0,0,0,0,0,0,0,0,0,0,0,0,
0,0,0,0,0,0,0,0,0,0,0,0,0,0,0,0,
0,0,0,0,0,0,0,0,0,0,0,0,0,0,0,0,
0,0,0,0,0,0,0,0,0,0,0,0,0,0,0,0,
0,0,0,0,0,0,0,0,0,0,0,0,0,0,0,0,
0,0,0,0,0,0,0,0,0,0,0,0,0,0,0,0,
0,0,0,0,0,0,0,0,0,0,0,0,0,0,0,0
</chunk>
   <chunk x="48" y="80" width="16" height="16">
0,0,2676,2677,2678,2679,2680,0,0,0,0,0,0,0,0,0,
0,0,2695,2696,2697,2698,2699,0,0,0,0,0,0,0,0,0,
0,0,2714,2715,2716,2717,2718,0,0,0,0,0,0,0,0,0,
0,0,0,0,0,0,0,0,0,0,0,0,0,0,0,0,
0,0,0,0,0,0,0,0,0,0,0,0,0,0,0,0,
0,0,0,0,0,0,0,0,0,0,0,0,0,0,0,0,
0,0,0,0,0,0,0,0,0,0,0,0,0,0,0,0,
0,0,0,0,0,0,0,0,0,0,0,0,0,0,0,0,
0,0,0,0,0,0,0,0,0,0,0,0,0,0,0,0,
0,0,0,0,0,0,0,0,0,0,0,0,0,0,0,0,
0,0,0,0,0,0,0,0,0,0,0,0,0,0,0,0,
0,0,0,0,0,0,0,0,0,0,0,0,0,0,0,0,
0,0,0,0,0,0,0,0,0,0,0,0,0,0,0,0,
0,0,0,0,0,0,0,0,0,0,0,0,0,0,0,0,
0,0,0,0,0,0,0,0,0,0,0,0,0,0,0,0,
0,0,0,0,0,0,0,0,0,0,0,0,0,0,0,0
</chunk>
  </data>
 </layer>
</map>
